P3
256 170
255
220 235 255
220 235 255
220 235 255
220 235 255
220 235 255
220 235 255
220 235 255
220 235 255
220 235 255
220 235 255
220 235 255
220 235 255
220 235 255
220 235 255
220 235 255
220 235 255
220 235 255
220 235 255
220 235 255
220 235 255
220 235 255
220 235 255
220 235 255
220 235 255
220 235 255
220 235 255
220 235 255
220 235 255
220 235 255
220 235 255
220 235 255
220 235 255
220 235 255
220 235 255
220 235 255
220 235 255
220 235 255
220 235 255
220 235 255
220 235 255
220 235 255
220 235 255
220 235 255
220 235 255
220 235 255
220 235 255
220 235 255
220 235 255
220 235 255
220 235 255
220 235 255
220 235 255
220 235 255
220 235 255
220 235 255
220 235 255
220 235 255
220 235 255
220 235 255
220 235 255
220 235 255
220 235 255
220 235 255
220 235 255
220 235 255
220 235 255
220 235 255
220 235 255
220 235 255
220 235 255
220 235 255
220 235 255
220 235 255
220 235 255
220 235 255
220 235 255
220 235 255
220 235 255
220 235 255
220 235 255
220 235 255
220 235 255
220 235 255
220 235 255
220 235 255
220 235 255
220 235 255
220 235 255
220 235 255
220 235 255
220 235 255
220 235 255
220 235 255
220 235 255
220 235 255
220 235 255
220 235 255
220 235 255
220 235 255
220 235 255
220 235 255
220 235 255
220 235 255
220 235 255
220 235 255
220 235 255
220 235 255
220 235 255
220 235 255
220 235 255
220 235 255
220 235 255
220 235 255
220 235 255
220 235 255
220 235 255
220 235 255
220 235 255
220 235 255
220 235 255
220 235 255
220 235 255
220 235 255
220 235 255
220 235 255
220 235 255
220 235 255
220 235 255
220 235 255
220 235 255
220 235 255
220 235 255
220 235 255
220 235 255
220 235 255
220 235 255
220 235 255
220 235 255
220 235 255
220 235 255
220 235 255
220 235 255
220 235 255
220 235 255
220 235 255
220 235 255
220 235 255
220 235 255
220 235 255
220 235 255
220 235 255
220 235 255
220 235 255
220 235 255
220 235 255
220 235 255
220 235 255
220 235 255
220 235 255
220 235 255
220 235 255
220 235 255
220 235 255
220 235 255
220 235 255
220 235 255
220 235 255
220 235 255
220 235 255
220 235 255
220 235 255
220 235 255
220 235 255
220 235 255
220 235 255
220 235 255
220 235 255
220 235 255
220 235 255
220 235 255
220 235 255
220 235 255
220 235 255
220 235 255
220 235 255
220 235 255
220 235 255
220 235 255
220 235 255
220 235 255
220 235 255
220 235 255
220 235 255
220 235 255
220 235 255
220 235 255
220 235 255
220 235 255
220 235 255
220 235 255
220 235 255
220 235 255
220 235 255
220 235 255
220 235 255
220 235 255
220 235 255
220 235 255
220 235 255
220 235 255
220 235 255
220 235 255
220 235 255
220 235 255
220 235 255
220 235 255
220 235 255
220 235 255
220 235 255
220 235 255
220 235 255
220 235 255
220 235 255
220 235 255
220 235 255
220 235 255
220 235 255
220 235 255
220 235 255
220 235 255
220 235 255
220 235 255
220 235 255
220 235 255
220 235 255
220 235 255
220 235 255
220 235 255
220 235 255
220 235 255
220 235 255
220 235 255
220 235 255
220 235 255
220 235 255
220 235 255
220 235 255
220 235 255
220 235 255
220 235 255
220 235 255
220 235 255
220 235 255
220 235 255
220 235 255
220 235 255
220 235 255
220 235 255
220 235 255
220 235 255
220 235 255
220 235 255
220 235 255
220 235 255
220 235 255
220 235 255
220 235 255
220 235 255
220 235 255
220 235 255
220 235 255
220 235 255
220 235 255
220 235 255
220 235 255
220 235 255
220 235 255
220 235 255
220 235 255
220 235 255
220 235 255
220 235 255
220 235 255
220 235 255
220 235 255
220 235 255
220 235 255
220 235 255
220 235 255
220 235 255
220 235 255
220 235 255
220 235 255
220 235 255
220 235 255
220 235 255
220 235 255
220 235 255
220 235 255
220 235 255
220 235 255
220 235 255
220 235 255
220 235 255
220 235 255
220 235 255
220 235 255
220 235 255
220 235 255
220 235 255
220 235 255
220 235 255
220 235 255
220 235 255
220 235 255
220 235 255
220 235 255
220 235 255
220 235 255
220 235 255
220 235 255
220 235 255
220 235 255
220 235 255
220 235 255
220 235 255
220 235 255
220 235 255
220 235 255
220 235 255
220 235 255
220 235 255
220 235 255
220 235 255
220 235 255
220 235 255
220 235 255
220 235 255
220 235 255
220 235 255
220 235 255
220 235 255
220 235 255
220 235 255
220 235 255
220 235 255
220 235 255
220 235 255
220 235 255
220 235 255
220 235 255
220 235 255
220 235 255
220 235 255
220 235 255
220 235 255
220 235 255
220 235 255
220 235 255
220 235 255
220 235 255
220 235 255
220 235 255
220 235 255
220 235 255
220 235 255
220 235 255
220 235 255
220 235 255
220 235 255
220 235 255
220 235 255
220 235 255
220 235 255
220 235 255
220 235 255
220 235 255
220 235 255
220 235 255
220 235 255
220 235 255
220 235 255
220 235 255
220 235 255
220 235 255
220 235 255
220 235 255
220 235 255
220 235 255
220 235 255
220 235 255
220 235 255
220 235 255
220 235 255
220 235 255
220 235 255
220 235 255
220 235 255
220 235 255
220 235 255
220 235 255
220 235 255
220 235 255
220 235 255
220 235 255
220 235 255
220 235 255
220 235 255
220 235 255
220 235 255
220 235 255
220 235 255
220 235 255
220 235 255
220 235 255
220 235 255
220 235 255
220 235 255
220 235 255
220 235 255
220 235 255
220 235 255
220 235 255
220 235 255
220 235 255
220 235 255
220 235 255
220 235 255
220 235 255
220 235 255
220 235 255
220 235 255
220 235 255
220 235 255
220 235 255
220 235 255
220 235 255
220 235 255
220 235 255
220 235 255
220 235 255
220 235 255
220 235 255
220 235 255
220 235 255
220 235 255
220 235 255
220 235 255
220 235 255
220 235 255
220 235 255
220 235 255
220 235 255
220 235 255
220 235 255
220 235 255
220 235 255
220 235 255
220 235 255
220 235 255
220 235 255
220 235 255
220 235 255
220 235 255
220 235 255
220 235 255
220 235 255
220 235 255
220 235 255
220 235 255
220 235 255
220 235 255
220 235 255
220 235 255
220 235 255
220 235 255
220 235 255
220 235 255
220 235 255
220 235 255
220 235 255
220 235 255
220 235 255
220 235 255
220 235 255
220 235 255
220 235 255
220 235 255
220 235 255
220 235 255
220 235 255
220 235 255
220 235 255
220 235 255
220 235 255
220 235 255
220 235 255
220 235 255
220 235 255
220 235 255
220 235 255
220 235 255
220 235 255
220 235 255
220 235 255
220 235 255
220 235 255
220 235 255
220 235 255
220 235 255
220 235 255
220 235 255
220 235 255
220 235 255
220 235 255
220 235 255
220 235 255
220 235 255
220 235 255
220 235 255
220 235 255
220 235 255
220 235 255
220 235 255
220 235 255
220 235 255
220 235 255
220 235 255
220 235 255
220 235 255
220 235 255
220 235 255
220 235 255
220 235 255
220 235 255
220 235 255
220 235 255
220 235 255
220 235 255
220 235 255
220 235 255
220 235 255
220 235 255
220 235 255
220 235 255
220 235 255
220 235 255
220 235 255
220 235 255
220 235 255
220 235 255
220 235 255
220 235 255
220 235 255
220 235 255
220 235 255
220 235 255
220 235 255
220 235 255
220 235 255
220 235 255
220 235 255
220 235 255
220 235 255
220 235 255
220 235 255
220 235 255
220 235 255
220 235 255
220 235 255
220 235 255
220 235 255
220 235 255
220 235 255
220 235 255
220 235 255
220 235 255
220 235 255
220 235 255
220 235 255
220 235 255
220 235 255
220 235 255
220 235 255
220 235 255
220 235 255
220 235 255
220 235 255
220 235 255
220 235 255
220 235 255
220 235 255
220 235 255
220 235 255
220 235 255
220 235 255
220 235 255
220 235 255
220 235 255
220 235 255
220 235 255
220 235 255
220 235 255
220 235 255
220 235 255
220 235 255
220 235 255
220 235 255
220 235 255
220 235 255
220 235 255
220 235 255
220 235 255
220 235 255
220 235 255
220 235 255
220 235 255
220 235 255
220 235 255
220 235 255
220 235 255
220 235 255
220 235 255
220 235 255
220 235 255
220 235 255
220 235 255
220 235 255
220 235 255
220 235 255
220 235 255
220 235 255
220 235 255
220 235 255
220 235 255
220 235 255
220 235 255
220 235 255
220 235 255
220 235 255
220 235 255
220 235 255
220 235 255
220 235 255
220 235 255
220 235 255
220 235 255
220 235 255
220 235 255
220 235 255
220 235 255
220 235 255
220 235 255
220 235 255
220 235 255
220 235 255
220 235 255
220 235 255
220 235 255
220 235 255
220 235 255
220 235 255
220 235 255
220 235 255
220 235 255
220 235 255
220 235 255
220 235 255
220 235 255
220 235 255
220 235 255
220 235 255
220 235 255
220 235 255
220 235 255
220 235 255
220 235 255
220 235 255
220 235 255
220 235 255
220 235 255
220 235 255
220 235 255
220 235 255
220 235 255
220 235 255
220 235 255
220 235 255
220 235 255
220 235 255
220 235 255
220 235 255
220 235 255
220 235 255
220 235 255
220 235 255
220 235 255
220 235 255
220 235 255
220 235 255
220 235 255
220 235 255
220 235 255
220 235 255
220 235 255
220 235 255
220 235 255
220 235 255
220 235 255
220 235 255
220 235 255
220 235 255
220 235 255
220 235 255
220 235 255
220 235 255
220 235 255
220 235 255
220 235 255
220 235 255
220 235 255
220 235 255
220 235 255
220 235 255
220 235 255
220 235 255
220 235 255
220 235 255
220 235 255
220 235 255
220 235 255
220 235 255
220 235 255
220 235 255
220 235 255
220 235 255
220 235 255
220 235 255
220 235 255
220 235 255
220 235 255
220 235 255
220 235 255
220 235 255
220 235 255
220 235 255
220 235 255
220 235 255
220 235 255
220 235 255
220 235 255
220 235 255
220 235 255
220 235 255
220 235 255
220 235 255
220 235 255
220 235 255
220 235 255
220 235 255
220 235 255
220 235 255
220 235 255
220 235 255
220 235 255
220 235 255
220 235 255
220 235 255
220 235 255
220 235 255
220 235 255
220 235 255
220 235 255
220 235 255
220 235 255
220 235 255
220 235 255
220 235 255
220 235 255
220 235 255
220 235 255
220 235 255
220 235 255
220 235 255
220 235 255
220 235 255
220 235 255
220 235 255
220 235 255
220 235 255
220 235 255
220 235 255
220 235 255
220 235 255
220 235 255
220 235 255
220 235 255
220 235 255
220 235 255
220 235 255
220 235 255
220 235 255
220 235 255
220 235 255
220 235 255
220 235 255
220 235 255
220 235 255
220 235 255
220 235 255
220 235 255
220 235 255
220 235 255
220 235 255
220 235 255
220 235 255
220 235 255
220 235 255
220 235 255
220 235 255
220 235 255
220 235 255
220 235 255
220 235 255
220 235 255
220 235 255
220 235 255
220 235 255
220 235 255
220 235 255
220 235 255
220 235 255
220 235 255
220 235 255
220 235 255
220 235 255
220 235 255
220 235 255
220 235 255
220 235 255
220 235 255
220 235 255
220 235 255
220 235 255
220 235 255
220 235 255
220 235 255
220 235 255
220 235 255
220 235 255
220 235 255
220 235 255
220 235 255
220 235 255
220 235 255
220 235 255
220 235 255
220 235 255
220 235 255
220 235 255
220 235 255
220 235 255
220 235 255
220 235 255
220 235 255
220 235 255
220 235 255
220 235 255
220 235 255
220 235 255
220 235 255
220 235 255
220 235 255
220 235 255
220 235 255
220 235 255
220 235 255
220 235 255
220 235 255
220 235 255
220 235 255
220 235 255
220 235 255
220 235 255
220 235 255
220 235 255
220 235 255
220 235 255
220 235 255
220 235 255
220 235 255
220 235 255
220 235 255
220 235 255
220 235 255
220 235 255
220 235 255
220 235 255
220 235 255
220 235 255
220 235 255
220 235 255
220 235 255
220 235 255
220 235 255
220 235 255
220 235 255
220 235 255
220 235 255
220 235 255
220 235 255
220 235 255
220 235 255
220 235 255
220 235 255
220 235 255
220 235 255
220 235 255
220 235 255
220 235 255
220 235 255
220 235 255
220 235 255
220 235 255
220 235 255
220 235 255
220 235 255
220 235 255
220 235 255
220 235 255
220 235 255
220 235 255
220 235 255
220 235 255
220 235 255
220 235 255
220 235 255
220 235 255
220 235 255
220 235 255
220 235 255
220 235 255
220 235 255
220 235 255
220 235 255
220 235 255
220 235 255
220 235 255
220 235 255
220 235 255
220 235 255
220 235 255
220 235 255
220 235 255
220 235 255
220 235 255
220 235 255
220 235 255
220 235 255
220 235 255
220 235 255
220 235 255
220 235 255
220 235 255
220 235 255
220 235 255
220 235 255
220 235 255
220 235 255
220 235 255
220 235 255
220 235 255
220 235 255
220 235 255
220 235 255
220 235 255
220 235 255
220 235 255
220 235 255
220 235 255
220 235 255
220 235 255
220 235 255
220 235 255
220 235 255
220 235 255
220 235 255
220 235 255
220 235 255
220 235 255
220 235 255
220 235 255
220 235 255
220 235 255
220 235 255
220 235 255
220 235 255
220 235 255
220 235 255
220 235 255
220 235 255
220 235 255
220 235 255
220 235 255
220 235 255
220 235 255
220 235 255
220 235 255
220 235 255
220 235 255
220 235 255
220 235 255
220 235 255
220 235 255
220 235 255
220 235 255
220 235 255
220 235 255
220 235 255
220 235 255
220 235 255
220 235 255
220 235 255
220 235 255
221 235 255
221 235 255
221 235 255
221 235 255
221 235 255
221 235 255
221 235 255
221 235 255
221 235 255
221 235 255
221 235 255
221 235 255
221 235 255
221 235 255
221 235 255
221 235 255
221 235 255
221 235 255
221 235 255
221 235 255
221 235 255
221 235 255
221 235 255
221 235 255
221 235 255
221 235 255
221 235 255
221 235 255
221 235 255
221 235 255
221 235 255
221 235 255
221 235 255
221 235 255
221 235 255
221 235 255
221 235 255
221 235 255
221 235 255
221 235 255
221 235 255
221 235 255
221 235 255
221 235 255
221 235 255
221 235 255
221 235 255
221 235 255
221 235 255
221 235 255
221 235 255
221 235 255
221 235 255
221 235 255
221 235 255
221 235 255
221 235 255
221 235 255
221 235 255
221 235 255
221 235 255
221 235 255
221 235 255
221 235 255
221 235 255
221 235 255
221 235 255
221 235 255
221 235 255
221 235 255
221 235 255
221 235 255
221 235 255
221 235 255
221 235 255
221 235 255
221 235 255
221 235 255
221 235 255
221 235 255
221 235 255
221 235 255
221 235 255
221 235 255
221 235 255
221 235 255
221 235 255
221 235 255
221 235 255
220 235 255
221 235 255
221 235 255
221 235 255
221 235 255
221 235 255
221 235 255
221 235 255
221 235 255
221 235 255
221 235 255
221 235 255
221 235 255
221 235 255
221 235 255
221 235 255
221 235 255
221 235 255
221 235 255
221 235 255
221 235 255
220 235 255
221 235 255
221 235 255
221 235 255
221 235 255
221 235 255
221 235 255
221 235 255
221 235 255
221 235 255
221 235 255
221 235 255
221 235 255
221 235 255
221 235 255
221 235 255
221 235 255
221 235 255
221 235 255
221 235 255
221 235 255
221 235 255
221 235 255
221 235 255
221 235 255
221 235 255
221 235 255
221 235 255
221 235 255
221 235 255
221 235 255
221 235 255
221 235 255
221 235 255
221 235 255
221 235 255
221 235 255
221 235 255
221 235 255
221 235 255
221 235 255
221 235 255
220 235 255
221 235 255
221 235 255
221 235 255
221 235 255
221 235 255
221 235 255
221 235 255
221 235 255
221 235 255
221 235 255
221 235 255
221 235 255
221 235 255
221 235 255
221 235 255
221 235 255
221 235 255
221 235 255
221 235 255
221 235 255
220 235 255
220 235 255
221 235 255
221 235 255
221 235 255
221 235 255
221 235 255
221 235 255
221 235 255
220 235 255
221 235 255
221 235 255
221 235 255
221 235 255
221 235 255
221 235 255
221 235 255
221 235 255
221 235 255
221 235 255
221 235 255
221 235 255
221 235 255
221 235 255
221 235 255
221 235 255
221 235 255
221 235 255
221 235 255
221 235 255
221 235 255
221 235 255
221 235 255
221 235 255
221 235 255
221 235 255
221 235 255
221 235 255
221 235 255
221 235 255
221 235 255
221 235 255
221 235 255
221 235 255
221 235 255
221 235 255
221 235 255
221 235 255
221 235 255
221 235 255
221 235 255
221 235 255
221 235 255
221 235 255
221 235 255
221 235 255
221 235 255
221 235 255
221 235 255
221 235 255
221 235 255
221 235 255
221 235 255
221 235 255
221 235 255
221 235 255
221 235 255
221 235 255
221 235 255
221 235 255
221 235 255
221 235 255
221 235 255
221 235 255
221 235 255
221 235 255
221 235 255
221 235 255
221 235 255
221 235 255
221 235 255
221 235 255
221 235 255
221 235 255
221 235 255
221 235 255
221 235 255
221 235 255
221 235 255
221 235 255
221 235 255
221 235 255
221 235 255
221 235 255
221 235 255
221 235 255
221 235 255
221 235 255
221 235 255
221 235 255
221 235 255
221 235 255
221 235 255
221 235 255
221 235 255
221 235 255
221 235 255
221 235 255
221 235 255
221 235 255
221 235 255
221 235 255
221 235 255
221 235 255
221 235 255
221 235 255
221 235 255
221 235 255
221 235 255
221 235 255
221 235 255
221 235 255
221 235 255
221 235 255
221 235 255
221 235 255
221 235 255
221 235 255
221 235 255
221 235 255
221 235 255
221 235 255
221 235 255
221 235 255
221 235 255
221 235 255
221 235 255
221 235 255
221 235 255
221 235 255
221 235 255
221 235 255
221 235 255
221 235 255
221 235 255
221 235 255
221 235 255
221 235 255
221 235 255
221 235 255
221 235 255
221 235 255
221 235 255
221 235 255
221 235 255
221 235 255
221 235 255
221 235 255
221 235 255
221 235 255
221 235 255
221 235 255
221 235 255
221 235 255
221 235 255
221 235 255
221 235 255
221 235 255
221 235 255
221 235 255
221 235 255
221 235 255
221 235 255
221 235 255
221 235 255
221 235 255
221 235 255
221 235 255
221 235 255
221 235 255
221 235 255
221 235 255
221 235 255
221 235 255
221 235 255
221 235 255
221 235 255
221 235 255
221 235 255
221 235 255
221 235 255
221 235 255
221 235 255
221 235 255
221 235 255
221 235 255
221 235 255
221 235 255
221 235 255
221 235 255
221 235 255
221 235 255
221 235 255
221 235 255
221 235 255
221 235 255
221 235 255
221 235 255
221 235 255
221 235 255
221 235 255
221 235 255
221 235 255
221 235 255
221 235 255
221 235 255
221 235 255
221 235 255
221 235 255
221 235 255
221 235 255
221 235 255
221 235 255
221 235 255
221 235 255
221 235 255
221 235 255
221 235 255
221 235 255
221 235 255
221 235 255
221 235 255
221 235 255
221 235 255
221 235 255
221 235 255
221 235 255
221 235 255
221 235 255
221 235 255
221 235 255
221 235 255
221 235 255
221 235 255
221 235 255
221 235 255
221 235 255
221 235 255
221 235 255
221 235 255
221 235 255
221 235 255
221 235 255
221 235 255
221 235 255
221 235 255
221 235 255
221 235 255
221 235 255
221 235 255
221 235 255
221 235 255
221 235 255
221 235 255
221 235 255
221 235 255
221 235 255
221 235 255
221 235 255
221 235 255
221 235 255
221 235 255
221 235 255
221 235 255
221 235 255
221 235 255
221 235 255
221 235 255
221 235 255
221 235 255
221 235 255
221 235 255
221 235 255
221 235 255
221 235 255
221 235 255
221 235 255
221 235 255
221 235 255
221 235 255
221 235 255
221 235 255
221 235 255
221 235 255
221 235 255
221 235 255
221 235 255
221 235 255
221 235 255
221 235 255
221 235 255
221 235 255
221 235 255
221 235 255
221 235 255
221 235 255
221 235 255
221 235 255
221 235 255
221 235 255
221 235 255
221 235 255
221 235 255
221 235 255
221 235 255
221 235 255
221 235 255
221 235 255
221 235 255
221 235 255
221 235 255
221 235 255
221 235 255
221 235 255
221 235 255
221 235 255
221 235 255
221 235 255
221 235 255
221 235 255
221 235 255
221 235 255
221 235 255
221 235 255
221 235 255
221 235 255
221 235 255
221 235 255
221 235 255
221 235 255
221 235 255
221 235 255
221 235 255
221 235 255
221 235 255
221 235 255
221 235 255
221 235 255
221 235 255
221 235 255
221 235 255
221 235 255
221 235 255
221 235 255
221 235 255
221 235 255
221 235 255
221 235 255
221 235 255
221 235 255
221 235 255
221 235 255
221 235 255
221 235 255
221 235 255
221 235 255
221 235 255
221 235 255
221 235 255
221 235 255
221 235 255
221 235 255
221 235 255
221 235 255
221 235 255
221 235 255
221 235 255
221 235 255
221 235 255
221 235 255
221 235 255
221 235 255
221 235 255
221 235 255
221 235 255
221 235 255
221 235 255
221 235 255
221 235 255
221 235 255
221 235 255
221 235 255
221 235 255
221 235 255
221 235 255
221 235 255
221 235 255
221 235 255
221 235 255
221 235 255
221 235 255
221 235 255
221 235 255
221 235 255
221 235 255
221 235 255
221 235 255
221 235 255
221 235 255
221 235 255
221 235 255
221 235 255
221 235 255
221 235 255
221 235 255
221 235 255
221 235 255
221 235 255
221 235 255
221 235 255
221 235 255
221 235 255
221 235 255
221 235 255
221 235 255
221 235 255
221 235 255
221 235 255
221 235 255
221 235 255
221 235 255
221 235 255
221 235 255
221 235 255
221 235 255
221 235 255
221 235 255
221 235 255
221 235 255
221 235 255
221 235 255
221 235 255
221 235 255
221 235 255
221 235 255
221 235 255
221 235 255
221 235 255
221 235 255
221 235 255
221 235 255
221 235 255
221 235 255
221 235 255
221 235 255
221 235 255
221 235 255
221 235 255
221 235 255
221 235 255
221 235 255
221 235 255
221 235 255
221 235 255
221 235 255
221 235 255
221 235 255
221 235 255
221 235 255
221 235 255
221 235 255
221 235 255
221 235 255
221 235 255
221 235 255
221 235 255
221 235 255
221 235 255
221 235 255
221 235 255
221 235 255
221 235 255
221 235 255
221 235 255
221 235 255
221 235 255
221 235 255
221 235 255
221 235 255
221 235 255
221 235 255
221 235 255
221 235 255
221 235 255
221 235 255
221 235 255
221 235 255
221 235 255
221 235 255
221 235 255
221 235 255
221 235 255
221 235 255
221 235 255
221 235 255
221 235 255
221 235 255
221 235 255
221 235 255
221 235 255
221 235 255
221 235 255
221 235 255
221 235 255
221 235 255
221 235 255
221 235 255
221 235 255
221 235 255
221 235 255
221 235 255
221 235 255
221 235 255
221 235 255
221 235 255
221 235 255
221 235 255
221 235 255
221 235 255
221 235 255
221 235 255
221 235 255
221 235 255
221 235 255
221 235 255
221 235 255
221 235 255
221 235 255
221 235 255
221 235 255
221 235 255
221 235 255
221 235 255
221 235 255
221 235 255
221 235 255
221 235 255
221 235 255
221 235 255
221 235 255
221 235 255
221 235 255
221 235 255
221 235 255
221 235 255
221 235 255
221 235 255
221 235 255
221 235 255
221 235 255
221 235 255
221 235 255
221 235 255
221 235 255
221 235 255
221 235 255
221 235 255
221 235 255
221 235 255
221 235 255
221 235 255
221 235 255
221 235 255
221 235 255
221 235 255
221 235 255
221 235 255
221 235 255
221 235 255
221 235 255
221 235 255
221 235 255
221 235 255
221 235 255
221 235 255
221 235 255
221 235 255
221 235 255
221 235 255
221 235 255
221 235 255
221 235 255
221 235 255
221 235 255
221 235 255
221 235 255
221 235 255
221 235 255
221 235 255
221 235 255
221 235 255
221 235 255
221 235 255
221 235 255
221 235 255
221 235 255
221 235 255
221 235 255
221 235 255
221 235 255
221 235 255
221 235 255
221 235 255
221 235 255
221 235 255
221 235 255
221 235 255
221 235 255
221 235 255
221 235 255
221 235 255
221 235 255
221 235 255
221 235 255
221 235 255
221 235 255
221 235 255
221 235 255
221 235 255
221 235 255
221 235 255
221 235 255
221 235 255
221 235 255
221 235 255
221 235 255
221 235 255
221 235 255
221 235 255
221 235 255
221 235 255
221 235 255
221 235 255
221 235 255
221 235 255
221 235 255
221 235 255
221 235 255
221 235 255
221 235 255
221 235 255
221 235 255
221 235 255
221 235 255
221 235 255
221 235 255
221 235 255
221 235 255
221 235 255
221 235 255
221 235 255
221 235 255
221 235 255
221 235 255
221 235 255
221 235 255
221 235 255
221 235 255
221 235 255
221 235 255
221 235 255
221 235 255
221 235 255
221 235 255
221 235 255
221 235 255
221 235 255
221 235 255
221 235 255
221 235 255
221 235 255
221 235 255
221 235 255
221 235 255
221 235 255
221 235 255
221 235 255
221 235 255
221 235 255
221 235 255
221 235 255
221 235 255
221 235 255
221 235 255
221 235 255
221 235 255
221 235 255
221 235 255
221 235 255
221 235 255
221 235 255
221 235 255
221 235 255
221 235 255
221 235 255
221 235 255
221 235 255
221 235 255
221 235 255
221 235 255
221 235 255
221 235 255
221 235 255
221 235 255
221 235 255
221 235 255
221 235 255
221 235 255
221 235 255
221 235 255
221 235 255
221 235 255
221 235 255
221 235 255
221 235 255
221 235 255
221 235 255
221 235 255
221 235 255
221 235 255
221 235 255
221 235 255
221 235 255
221 235 255
221 235 255
221 235 255
221 235 255
221 235 255
221 235 255
221 235 255
221 235 255
221 235 255
221 235 255
221 235 255
221 235 255
221 235 255
221 235 255
221 235 255
221 235 255
221 235 255
221 235 255
221 235 255
221 235 255
221 235 255
221 235 255
221 235 255
221 235 255
221 235 255
221 235 255
221 235 255
221 235 255
221 235 255
221 235 255
221 235 255
221 235 255
221 235 255
221 235 255
221 235 255
221 235 255
221 235 255
221 235 255
221 235 255
221 235 255
221 235 255
221 235 255
221 235 255
221 235 255
221 235 255
221 235 255
221 235 255
221 235 255
221 235 255
221 235 255
221 235 255
221 235 255
221 235 255
221 235 255
221 235 255
221 235 255
221 235 255
221 235 255
221 235 255
221 235 255
221 235 255
221 235 255
221 235 255
221 235 255
221 235 255
221 235 255
221 235 255
221 235 255
221 235 255
221 235 255
221 235 255
221 235 255
221 235 255
221 235 255
221 235 255
221 235 255
221 235 255
221 235 255
221 235 255
221 235 255
221 235 255
221 235 255
221 235 255
221 235 255
221 235 255
221 235 255
221 235 255
221 235 255
221 235 255
221 235 255
221 235 255
221 235 255
221 235 255
221 235 255
221 235 255
221 235 255
221 235 255
221 235 255
221 235 255
221 235 255
221 235 255
221 235 255
221 235 255
221 235 255
221 235 255
221 235 255
221 235 255
221 235 255
221 235 255
221 235 255
221 235 255
221 235 255
221 235 255
221 235 255
221 235 255
221 235 255
221 235 255
221 235 255
221 235 255
221 235 255
221 235 255
221 235 255
221 235 255
221 235 255
221 235 255
221 235 255
221 235 255
221 235 255
221 235 255
221 235 255
221 235 255
221 235 255
221 235 255
221 235 255
221 235 255
221 235 255
221 235 255
221 235 255
221 235 255
221 235 255
221 235 255
221 235 255
221 235 255
221 235 255
221 235 255
221 235 255
221 235 255
221 235 255
221 235 255
221 235 255
221 235 255
221 235 255
221 235 255
221 235 255
221 235 255
221 235 255
221 235 255
221 235 255
221 235 255
221 235 255
221 235 255
221 235 255
221 235 255
221 235 255
221 235 255
221 235 255
221 235 255
221 235 255
221 235 255
221 235 255
221 235 255
221 235 255
221 235 255
221 235 255
221 235 255
221 235 255
221 235 255
221 235 255
221 235 255
221 235 255
221 235 255
221 235 255
221 235 255
221 235 255
221 235 255
221 235 255
221 235 255
221 235 255
221 235 255
221 235 255
221 235 255
221 235 255
221 235 255
221 235 255
221 235 255
221 235 255
221 235 255
221 235 255
221 235 255
221 235 255
221 235 255
221 235 255
221 235 255
221 235 255
221 235 255
221 235 255
221 235 255
221 235 255
221 235 255
221 235 255
221 235 255
221 235 255
221 235 255
221 235 255
221 235 255
221 235 255
221 235 255
221 235 255
221 235 255
221 235 255
221 235 255
221 235 255
221 235 255
221 235 255
221 235 255
221 235 255
221 235 255
221 235 255
221 235 255
221 235 255
221 235 255
221 235 255
221 235 255
221 235 255
221 235 255
221 235 255
221 235 255
221 235 255
221 235 255
221 235 255
221 235 255
221 235 255
221 235 255
221 235 255
221 235 255
221 235 255
221 235 255
221 235 255
221 235 255
221 235 255
221 235 255
221 235 255
221 235 255
221 235 255
221 235 255
221 235 255
221 235 255
221 235 255
221 235 255
221 235 255
221 235 255
221 235 255
221 235 255
221 235 255
221 235 255
221 235 255
221 235 255
221 235 255
221 235 255
221 235 255
221 235 255
221 235 255
221 235 255
221 235 255
221 235 255
221 235 255
221 235 255
221 235 255
221 235 255
221 235 255
221 235 255
221 235 255
221 235 255
221 235 255
221 235 255
221 235 255
221 235 255
221 235 255
221 235 255
221 235 255
221 235 255
221 235 255
221 235 255
221 235 255
221 235 255
221 235 255
221 235 255
221 235 255
221 235 255
221 235 255
221 235 255
221 235 255
221 235 255
221 235 255
221 235 255
221 235 255
221 235 255
221 235 255
221 235 255
221 235 255
221 235 255
221 235 255
221 235 255
221 235 255
221 235 255
221 235 255
221 235 255
221 235 255
221 235 255
221 235 255
221 235 255
221 235 255
221 235 255
221 235 255
221 235 255
221 235 255
221 235 255
221 235 255
221 235 255
221 235 255
221 235 255
221 235 255
221 235 255
221 235 255
221 235 255
221 235 255
221 235 255
221 235 255
221 235 255
221 235 255
221 235 255
221 235 255
221 235 255
221 235 255
221 235 255
221 235 255
221 235 255
221 235 255
221 235 255
221 235 255
221 235 255
221 235 255
221 235 255
221 235 255
221 235 255
221 235 255
221 235 255
221 235 255
221 235 255
221 235 255
221 235 255
221 235 255
221 235 255
221 235 255
221 235 255
221 235 255
221 235 255
221 235 255
221 235 255
221 235 255
221 235 255
221 235 255
221 235 255
221 235 255
221 235 255
221 235 255
221 235 255
221 235 255
221 235 255
221 235 255
221 235 255
221 235 255
221 235 255
221 235 255
221 235 255
221 235 255
221 235 255
221 235 255
221 235 255
221 235 255
221 235 255
221 235 255
221 235 255
221 235 255
221 235 255
221 235 255
221 235 255
221 235 255
221 235 255
221 235 255
221 235 255
221 235 255
221 235 255
221 235 255
221 235 255
221 235 255
221 235 255
221 235 255
221 235 255
221 235 255
221 235 255
221 235 255
221 235 255
221 235 255
221 235 255
221 235 255
221 235 255
221 235 255
221 235 255
221 235 255
221 235 255
221 235 255
221 235 255
221 235 255
221 235 255
221 235 255
221 235 255
221 235 255
221 235 255
221 235 255
221 235 255
221 235 255
221 235 255
221 235 255
221 235 255
221 235 255
221 235 255
221 235 255
221 235 255
221 235 255
221 235 255
221 235 255
221 235 255
221 235 255
221 235 255
221 235 255
221 235 255
221 235 255
221 235 255
221 235 255
221 235 255
221 235 255
221 235 255
221 235 255
221 235 255
221 235 255
221 235 255
221 235 255
221 235 255
221 235 255
221 235 255
221 235 255
221 235 255
221 235 255
221 235 255
221 235 255
221 235 255
221 235 255
221 235 255
221 235 255
221 235 255
221 235 255
221 235 255
221 235 255
221 235 255
221 235 255
221 235 255
221 235 255
221 235 255
221 235 255
221 235 255
221 235 255
221 235 255
221 235 255
221 235 255
221 235 255
221 235 255
221 235 255
221 235 255
221 235 255
221 235 255
221 235 255
221 235 255
221 235 255
221 235 255
221 235 255
221 235 255
221 235 255
221 235 255
221 235 255
221 235 255
221 235 255
221 235 255
221 235 255
221 235 255
221 235 255
221 235 255
221 235 255
221 235 255
221 235 255
221 235 255
221 235 255
221 235 255
221 235 255
221 235 255
221 235 255
221 235 255
221 235 255
221 235 255
221 235 255
221 235 255
221 235 255
221 235 255
221 235 255
221 235 255
221 235 255
221 235 255
221 235 255
221 235 255
221 235 255
221 235 255
221 235 255
221 235 255
221 235 255
221 235 255
221 235 255
221 235 255
221 235 255
221 235 255
221 235 255
221 235 255
221 235 255
221 235 255
221 235 255
221 235 255
221 235 255
221 235 255
221 235 255
221 235 255
221 235 255
221 235 255
221 235 255
221 235 255
221 235 255
221 235 255
221 235 255
221 235 255
221 235 255
221 235 255
221 235 255
221 235 255
221 235 255
221 235 255
221 235 255
221 235 255
221 235 255
221 235 255
221 235 255
221 235 255
221 235 255
221 235 255
221 235 255
221 235 255
221 235 255
221 235 255
221 235 255
221 235 255
221 235 255
221 235 255
221 235 255
221 235 255
221 235 255
221 235 255
221 235 255
221 235 255
221 235 255
221 235 255
221 235 255
221 235 255
221 235 255
221 235 255
221 235 255
221 235 255
221 235 255
221 235 255
221 235 255
221 235 255
221 235 255
221 235 255
221 235 255
221 235 255
221 235 255
221 235 255
221 235 255
221 235 255
221 235 255
221 235 255
221 235 255
221 235 255
221 235 255
221 235 255
221 235 255
221 235 255
221 235 255
221 235 255
221 235 255
221 235 255
221 235 255
221 235 255
221 235 255
221 235 255
221 235 255
221 235 255
221 235 255
221 235 255
221 235 255
221 235 255
221 235 255
221 235 255
221 235 255
221 235 255
221 235 255
221 235 255
221 235 255
221 235 255
221 235 255
221 235 255
221 235 255
221 235 255
221 235 255
221 235 255
221 235 255
221 235 255
221 235 255
221 235 255
221 235 255
221 235 255
221 235 255
221 235 255
221 235 255
221 235 255
221 235 255
221 235 255
221 235 255
221 235 255
221 235 255
221 235 255
221 235 255
221 235 255
221 235 255
221 235 255
221 235 255
221 235 255
221 235 255
221 235 255
221 235 255
221 235 255
221 235 255
221 235 255
221 235 255
221 235 255
221 235 255
221 235 255
221 235 255
221 235 255
221 235 255
221 235 255
221 235 255
221 235 255
221 235 255
221 235 255
221 235 255
221 235 255
221 235 255
221 235 255
221 235 255
221 235 255
221 235 255
221 235 255
221 235 255
221 235 255
221 235 255
221 235 255
221 235 255
221 235 255
221 235 255
221 235 255
221 235 255
221 235 255
221 235 255
221 235 255
221 235 255
221 235 255
221 235 255
221 235 255
221 235 255
221 235 255
221 235 255
221 235 255
221 235 255
221 235 255
221 235 255
221 235 255
221 235 255
221 235 255
221 235 255
221 235 255
221 235 255
221 235 255
221 235 255
221 235 255
221 235 255
221 235 255
221 235 255
221 235 255
221 235 255
221 235 255
221 235 255
221 235 255
221 235 255
221 235 255
221 235 255
221 235 255
221 235 255
221 235 255
221 235 255
221 235 255
221 235 255
221 235 255
221 235 255
221 235 255
221 235 255
221 235 255
221 235 255
221 235 255
221 235 255
221 235 255
221 235 255
221 235 255
221 235 255
221 235 255
221 235 255
221 235 255
221 235 255
221 235 255
221 235 255
221 235 255
221 235 255
221 235 255
221 235 255
221 235 255
221 235 255
221 235 255
221 235 255
221 235 255
221 235 255
221 235 255
221 235 255
221 235 255
221 235 255
221 235 255
221 235 255
221 235 255
221 235 255
221 235 255
221 235 255
221 235 255
221 235 255
221 235 255
221 235 255
221 235 255
221 235 255
221 235 255
221 235 255
221 235 255
221 235 255
221 235 255
221 235 255
221 235 255
221 235 255
221 235 255
221 235 255
221 235 255
221 235 255
221 235 255
221 235 255
221 235 255
221 235 255
221 235 255
221 235 255
221 235 255
221 235 255
221 235 255
221 235 255
221 235 255
221 235 255
221 235 255
221 235 255
221 235 255
221 235 255
221 235 255
221 235 255
221 235 255
221 235 255
221 235 255
221 235 255
221 235 255
221 235 255
221 235 255
221 235 255
221 235 255
221 235 255
221 235 255
221 235 255
221 235 255
221 235 255
221 235 255
221 235 255
221 235 255
221 235 255
221 235 255
221 235 255
221 235 255
221 235 255
221 235 255
221 235 255
221 235 255
221 235 255
221 235 255
221 235 255
221 235 255
221 235 255
221 235 255
221 235 255
221 235 255
221 235 255
221 235 255
221 235 255
221 235 255
221 235 255
221 235 255
221 235 255
221 235 255
221 235 255
221 235 255
221 235 255
221 235 255
221 235 255
221 235 255
221 235 255
221 235 255
221 235 255
221 235 255
221 235 255
221 235 255
221 235 255
221 235 255
221 235 255
221 235 255
221 235 255
221 235 255
221 235 255
221 235 255
221 235 255
221 235 255
221 235 255
221 235 255
221 235 255
221 235 255
221 235 255
221 235 255
221 235 255
221 235 255
221 235 255
221 235 255
221 235 255
221 235 255
221 235 255
221 235 255
221 235 255
221 235 255
221 235 255
221 235 255
221 235 255
221 235 255
221 235 255
221 235 255
221 235 255
221 235 255
221 235 255
221 235 255
221 235 255
221 235 255
221 235 255
221 235 255
221 235 255
221 235 255
221 235 255
221 235 255
221 235 255
221 235 255
221 235 255
221 235 255
221 235 255
221 235 255
221 235 255
221 235 255
221 235 255
221 235 255
221 235 255
221 235 255
221 235 255
221 235 255
221 235 255
221 235 255
221 235 255
221 235 255
221 235 255
221 235 255
221 235 255
221 235 255
221 235 255
221 235 255
221 235 255
221 235 255
221 235 255
221 235 255
221 235 255
221 235 255
221 235 255
221 235 255
221 235 255
221 235 255
221 235 255
221 235 255
221 235 255
221 235 255
221 235 255
221 235 255
221 235 255
221 235 255
221 235 255
221 235 255
221 235 255
221 235 255
221 235 255
221 235 255
221 235 255
221 235 255
221 235 255
221 235 255
221 235 255
221 235 255
221 235 255
221 235 255
221 235 255
221 235 255
221 235 255
221 235 255
221 235 255
221 235 255
221 235 255
221 235 255
221 235 255
221 235 255
221 235 255
221 235 255
221 235 255
221 235 255
221 235 255
221 235 255
221 235 255
221 235 255
221 235 255
221 235 255
221 235 255
221 235 255
221 235 255
221 235 255
221 235 255
221 235 255
221 235 255
221 235 255
221 235 255
221 235 255
221 235 255
221 235 255
221 235 255
221 235 255
221 235 255
221 235 255
221 235 255
221 235 255
221 235 255
221 235 255
221 235 255
221 235 255
221 235 255
221 235 255
221 235 255
221 235 255
221 235 255
221 235 255
221 235 255
221 235 255
221 235 255
221 235 255
221 235 255
221 235 255
221 235 255
221 235 255
221 235 255
221 235 255
221 235 255
221 235 255
221 235 255
221 235 255
221 235 255
221 235 255
221 235 255
221 235 255
221 235 255
221 235 255
221 235 255
221 235 255
221 235 255
221 235 255
221 235 255
221 235 255
221 235 255
221 235 255
221 235 255
221 235 255
221 235 255
221 235 255
221 235 255
221 235 255
221 235 255
221 235 255
221 235 255
221 235 255
221 235 255
221 235 255
221 235 255
221 235 255
221 235 255
221 235 255
221 235 255
221 235 255
221 235 255
221 235 255
221 235 255
221 235 255
221 235 255
221 235 255
221 235 255
221 235 255
221 235 255
221 235 255
221 235 255
221 235 255
221 235 255
221 235 255
221 235 255
221 235 255
221 235 255
221 235 255
221 235 255
221 235 255
221 235 255
221 235 255
221 235 255
221 235 255
221 235 255
221 235 255
221 235 255
221 235 255
221 235 255
221 235 255
221 235 255
221 235 255
221 235 255
221 235 255
221 235 255
221 235 255
221 235 255
221 235 255
221 235 255
221 235 255
221 235 255
221 235 255
221 235 255
221 235 255
221 235 255
221 235 255
221 235 255
221 235 255
221 235 255
221 235 255
221 235 255
221 235 255
221 235 255
221 235 255
221 235 255
221 235 255
221 235 255
221 235 255
221 235 255
221 235 255
221 235 255
221 235 255
221 235 255
221 235 255
221 235 255
221 235 255
221 235 255
221 235 255
221 235 255
221 235 255
221 235 255
221 235 255
221 235 255
221 235 255
221 235 255
221 235 255
221 235 255
221 235 255
221 235 255
221 235 255
221 235 255
221 235 255
221 235 255
221 235 255
221 235 255
221 235 255
221 235 255
221 235 255
221 235 255
221 235 255
221 235 255
221 235 255
221 235 255
221 235 255
221 235 255
221 235 255
221 235 255
221 235 255
221 235 255
221 235 255
221 235 255
221 235 255
221 235 255
221 235 255
221 235 255
221 235 255
221 235 255
221 235 255
221 235 255
221 235 255
221 235 255
221 235 255
221 235 255
221 235 255
221 235 255
221 235 255
221 235 255
221 235 255
221 235 255
221 235 255
221 235 255
221 235 255
221 235 255
221 235 255
221 235 255
221 235 255
221 235 255
221 235 255
221 235 255
221 235 255
221 235 255
221 235 255
221 235 255
221 235 255
221 235 255
221 235 255
221 235 255
221 235 255
221 235 255
221 235 255
221 235 255
221 235 255
221 235 255
221 235 255
221 235 255
221 235 255
221 235 255
221 235 255
221 235 255
221 235 255
221 235 255
221 235 255
221 235 255
221 235 255
221 235 255
221 235 255
221 235 255
221 235 255
221 235 255
221 235 255
221 235 255
221 235 255
221 235 255
221 235 255
221 235 255
221 235 255
221 235 255
221 235 255
221 235 255
221 235 255
221 235 255
221 235 255
221 235 255
221 235 255
221 235 255
221 235 255
221 235 255
221 235 255
221 235 255
221 235 255
221 235 255
221 235 255
221 235 255
221 235 255
220 234 253
219 233 253
221 235 255
221 235 255
221 235 255
221 235 255
221 235 255
221 235 255
221 235 255
221 235 255
221 235 255
221 235 255
221 235 255
221 235 255
221 235 255
221 235 255
221 235 255
221 235 255
221 235 255
221 235 255
221 235 255
221 235 255
221 235 255
221 235 255
221 235 255
221 235 255
221 235 255
221 235 255
221 235 255
221 235 255
221 235 255
221 235 255
221 235 255
221 235 255
221 235 255
221 235 255
221 235 255
221 235 255
221 235 255
221 235 255
221 235 255
221 235 255
221 235 255
221 235 255
221 235 255
221 235 255
221 235 255
221 235 255
221 235 255
221 235 255
221 235 255
221 235 255
221 235 255
221 235 255
221 235 255
221 235 255
221 235 255
221 235 255
221 235 255
221 235 255
221 235 255
221 235 255
221 235 255
221 235 255
221 235 255
221 235 255
221 235 255
221 235 255
221 235 255
221 235 255
221 235 255
221 235 255
221 235 255
221 235 255
221 235 255
221 235 255
221 235 255
221 235 255
221 235 255
221 235 255
221 235 255
221 235 255
221 235 255
221 235 255
221 235 255
221 235 255
221 235 255
221 235 255
221 235 255
221 235 255
221 235 255
221 235 255
221 235 255
221 235 255
221 235 255
221 235 255
221 235 255
221 235 255
221 235 255
221 235 255
221 235 255
221 235 255
221 235 255
221 235 255
221 235 255
221 235 255
221 235 255
221 235 255
221 235 255
221 235 255
221 235 255
221 235 255
221 235 255
221 235 255
221 235 255
221 235 255
221 235 255
221 235 255
221 235 255
221 235 255
221 235 255
221 235 255
221 235 255
221 235 255
221 235 255
221 235 255
221 235 255
221 235 255
221 235 255
221 235 255
221 235 255
221 235 255
221 235 255
221 235 255
221 235 255
221 235 255
221 235 255
221 235 255
221 235 255
221 235 255
221 235 255
221 235 255
221 235 255
221 235 255
221 235 255
221 235 255
221 235 255
221 235 255
221 235 255
221 235 255
221 235 255
221 235 255
221 235 255
221 235 255
221 235 255
221 236 255
221 236 255
221 236 255
221 236 255
221 236 255
221 236 255
221 236 255
221 236 255
221 236 255
221 236 255
221 236 255
221 236 255
221 236 255
221 236 255
221 236 255
221 236 255
221 236 255
221 236 255
221 236 255
221 236 255
221 236 255
221 236 255
221 236 255
221 236 255
221 236 255
221 236 255
221 236 255
221 236 255
221 236 255
221 236 255
221 236 255
221 236 255
221 236 255
221 236 255
221 236 255
221 236 255
221 236 255
221 236 255
221 236 255
221 236 255
221 236 255
221 236 255
221 236 255
221 236 255
221 236 255
221 236 255
221 236 255
221 236 255
221 236 255
221 236 255
221 236 255
221 236 255
221 236 255
221 236 255
221 236 255
221 236 255
221 236 255
221 236 255
221 236 255
221 236 255
221 236 255
221 236 255
221 236 255
221 236 255
221 236 255
221 236 255
221 236 255
221 236 255
221 236 255
221 236 255
221 236 255
221 236 255
221 236 255
221 236 255
221 236 255
221 236 255
221 236 255
221 236 255
221 236 255
221 236 255
221 236 255
221 236 255
221 236 255
221 236 255
221 236 255
221 236 255
221 236 255
221 236 255
221 236 255
221 236 255
221 236 255
221 236 255
221 236 255
221 236 255
221 236 255
219 233 252
207 217 234
206 216 233
198 206 221
194 201 214
195 202 216
186 190 201
194 200 213
190 195 207
190 195 207
201 210 225
204 213 229
211 223 240
218 232 251
221 236 255
221 236 255
221 236 255
221 236 255
221 236 255
221 236 255
221 236 255
221 236 255
221 236 255
221 236 255
221 236 255
221 235 255
219 233 253
216 231 251
214 229 249
212 227 248
206 221 242
208 223 243
206 220 240
210 226 247
208 223 243
208 222 242
216 230 251
217 231 251
219 233 253
220 235 255
221 236 255
221 236 255
221 236 255
221 236 255
221 236 255
221 236 255
221 236 255
221 236 255
221 236 255
221 236 255
221 236 255
221 236 255
221 236 255
221 236 255
221 236 255
221 236 255
221 236 255
221 236 255
221 236 255
221 236 255
221 236 255
221 236 255
221 236 255
221 236 255
221 236 255
221 236 255
221 236 255
221 236 255
221 236 255
221 236 255
221 236 255
221 236 255
221 236 255
219 233 252
217 230 248
213 225 241
210 220 236
207 217 231
208 218 233
210 221 236
208 218 233
212 223 239
213 225 242
215 228 245
220 234 254
220 234 254
221 236 255
221 236 255
221 236 255
221 236 255
221 236 255
221 236 255
221 236 255
221 236 255
221 236 255
221 236 255
221 236 255
221 236 255
221 236 255
221 236 255
221 236 255
221 236 255
221 236 255
221 236 255
221 236 255
221 236 255
221 236 255
221 236 255
221 236 255
221 236 255
221 236 255
221 236 255
221 236 255
221 236 255
221 236 255
221 236 255
221 236 255
221 236 255
221 236 255
221 236 255
221 236 255
221 236 255
221 236 255
221 236 255
221 236 255
221 236 255
221 236 255
221 236 255
221 236 255
221 236 255
221 236 255
221 236 255
221 236 255
221 236 255
221 236 255
221 236 255
221 236 255
221 236 255
221 236 255
221 236 255
221 236 255
221 236 255
221 236 255
221 236 255
221 236 255
221 236 255
221 236 255
221 236 255
221 236 255
221 236 255
221 236 255
221 236 255
221 236 255
221 236 255
221 236 255
221 236 255
221 236 255
221 236 255
221 236 255
221 236 255
221 236 255
221 236 255
221 236 255
221 236 255
221 236 255
221 236 255
221 236 255
221 236 255
221 236 255
221 236 255
221 236 255
221 236 255
221 236 255
221 236 255
221 236 255
221 236 255
221 236 255
221 236 255
221 236 255
221 236 255
221 236 255
221 236 255
221 236 255
221 236 255
221 236 255
221 236 255
221 236 255
221 236 255
221 236 255
221 236 255
221 236 255
221 236 255
221 236 255
221 236 255
221 236 255
221 236 255
221 236 255
221 236 255
221 236 255
221 236 255
221 236 255
221 236 255
221 236 255
221 236 255
221 236 255
221 236 255
221 236 255
221 236 255
221 236 255
221 236 255
221 236 255
221 236 255
221 236 255
221 236 255
221 236 255
221 236 255
221 236 255
221 236 255
221 236 255
221 236 255
221 236 255
221 236 255
221 236 255
221 236 255
221 236 255
221 236 255
221 236 255
221 236 255
221 236 255
221 236 255
221 236 255
221 236 255
221 236 255
221 236 255
221 236 255
221 236 255
221 236 255
221 236 255
221 236 255
221 236 255
221 236 255
221 236 255
221 236 255
221 236 255
221 236 255
221 236 255
221 236 255
221 236 255
221 236 255
221 236 255
221 236 255
221 236 255
221 236 255
210 222 239
203 212 227
188 193 204
179 180 189
173 172 178
158 152 153
139 124 116
140 126 121
130 111 99
133 114 103
135 118 108
138 121 113
138 123 116
145 132 128
159 153 155
156 148 149
179 179 188
186 190 201
205 215 231
211 223 241
217 231 250
221 236 255
221 236 255
221 236 255
221 235 255
219 234 253
213 229 247
198 217 230
197 214 230
186 206 219
166 187 200
172 189 212
163 181 203
158 175 197
155 172 194
160 176 198
158 174 195
161 177 200
163 179 201
168 183 205
183 199 222
189 205 227
185 201 222
198 213 234
209 224 244
220 235 255
221 236 255
221 236 255
221 236 255
221 236 255
221 236 255
221 236 255
221 236 255
221 236 255
221 236 255
221 236 255
221 236 255
221 236 255
221 236 255
221 236 255
221 236 255
221 236 255
221 236 255
221 236 255
221 236 255
221 236 255
221 236 255
221 236 255
221 236 255
221 236 255
218 231 249
210 220 236
206 215 228
195 201 211
188 193 200
179 180 183
177 179 181
176 178 181
175 177 181
174 177 181
174 177 181
174 177 181
174 177 181
174 177 181
174 177 181
175 177 181
176 178 181
177 178 181
183 186 191
189 193 200
197 204 214
204 212 225
211 222 238
218 231 250
221 235 255
221 236 255
221 236 255
221 236 255
221 236 255
221 236 255
221 236 255
221 236 255
221 236 255
221 236 255
221 236 255
221 236 255
221 236 255
221 236 255
221 236 255
221 236 255
221 236 255
221 236 255
221 236 255
221 236 255
221 236 255
221 236 255
221 236 255
221 236 255
221 236 255
221 236 255
221 236 255
221 236 255
221 236 255
221 236 255
221 236 255
221 236 255
221 236 255
221 236 255
221 236 255
221 236 255
221 236 255
221 236 255
221 236 255
221 236 255
221 236 255
221 236 255
221 236 255
221 236 255
221 236 255
221 236 255
221 236 255
221 236 255
221 236 255
221 236 255
221 236 255
221 236 255
221 236 255
221 236 255
221 236 255
221 236 255
221 236 255
221 236 255
221 236 255
221 236 255
221 236 255
221 236 255
221 236 255
221 236 255
221 236 255
221 236 255
221 236 255
221 236 255
221 236 255
221 236 255
221 236 255
221 236 255
221 236 255
221 236 255
221 236 255
221 236 255
221 236 255
221 236 255
221 236 255
221 236 255
221 236 255
221 236 255
221 236 255
221 236 255
221 236 255
221 236 255
221 236 255
221 236 255
221 236 255
221 236 255
221 236 255
221 236 255
221 236 255
221 236 255
221 236 255
221 236 255
221 236 255
221 236 255
221 236 255
221 236 255
221 236 255
221 236 255
221 236 255
221 236 255
221 236 255
221 236 255
221 236 255
221 236 255
221 236 255
221 236 255
221 236 255
221 236 255
221 236 255
221 236 255
221 236 255
221 236 255
221 236 255
221 236 255
221 236 255
221 236 255
221 236 255
221 236 255
221 236 255
221 236 255
221 236 255
221 236 255
221 236 255
221 236 255
221 236 255
221 236 255
221 236 255
221 236 255
221 236 255
221 236 255
221 236 255
221 236 255
221 236 255
221 236 255
221 236 255
221 236 255
221 236 255
221 236 255
221 236 255
221 236 255
221 236 255
221 236 255
221 236 255
221 236 255
221 236 255
221 236 255
221 236 255
221 236 255
221 236 255
221 236 255
221 236 255
221 236 255
221 236 255
221 236 255
221 236 255
221 235 254
211 223 240
192 197 210
169 166 171
147 134 130
142 127 121
129 111 99
124 99 80
125 99 80
123 98 79
122 98 80
121 97 79
122 98 79
123 98 80
123 98 80
122 98 79
123 98 80
125 99 80
122 98 80
126 103 87
134 118 110
152 143 143
182 184 194
183 185 195
211 223 240
215 229 247
212 229 247
191 210 224
179 204 211
166 195 195
159 189 187
156 184 186
148 170 185
140 157 178
142 160 183
138 155 177
136 153 175
136 152 175
135 151 173
134 149 171
137 153 175
136 152 175
124 136 155
146 162 184
140 154 175
145 162 184
150 165 188
158 174 195
170 185 206
191 205 225
210 225 245
218 232 252
221 236 255
221 236 255
221 236 255
221 236 255
221 236 255
221 236 255
221 236 255
221 236 255
221 236 255
221 236 255
221 236 255
221 236 255
221 236 255
221 236 255
221 236 255
221 236 255
221 236 255
218 232 250
212 223 239
196 201 211
187 191 197
178 181 184
175 177 181
173 176 181
172 176 181
171 175 181
171 175 181
170 175 181
169 174 181
169 174 181
169 174 181
169 174 181
169 174 181
169 174 181
169 174 181
169 174 181
169 174 181
170 174 181
170 175 181
171 175 181
172 175 181
173 176 181
174 177 181
175 177 181
178 180 183
193 198 207
202 210 221
209 219 234
220 234 253
221 236 255
221 236 255
221 236 255
221 236 255
221 236 255
221 236 255
221 236 255
221 236 255
221 236 255
221 236 255
221 236 255
221 236 255
221 236 255
221 236 255
221 236 255
221 236 255
221 236 255
221 236 255
221 236 255
221 236 255
221 236 255
221 236 255
221 236 255
221 236 255
221 236 255
221 236 255
221 236 255
221 236 255
221 236 255
221 236 255
221 236 255
221 236 255
221 236 255
221 236 255
221 236 255
221 236 255
221 236 255
221 236 255
221 236 255
221 236 255
221 236 255
221 236 255
221 236 255
221 236 255
221 236 255
221 236 255
221 236 255
221 236 255
221 236 255
221 236 255
221 236 255
221 236 255
221 236 255
221 236 255
221 236 255
221 236 255
221 236 255
221 236 255
221 236 255
221 236 255
221 236 255
221 236 255
221 236 255
221 236 255
221 236 255
221 236 255
221 236 255
221 236 255
221 236 255
221 236 255
221 236 255
221 236 255
221 236 255
221 236 255
221 236 255
221 236 255
221 236 255
221 236 255
221 236 255
221 236 255
221 236 255
221 236 255
221 236 255
221 236 255
221 236 255
221 236 255
221 236 255
221 236 255
221 236 255
221 236 255
221 236 255
221 236 255
221 236 255
221 236 255
221 236 255
221 236 255
221 236 255
221 236 255
221 236 255
221 236 255
221 236 255
221 236 255
221 236 255
221 236 255
221 236 255
221 236 255
221 236 255
221 236 255
221 236 255
221 236 255
221 236 255
221 236 255
221 236 255
221 236 255
221 236 255
221 236 255
221 236 255
221 236 255
221 236 255
221 236 255
221 236 255
221 236 255
221 236 255
221 236 255
221 236 255
221 236 255
221 236 255
221 236 255
221 236 255
221 236 255
221 236 255
221 236 255
221 236 255
221 236 255
221 236 255
221 236 255
221 236 255
221 236 255
221 236 255
221 236 255
221 236 255
221 236 255
221 236 255
221 236 255
221 236 255
221 236 255
221 236 255
221 236 255
221 236 255
221 236 255
221 236 255
221 236 255
221 236 255
220 234 253
212 223 241
189 194 206
160 155 158
134 118 110
122 98 82
123 98 80
123 98 79
122 98 80
122 98 79
122 97 79
123 99 80
122 97 79
122 97 79
123 98 80
123 98 80
123 98 80
123 98 80
124 99 80
125 99 80
124 99 80
123 98 79
124 98 79
122 98 80
128 107 94
153 148 150
181 195 204
180 204 213
168 199 198
157 190 184
147 178 174
141 166 174
136 156 171
144 162 185
140 157 180
137 155 179
131 148 170
133 147 168
124 139 160
124 138 158
130 145 165
127 141 161
125 139 159
115 127 145
125 138 156
119 133 151
130 145 166
128 142 161
135 151 173
146 163 185
142 158 181
139 153 173
158 172 192
177 191 211
197 211 232
213 227 246
218 232 252
221 236 255
221 236 255
221 236 255
221 236 255
221 236 255
221 236 255
221 236 255
221 236 255
221 236 255
221 236 255
221 236 255
220 234 254
211 222 238
196 203 212
180 182 186
175 177 181
173 176 181
172 175 181
171 175 181
169 174 181
169 174 181
168 174 181
167 173 181
167 173 181
166 173 181
166 173 181
165 172 181
165 172 181
165 172 181
165 172 181
165 172 181
165 172 181
165 172 181
166 172 181
166 173 181
166 173 181
167 173 181
167 173 181
168 174 181
169 174 181
170 174 181
171 175 181
172 176 181
174 177 181
176 177 181
183 186 190
197 204 214
212 224 240
221 235 255
221 236 255
221 236 255
221 236 255
221 236 255
221 236 255
221 236 255
221 236 255
221 236 255
221 236 255
221 236 255
221 236 255
221 236 255
221 236 255
221 236 255
221 236 255
221 236 255
221 236 255
221 236 255
221 236 255
221 236 255
221 236 255
221 236 255
221 236 255
221 236 255
221 236 255
221 236 255
221 236 255
221 236 255
221 236 255
221 236 255
221 236 255
221 236 255
221 236 255
221 236 255
221 236 255
221 236 255
221 236 255
221 236 255
221 236 255
221 236 255
221 236 255
221 236 255
221 236 255
221 236 255
221 236 255
221 236 255
221 236 255
221 236 255
221 236 255
221 236 255
221 236 255
221 236 255
221 236 255
221 236 255
221 236 255
221 236 255
221 236 255
221 236 255
221 236 255
221 236 255
221 236 255
221 236 255
221 236 255
221 236 255
221 236 255
221 236 255
221 236 255
221 236 255
221 236 255
221 236 255
221 236 255
221 236 255
221 236 255
221 236 255
222 236 255
221 236 255
221 236 255
221 236 255
221 236 255
221 236 255
221 236 255
221 236 255
221 236 255
221 236 255
221 236 255
221 236 255
221 236 255
221 236 255
221 236 255
221 236 255
221 236 255
221 236 255
221 236 255
222 236 255
221 236 255
221 236 255
221 236 255
221 236 255
221 236 255
221 236 255
221 236 255
221 236 255
221 236 255
221 236 255
221 236 255
221 236 255
221 236 255
221 236 255
221 236 255
221 236 255
221 236 255
221 236 255
221 236 255
221 236 255
221 236 255
222 236 255
221 236 255
221 236 255
222 236 255
221 236 255
221 236 255
221 236 255
221 236 255
221 236 255
221 236 255
222 236 255
221 236 255
221 236 255
221 236 255
221 236 255
221 236 255
222 236 255
221 236 255
221 236 255
221 236 255
221 236 255
221 236 255
221 236 255
221 236 255
221 236 255
221 236 255
221 236 255
221 236 255
221 236 255
221 236 255
221 236 255
221 236 255
221 236 255
221 235 254
215 228 246
188 192 204
164 160 164
131 111 99
123 98 80
122 97 79
120 96 78
122 98 79
123 98 79
122 97 79
122 97 79
122 97 79
121 97 78
124 98 79
123 98 80
122 97 79
122 97 79
123 98 80
122 98 79
123 98 79
124 99 80
122 96 78
122 97 79
125 100 83
136 129 122
151 162 160
167 190 193
161 193 189
156 188 187
138 166 164
134 155 168
133 151 169
131 147 168
130 146 167
124 140 160
119 132 151
125 140 161
123 136 155
124 139 158
120 134 153
108 119 136
125 140 160
126 142 163
120 134 153
126 142 163
110 121 138
116 130 149
120 134 153
126 140 160
111 121 138
122 135 154
127 142 162
119 131 148
125 137 156
135 149 169
155 170 192
171 185 206
190 205 225
218 232 252
221 235 255
222 236 255
221 236 255
222 236 255
221 236 255
222 236 255
221 236 255
221 236 255
215 227 244
199 206 216
180 182 185
175 177 181
173 176 181
171 175 181
170 175 181
169 174 181
168 173 181
167 173 181
166 173 181
165 172 181
165 172 181
164 172 181
164 171 181
163 171 181
163 171 181
162 171 181
162 171 181
162 171 181
162 171 181
162 171 181
162 171 181
162 171 181
163 171 181
163 171 181
163 171 181
164 172 181
164 172 181
165 172 181
165 172 181
166 173 181
167 173 181
168 174 181
169 174 181
170 175 181
172 176 181
174 176 181
176 178 181
187 191 198
201 209 220
217 230 248
221 236 255
222 236 255
222 236 255
222 236 255
221 236 255
221 236 255
221 236 255
221 236 255
221 236 255
221 236 255
221 236 255
222 236 255
221 236 255
221 236 255
221 236 255
221 236 255
221 236 255
222 236 255
221 236 255
222 236 255
221 236 255
221 236 255
221 236 255
221 236 255
221 236 255
221 236 255
221 236 255
221 236 255
221 236 255
221 236 255
221 236 255
221 236 255
221 236 255
221 236 255
221 236 255
221 236 255
221 236 255
221 236 255
221 236 255
221 236 255
222 236 255
221 236 255
221 236 255
221 236 255
221 236 255
221 236 255
221 236 255
221 236 255
221 236 255
221 236 255
221 236 255
221 236 255
221 236 255
221 236 255
221 236 255
221 236 255
221 236 255
221 236 255
221 236 255
221 236 255
221 236 255
222 236 255
222 236 255
222 236 255
222 236 255
222 236 255
222 236 255
222 236 255
222 236 255
222 236 255
222 236 255
222 236 255
222 236 255
222 236 255
222 236 255
222 236 255
222 236 255
222 236 255
222 236 255
222 236 255
222 236 255
222 236 255
222 236 255
222 236 255
222 236 255
222 236 255
222 236 255
222 236 255
222 236 255
222 236 255
222 236 255
222 236 255
222 236 255
222 236 255
222 236 255
222 236 255
222 236 255
222 236 255
222 236 255
222 236 255
222 236 255
222 236 255
222 236 255
222 236 255
222 236 255
222 236 255
222 236 255
222 236 255
222 236 255
222 236 255
222 236 255
222 236 255
222 236 255
222 236 255
222 236 255
222 236 255
222 236 255
222 236 255
222 236 255
222 236 255
222 236 255
222 236 255
222 236 255
222 236 255
222 236 255
222 236 255
222 236 255
222 236 255
222 236 255
222 236 255
222 236 255
222 236 255
222 236 255
222 236 255
222 236 255
222 236 255
222 236 255
222 236 255
222 236 255
222 236 255
222 236 255
222 236 255
222 236 255
222 236 255
222 236 255
217 230 248
202 211 226
173 173 180
145 133 130
122 97 79
120 96 79
123 98 79
124 99 80
123 98 79
122 97 78
124 98 80
123 98 79
123 97 79
121 96 77
122 97 79
123 97 79
124 99 80
123 97 78
120 96 78
123 98 79
123 98 79
120 95 77
120 96 78
120 97 81
131 114 106
153 154 161
163 185 189
162 190 193
148 178 179
137 160 173
134 152 171
125 140 159
130 148 169
121 134 152
130 145 167
126 141 163
126 141 164
125 140 161
121 137 157
118 133 153
118 132 153
123 135 156
122 135 155
124 139 160
116 128 148
114 126 147
120 134 154
112 123 141
121 135 156
117 129 147
122 135 154
114 127 145
111 122 139
106 116 132
111 122 138
123 134 152
131 145 165
122 133 151
136 149 169
149 164 184
164 177 196
204 218 238
217 232 252
222 236 255
222 236 255
222 236 255
222 236 255
212 222 238
190 194 200
177 178 181
174 177 181
172 176 181
170 175 181
169 174 181
168 174 181
167 173 181
165 172 181
165 172 181
164 172 181
163 171 181
163 171 181
162 171 181
161 170 181
161 170 181
161 170 181
161 170 181
160 170 181
160 170 181
160 170 181
160 170 181
160 170 181
160 170 181
160 170 181
160 170 181
160 170 181
161 170 181
161 170 181
162 171 181
162 171 181
163 171 181
163 171 181
164 172 181
165 172 181
166 173 181
167 173 181
168 174 181
169 174 181
171 175 181
173 176 181
175 177 181
181 183 187
197 203 212
216 228 245
222 236 255
222 236 255
222 236 255
222 236 255
222 236 255
222 236 255
222 236 255
222 236 255
222 236 255
222 236 255
222 236 255
222 236 255
222 236 255
222 236 255
222 236 255
222 236 255
222 236 255
222 236 255
222 236 255
222 236 255
222 236 255
222 236 255
222 236 255
222 236 255
222 236 255
222 236 255
222 236 255
222 236 255
222 236 255
222 236 255
222 236 255
222 236 255
222 236 255
222 236 255
222 236 255
222 236 255
222 236 255
222 236 255
222 236 255
222 236 255
222 236 255
222 236 255
222 236 255
222 236 255
222 236 255
222 236 255
222 236 255
222 236 255
222 236 255
222 236 255
222 236 255
222 236 255
222 236 255
222 236 255
222 236 255
222 236 255
222 236 255
222 236 255
222 236 255
222 236 255
222 236 255
222 236 255
222 236 255
222 236 255
222 236 255
222 236 255
222 236 255
222 236 255
222 236 255
222 236 255
222 236 255
222 236 255
222 236 255
222 236 255
222 236 255
222 236 255
222 236 255
222 236 255
222 236 255
222 236 255
222 236 255
222 236 255
222 236 255
222 236 255
222 236 255
222 236 255
222 236 255
222 236 255
222 236 255
222 236 255
222 236 255
222 236 255
222 236 255
222 236 255
222 236 255
222 236 255
222 236 255
222 236 255
222 236 255
222 236 255
222 236 255
222 236 255
222 236 255
222 236 255
222 236 255
222 236 255
222 236 255
222 236 255
222 236 255
222 236 255
222 236 255
222 236 255
222 236 255
222 236 255
222 236 255
222 236 255
222 236 255
222 236 255
222 236 255
222 236 255
222 236 255
222 236 255
222 236 255
222 236 255
222 236 255
222 236 255
222 236 255
222 236 255
222 236 255
222 236 255
222 236 255
222 236 255
222 236 255
222 236 255
222 236 255
222 236 255
222 236 255
222 236 255
222 236 255
222 236 255
222 236 255
222 236 255
216 229 247
198 206 220
149 139 138
127 105 92
122 97 79
123 98 80
122 97 79
122 97 78
120 96 78
124 98 80
121 97 79
122 97 78
119 94 77
122 95 77
123 98 80
122 97 78
121 96 78
121 97 78
122 96 78
123 98 79
119 95 77
123 98 79
121 96 78
125 102 86
141 134 139
138 143 161
133 146 168
111 124 143
127 142 164
137 153 175
134 152 175
129 145 166
125 140 160
127 143 164
128 143 165
131 147 170
131 148 172
126 141 163
130 144 168
125 138 164
126 139 164
126 137 162
121 129 155
129 124 158
117 109 142
124 109 146
125 111 150
106 98 127
102 89 118
107 100 128
105 105 128
108 114 136
105 112 130
113 124 142
113 124 143
110 121 138
105 115 131
116 128 146
105 115 130
122 134 152
108 118 133
131 143 161
143 157 176
170 183 202
203 217 236
219 233 252
213 224 240
191 196 203
177 179 181
174 176 181
172 176 181
170 175 181
168 174 181
167 173 181
166 173 181
165 172 181
164 172 181
163 171 181
162 171 181
161 170 181
161 170 181
160 170 181
160 170 181
159 169 181
159 169 181
159 169 181
158 169 181
158 169 181
158 169 181
158 169 181
158 169 181
158 169 181
158 169 181
158 169 181
158 169 181
159 169 181
159 169 181
159 169 181
160 170 181
160 170 181
160 170 181
161 170 181
162 171 181
162 171 181
163 171 181
164 172 181
165 172 181
166 173 181
167 173 181
169 174 181
171 175 181
172 176 181
175 177 181
178 180 182
199 206 216
214 226 242
222 236 255
222 236 255
222 236 255
222 236 255
222 236 255
222 236 255
222 236 255
222 236 255
222 236 255
222 236 255
222 236 255
222 236 255
222 236 255
222 236 255
222 236 255
222 236 255
222 236 255
222 236 255
222 236 255
222 236 255
222 236 255
222 236 255
222 236 255
222 236 255
222 236 255
222 236 255
222 236 255
222 236 255
222 236 255
222 236 255
222 236 255
222 236 255
222 236 255
222 236 255
222 236 255
222 236 255
222 236 255
222 236 255
222 236 255
222 236 255
222 236 255
222 236 255
222 236 255
222 236 255
222 236 255
222 236 255
222 236 255
222 236 255
222 236 255
222 236 255
222 236 255
222 236 255
222 236 255
222 236 255
222 236 255
222 236 255
222 236 255
222 236 255
222 236 255
222 236 255
222 236 255
222 236 255
222 236 255
222 236 255
222 236 255
222 236 255
222 236 255
222 236 255
222 236 255
222 236 255
222 236 255
222 236 255
222 236 255
222 236 255
222 236 255
222 236 255
222 236 255
222 236 255
222 236 255
222 236 255
222 236 255
222 236 255
222 236 255
222 236 255
222 236 255
222 236 255
222 236 255
222 236 255
222 236 255
222 236 255
222 236 255
222 236 255
222 236 255
222 236 255
222 236 255
222 236 255
222 236 255
222 236 255
222 236 255
222 236 255
222 236 255
222 236 255
222 236 255
222 236 255
222 236 255
222 236 255
222 236 255
222 236 255
222 236 255
222 236 255
222 236 255
222 236 255
222 236 255
222 236 255
222 236 255
222 236 255
222 236 255
222 236 255
222 236 255
222 236 255
222 236 255
222 236 255
222 236 255
222 236 255
222 236 255
222 236 255
222 236 255
222 236 255
222 236 255
222 236 255
222 236 255
222 236 255
222 236 255
222 236 255
222 236 255
222 236 255
222 236 255
222 236 255
222 236 255
214 226 244
180 181 191
145 132 129
124 100 82
122 97 78
120 96 78
122 96 78
120 96 77
121 97 78
121 96 77
119 94 76
121 96 78
122 97 78
120 95 77
122 97 78
121 96 77
121 96 78
123 98 79
122 96 78
117 93 76
123 98 79
118 94 76
119 94 76
132 115 107
137 134 144
126 136 159
110 119 143
103 113 137
115 130 151
130 146 169
134 151 173
119 134 154
135 153 176
128 146 170
130 143 166
128 145 169
124 139 163
131 148 173
131 147 172
130 146 170
127 145 167
128 147 164
126 114 146
140 100 150
136 90 149
124 80 130
132 76 139
128 72 132
137 81 146
122 60 122
127 80 137
120 79 128
113 83 124
111 79 121
97 81 110
109 106 129
117 129 149
115 125 144
118 129 147
113 125 142
113 125 142
101 109 123
105 114 128
115 125 140
129 142 159
157 167 181
186 192 200
177 179 181
174 177 181
172 176 181
170 175 181
168 174 181
167 173 181
166 173 181
164 172 181
164 171 181
163 171 181
162 171 181
161 170 181
160 170 181
160 170 181
159 169 181
159 169 181
158 169 181
158 169 181
157 168 181
157 168 181
157 168 181
157 168 181
156 168 181
156 168 181
156 168 181
156 168 181
156 168 181
157 168 181
157 168 181
157 168 181
157 168 181
157 168 181
158 169 181
158 169 181
159 169 181
159 169 181
160 170 181
161 170 181
161 170 181
162 171 181
163 171 181
164 172 181
165 172 181
166 173 181
167 173 181
169 174 181
171 175 181
172 176 181
175 177 181
179 179 181
201 208 220
218 231 249
222 236 255
222 236 255
222 236 255
222 236 255
222 236 255
222 236 255
222 236 255
222 236 255
222 236 255
222 236 255
222 236 255
222 236 255
222 236 255
222 236 255
222 236 255
222 236 255
222 236 255
222 236 255
222 236 255
222 236 255
222 236 255
222 236 255
222 236 255
222 236 255
222 236 255
222 236 255
222 236 255
222 236 255
222 236 255
222 236 255
222 236 255
222 236 255
222 236 255
222 236 255
222 236 255
222 236 255
222 236 255
222 236 255
222 236 255
222 236 255
222 236 255
222 236 255
222 236 255
222 236 255
222 236 255
222 236 255
222 236 255
222 236 255
222 236 255
222 236 255
222 236 255
222 236 255
222 236 255
222 236 255
222 236 255
222 236 255
222 236 255
222 236 255
222 236 255
222 236 255
222 236 255
222 236 255
222 236 255
222 236 255
222 236 255
222 236 255
222 236 255
222 236 255
222 236 255
222 236 255
222 236 255
222 236 255
222 236 255
222 236 255
222 236 255
222 236 255
222 236 255
222 236 255
222 236 255
222 236 255
222 236 255
222 236 255
222 236 255
222 236 255
222 236 255
222 236 255
222 236 255
222 236 255
222 236 255
222 236 255
222 236 255
222 236 255
222 236 255
222 236 255
222 236 255
222 236 255
222 236 255
222 236 255
222 236 255
222 236 255
222 236 255
222 236 255
222 236 255
222 236 255
222 236 255
222 236 255
222 236 255
222 236 255
222 236 255
222 236 255
222 236 255
222 236 255
222 236 255
222 236 255
222 236 255
222 236 255
222 236 255
222 236 255
222 236 255
222 236 255
222 236 255
222 236 255
222 236 255
222 236 255
222 236 255
222 236 255
222 236 255
222 236 255
222 236 255
222 236 255
222 236 255
222 236 255
222 236 255
222 236 255
222 236 255
222 236 255
214 226 245
179 181 190
157 150 151
121 98 83
123 98 79
124 98 79
122 97 78
122 97 79
122 97 78
122 97 79
121 96 78
122 97 79
122 97 79
124 98 79
123 97 79
118 95 77
119 94 76
119 95 77
116 93 75
119 95 76
120 95 77
119 94 76
118 95 79
139 131 133
143 149 168
104 112 136
117 127 152
91 99 124
124 139 163
136 154 176
129 145 167
128 144 166
123 138 161
131 148 173
132 148 173
130 147 171
128 145 170
125 144 165
122 140 153
120 141 146
119 135 137
118 134 132
113 121 118
105 100 98
106 100 100
114 111 111
110 103 104
105 92 91
109 91 95
110 90 99
104 87 90
108 89 97
106 86 99
111 88 102
110 85 103
111 76 105
98 72 100
99 75 103
103 103 121
117 125 146
117 126 146
109 118 135
114 125 143
110 120 136
103 112 126
151 154 160
175 176 179
175 177 181
173 176 181
170 175 181
169 174 181
167 173 181
166 173 181
165 172 181
163 171 181
163 171 181
162 171 181
161 170 181
160 170 181
159 169 181
159 169 181
158 169 181
158 169 181
157 168 181
157 168 181
156 168 181
156 168 181
156 168 181
155 168 181
155 167 181
155 167 181
155 167 181
155 167 181
155 167 181
155 167 181
155 167 181
155 167 181
156 168 181
156 168 181
156 168 181
156 168 181
157 168 181
157 168 181
158 169 181
158 169 181
159 169 181
159 169 181
160 170 181
161 170 181
162 171 181
163 171 181
164 172 181
165 172 181
166 173 181
167 173 181
169 174 181
171 175 181
173 176 181
176 178 181
181 182 185
207 216 229
222 236 255
222 236 255
222 236 255
222 236 255
222 236 255
222 236 255
222 236 255
222 236 255
222 236 255
222 236 255
222 236 255
222 236 255
222 236 255
222 236 255
222 236 255
222 236 255
222 236 255
222 236 255
222 236 255
222 236 255
222 236 255
222 236 255
222 236 255
222 236 255
222 236 255
222 236 255
222 236 255
222 236 255
222 236 255
222 236 255
222 236 255
222 236 255
222 236 255
222 236 255
222 236 255
222 236 255
222 236 255
222 236 255
222 236 255
222 236 255
222 236 255
222 236 255
222 236 255
222 236 255
222 236 255
222 236 255
222 236 255
222 236 255
222 236 255
222 236 255
222 236 255
222 236 255
222 236 255
222 236 255
222 236 255
222 236 255
222 236 255
222 236 255
222 236 255
222 236 255
222 236 255
222 236 255
222 236 255
222 236 255
222 236 255
222 236 255
222 236 255
222 236 255
222 236 255
222 236 255
222 236 255
222 236 255
222 236 255
222 236 255
222 236 255
222 236 255
222 236 255
222 236 255
222 236 255
222 236 255
222 236 255
222 236 255
222 236 255
222 236 255
222 236 255
222 236 255
222 236 255
222 236 255
222 236 255
222 236 255
222 236 255
222 236 255
222 236 255
222 236 255
222 236 255
222 236 255
222 236 255
222 236 255
222 236 255
222 236 255
222 236 255
222 236 255
222 236 255
222 236 255
222 236 255
222 236 255
222 236 255
222 236 255
222 236 255
222 236 255
222 236 255
222 236 255
222 236 255
222 236 255
222 236 255
222 236 255
222 236 255
222 236 255
222 236 255
222 236 255
222 236 255
222 236 255
222 236 255
222 236 255
222 236 255
222 236 255
222 236 255
222 236 255
222 236 255
222 236 255
222 236 255
222 236 255
222 236 255
222 236 255
215 228 246
175 176 184
140 126 122
121 96 78
122 96 77
121 96 78
122 96 78
119 94 76
118 94 76
121 97 78
119 94 76
120 95 77
120 95 77
123 97 79
121 96 77
123 97 78
121 96 77
120 95 76
120 95 77
121 96 78
119 95 77
120 96 78
120 96 79
137 133 137
146 154 174
127 137 162
103 112 139
91 98 122
120 136 159
134 151 174
129 146 169
123 137 159
125 142 165
127 142 166
129 146 171
126 144 165
128 148 165
129 153 162
119 133 132
114 121 119
110 108 104
116 110 109
110 95 87
109 89 78
108 88 75
111 100 93
110 94 84
112 93 88
115 104 104
109 90 79
100 88 82
114 101 98
118 106 103
108 98 95
113 104 102
105 96 94
104 90 85
104 96 97
90 84 85
94 77 71
96 87 87
97 94 102
105 106 117
105 108 119
122 127 136
166 167 170
176 178 181
173 176 181
171 175 181
169 174 181
168 174 181
166 173 181
165 172 181
164 172 181
163 171 181
162 171 181
161 170 181
160 170 181
159 169 181
158 169 181
158 169 181
157 168 181
157 168 181
156 168 181
156 168 181
155 168 181
155 167 181
155 167 181
155 167 181
154 167 181
154 167 181
154 167 181
154 167 181
154 167 181
154 167 181
154 167 181
154 167 181
154 167 181
154 167 181
155 167 181
155 167 181
155 167 181
156 168 181
156 168 181
156 168 181
157 168 181
158 169 181
158 169 181
159 169 181
160 170 181
160 170 181
161 170 181
162 171 181
163 171 181
164 172 181
165 172 181
167 173 181
168 174 181
170 175 181
172 176 181
174 177 181
177 178 181
193 197 204
218 230 248
222 236 255
222 236 255
222 236 255
222 236 255
222 236 255
222 236 255
222 236 255
222 236 255
222 236 255
222 236 255
222 236 255
222 236 255
222 236 255
222 236 255
222 236 255
222 236 255
222 236 255
222 236 255
222 236 255
222 236 255
222 236 255
222 236 255
222 236 255
222 236 255
222 236 255
222 236 255
222 236 255
222 236 255
222 236 255
222 236 255
222 236 255
222 236 255
222 236 255
222 236 255
222 236 255
222 236 255
222 236 255
222 236 255
222 236 255
222 236 255
222 236 255
222 236 255
222 236 255
222 236 255
222 236 255
222 236 255
222 236 255
222 236 255
222 236 255
222 236 255
222 236 255
222 236 255
222 236 255
222 236 255
222 236 255
222 236 255
222 236 255
222 236 255
222 236 255
222 236 255
222 236 255
222 236 255
222 236 255
222 236 255
222 236 255
222 236 255
222 236 255
222 236 255
222 236 255
222 236 255
222 236 255
222 236 255
222 236 255
222 236 255
222 236 255
222 236 255
222 236 255
222 236 255
222 236 255
222 236 255
222 236 255
222 236 255
222 236 255
222 236 255
222 236 255
222 236 255
222 236 255
222 236 255
222 236 255
222 236 255
222 236 255
222 236 255
222 236 255
222 236 255
222 236 255
222 236 255
222 236 255
222 236 255
222 236 255
222 236 255
222 236 255
222 236 255
222 236 255
222 236 255
222 236 255
222 236 255
222 236 255
222 236 255
222 236 255
222 236 255
222 236 255
222 236 255
222 236 255
222 236 255
222 236 255
222 236 255
222 236 255
222 236 255
222 236 255
222 236 255
222 236 255
222 236 255
222 236 255
222 236 255
222 236 255
222 236 255
222 236 255
222 236 255
222 236 255
222 236 255
222 236 255
217 230 248
191 197 209
137 122 116
120 95 77
121 96 77
119 94 76
123 97 78
123 97 78
120 96 77
120 94 76
121 96 78
118 94 76
120 94 76
119 94 76
120 96 77
120 95 77
121 96 78
120 95 77
116 92 74
117 93 75
117 93 75
121 96 77
120 95 78
131 120 120
131 139 161
113 123 149
92 99 128
87 94 121
116 131 153
127 143 166
131 148 173
127 144 170
119 132 156
123 138 162
128 146 168
130 152 167
139 162 163
122 137 131
116 114 110
107 93 85
110 97 90
111 104 102
124 127 125
109 112 108
115 128 125
112 114 119
128 118 140
124 106 129
128 101 132
119 84 121
126 81 115
124 96 121
112 84 96
110 94 97
119 108 108
127 118 118
131 127 131
134 131 135
121 114 116
112 104 104
100 90 88
99 84 78
97 86 83
98 85 79
137 135 136
175 176 177
175 177 181
172 176 181
171 175 181
169 174 181
167 173 181
166 173 181
164 172 181
163 171 181
162 171 181
161 170 181
160 170 181
159 169 181
159 169 181
158 169 181
157 168 181
157 168 181
156 168 181
156 168 181
155 167 181
155 167 181
154 167 181
154 167 181
154 167 181
154 167 181
153 167 181
153 166 181
153 166 181
153 166 181
153 166 181
153 166 181
153 166 181
153 166 181
153 167 181
154 167 181
154 167 181
154 167 181
154 167 181
155 167 181
155 167 181
155 168 181
156 168 181
156 168 181
157 168 181
158 169 181
158 169 181
159 169 181
160 170 181
161 170 181
162 170 181
163 171 181
164 172 181
165 172 181
166 173 181
167 173 181
169 174 181
171 175 181
173 176 181
176 178 181
183 185 188
211 221 236
222 236 255
222 236 255
222 236 255
222 236 255
222 236 255
222 236 255
222 236 255
222 236 255
222 236 255
222 236 255
222 236 255
222 236 255
222 236 255
222 236 255
222 236 255
222 236 255
222 236 255
222 236 255
222 236 255
222 236 255
222 236 255
222 236 255
222 236 255
222 236 255
222 236 255
222 236 255
222 236 255
222 236 255
222 236 255
222 236 255
222 236 255
222 236 255
222 236 255
222 236 255
222 236 255
222 236 255
222 236 255
222 236 255
222 236 255
222 236 255
222 236 255
222 236 255
222 236 255
222 236 255
222 236 255
222 236 255
222 236 255
222 236 255
222 236 255
222 236 255
222 236 255
222 236 255
222 236 255
222 236 255
222 236 255
222 236 255
222 236 255
222 236 255
222 236 255
222 236 255
222 236 255
222 236 255
222 236 255
222 236 255
222 236 255
222 236 255
222 236 255
222 236 255
222 236 255
222 236 255
222 236 255
222 236 255
222 236 255
222 236 255
222 236 255
222 236 255
222 236 255
222 236 255
222 236 255
222 236 255
222 236 255
222 236 255
222 236 255
222 236 255
222 236 255
222 236 255
222 236 255
222 236 255
222 236 255
222 236 255
222 236 255
222 236 255
222 236 255
222 236 255
222 236 255
222 236 255
222 236 255
222 236 255
222 236 255
222 236 255
222 236 255
222 236 255
222 236 255
222 236 255
222 236 255
222 236 255
222 236 255
222 236 255
222 236 255
222 236 255
222 236 255
222 236 255
222 236 255
222 236 255
222 236 255
222 236 255
222 236 255
222 236 255
222 236 255
222 236 255
222 236 255
222 236 255
222 236 255
222 236 255
222 236 255
222 236 255
222 236 255
222 236 255
222 236 255
221 235 254
196 203 217
145 134 131
120 97 80
118 94 77
118 93 75
120 95 77
121 96 78
120 95 76
121 95 77
118 94 76
120 95 76
120 95 76
120 95 77
120 95 77
119 94 77
118 94 76
114 90 72
117 92 75
119 94 76
115 91 74
119 94 76
122 99 84
123 114 120
132 141 165
135 147 174
110 120 147
103 113 138
121 137 160
127 143 166
125 140 164
120 131 157
125 141 164
127 145 167
128 147 166
133 155 163
127 141 138
119 120 117
113 105 100
112 110 104
109 115 114
120 135 135
114 133 137
120 142 151
127 146 164
126 147 166
127 134 162
131 122 158
124 119 151
126 95 144
120 93 137
123 81 135
114 65 119
126 67 129
112 68 112
114 70 106
100 74 86
100 87 86
124 119 121
133 129 132
145 145 153
124 120 125
116 110 113
108 97 94
154 149 147
177 178 181
174 177 181
172 176 181
170 175 181
168 174 181
167 173 181
165 172 181
164 172 181
163 171 181
162 171 181
161 170 181
160 170 181
159 169 181
158 169 181
158 169 181
157 168 181
156 168 181
156 168 181
155 167 181
155 167 181
154 167 181
154 167 181
154 167 181
153 167 181
153 166 181
153 166 181
153 166 181
153 166 181
152 166 181
152 166 181
152 166 181
152 166 181
152 166 181
153 166 181
153 166 181
153 166 181
153 166 181
153 166 181
154 167 181
154 167 181
154 167 181
155 167 181
155 167 181
156 168 181
156 168 181
157 168 181
157 168 181
158 169 181
159 169 181
159 169 181
160 170 181
161 170 181
162 171 181
163 171 181
164 172 181
166 172 181
167 173 181
169 174 181
170 175 181
172 176 181
175 177 181
178 179 181
203 211 223
221 235 254
222 236 255
222 236 255
222 236 255
222 236 255
222 236 255
222 236 255
222 236 255
222 236 255
222 236 255
222 236 255
222 236 255
222 236 255
222 236 255
222 236 255
222 236 255
222 236 255
222 236 255
222 236 255
222 236 255
222 236 255
222 236 255
222 236 255
222 236 255
222 236 255
222 236 255
222 236 255
222 236 255
222 236 255
222 236 255
222 236 255
222 236 255
222 236 255
222 236 255
222 236 255
222 236 255
222 236 255
222 236 255
222 236 255
222 236 255
222 236 255
222 236 255
222 236 255
222 236 255
222 236 255
222 236 255
222 236 255
222 236 255
222 236 255
222 236 255
222 236 255
222 236 255
222 236 255
222 236 255
222 236 255
222 236 255
222 236 255
222 236 255
222 236 255
222 236 255
222 236 255
222 236 255
222 236 255
222 236 255
222 236 255
222 236 255
222 236 255
222 236 255
222 236 255
222 236 255
222 236 255
222 236 255
222 236 255
222 236 255
222 236 255
222 236 255
222 236 255
222 236 255
222 236 255
222 236 255
222 236 255
222 236 255
222 236 255
222 236 255
222 236 255
222 236 255
222 236 255
222 236 255
222 236 255
222 236 255
222 236 255
222 236 255
222 236 255
222 236 255
222 236 255
222 236 255
222 236 255
222 236 255
222 236 255
222 236 255
222 236 255
222 236 255
222 236 255
222 236 255
222 236 255
222 236 255
222 236 255
222 236 255
222 236 255
222 236 255
222 236 255
222 236 255
222 236 255
222 236 255
222 236 255
222 236 255
222 236 255
222 236 255
222 236 255
222 236 255
222 236 255
222 236 255
222 236 255
222 236 255
222 236 255
222 236 255
222 236 255
222 236 255
208 218 235
162 160 166
119 96 80
120 95 77
120 95 76
120 96 78
118 94 76
119 93 76
119 94 76
118 93 75
117 93 74
121 95 77
118 94 76
119 94 76
116 92 74
114 90 73
123 97 78
116 92 75
117 92 74
115 91 73
119 94 75
117 92 74
127 115 114
141 150 174
117 127 154
91 97 126
87 95 120
124 139 163
135 152 178
126 138 163
118 129 152
117 132 152
125 143 163
136 157 168
129 141 137
122 124 118
112 102 96
118 116 106
127 143 142
127 147 154
121 142 156
126 145 165
128 146 168
129 146 169
126 143 167
127 143 167
125 139 165
116 122 145
119 130 151
116 123 148
120 130 154
103 110 133
110 104 135
104 92 119
97 72 105
97 67 104
102 53 100
100 74 95
99 78 83
100 89 88
123 118 122
128 122 126
156 160 170
166 165 164
176 178 181
174 177 181
171 175 181
169 174 181
168 174 181
166 173 181
165 172 181
164 172 181
163 171 181
162 171 181
161 170 181
160 170 181
159 169 181
158 169 181
157 168 181
157 168 181
156 168 181
156 168 181
155 167 181
155 167 181
154 167 181
154 167 181
153 167 181
153 166 181
153 166 181
153 166 181
152 166 181
152 166 181
152 166 181
152 166 181
152 166 181
152 166 181
152 166 181
152 166 181
152 166 181
152 166 181
152 166 181
152 166 181
153 166 181
153 166 181
153 166 181
154 167 181
154 167 181
154 167 181
155 167 181
155 167 181
156 168 181
156 168 181
157 168 181
158 169 181
158 169 181
159 169 181
160 170 181
161 170 181
162 171 181
163 171 181
164 172 181
166 172 181
167 173 181
168 174 181
170 175 181
172 176 181
174 177 181
177 178 181
191 194 200
219 232 250
222 236 255
222 236 255
222 236 255
222 236 255
222 236 255
222 236 255
222 236 255
222 236 255
222 236 255
222 236 255
222 236 255
222 236 255
222 236 255
222 236 255
222 236 255
222 236 255
222 236 255
222 236 255
222 236 255
222 236 255
222 236 255
222 236 255
222 236 255
222 236 255
222 236 255
222 236 255
222 236 255
222 236 255
222 236 255
222 236 255
222 236 255
222 236 255
222 236 255
222 236 255
222 236 255
222 236 255
222 236 255
222 236 255
222 236 255
222 236 255
222 236 255
222 236 255
222 236 255
222 236 255
222 236 255
222 236 255
222 236 255
222 236 255
222 236 255
222 236 255
222 236 255
222 236 255
222 236 255
222 236 255
222 236 255
222 236 255
222 236 255
222 236 255
222 236 255
222 236 255
222 236 255
222 236 255
222 236 255
222 236 255
222 236 255
222 236 255
222 236 255
222 236 255
222 236 255
222 236 255
222 236 255
222 236 255
222 236 255
222 236 255
222 236 255
222 236 255
222 236 255
222 236 255
222 236 255
222 236 255
222 236 255
222 236 255
222 236 255
222 236 255
222 236 255
222 236 255
222 236 255
222 236 255
222 236 255
222 236 255
222 236 255
222 236 255
222 236 255
222 236 255
222 236 255
222 236 255
222 236 255
222 236 255
222 236 255
222 236 255
222 236 255
222 236 255
222 236 255
222 236 255
222 236 255
222 236 255
222 236 255
222 236 255
222 236 255
222 236 255
222 236 255
222 236 255
222 236 255
222 236 255
222 236 255
222 236 255
222 236 255
222 236 255
222 236 255
222 236 255
222 236 255
222 236 255
222 236 255
222 236 255
222 236 255
218 230 248
180 182 190
134 118 111
119 94 76
119 94 75
120 96 77
113 90 72
117 93 75
117 94 76
116 92 74
118 93 75
120 95 77
118 94 75
115 91 73
120 95 76
116 91 74
119 93 75
119 94 76
116 92 74
116 92 74
116 92 74
116 92 74
128 113 108
131 137 158
125 135 161
107 116 143
109 119 145
124 139 163
121 134 157
113 123 148
116 129 150
125 142 162
134 154 174
133 154 157
125 133 130
116 109 105
120 121 112
127 142 145
135 160 166
128 148 168
126 142 166
127 142 165
124 138 163
122 136 158
122 134 157
120 133 156
115 126 145
119 131 154
116 129 151
116 126 149
119 130 155
116 128 149
116 128 150
107 112 134
115 126 146
113 120 141
110 115 136
97 93 117
103 87 115
103 84 111
97 78 88
92 80 76
124 117 115
174 173 175
176 178 181
173 176 181
171 175 181
169 174 181
168 174 181
166 173 181
165 172 181
164 172 181
163 171 181
162 171 181
161 170 181
160 170 181
159 169 181
158 169 181
157 168 181
157 168 181
156 168 181
155 168 181
155 167 181
154 167 181
154 167 181
154 167 181
153 166 181
153 166 181
153 166 181
152 166 181
152 166 181
152 166 181
152 166 181
152 166 181
152 166 181
151 166 181
151 166 181
151 166 181
151 166 181
152 166 181
152 166 181
152 166 181
152 166 181
152 166 181
152 166 181
153 166 181
153 166 181
153 167 181
154 167 181
154 167 181
155 167 181
155 167 181
156 168 181
156 168 181
157 168 181
158 169 181
158 169 181
159 169 181
160 170 181
161 170 181
162 171 181
163 171 181
164 172 181
165 172 181
167 173 181
168 174 181
170 175 181
172 176 181
174 177 181
177 178 181
186 188 191
217 229 246
222 236 255
222 236 255
222 236 255
222 236 255
222 236 255
222 236 255
222 236 255
222 236 255
222 236 255
222 236 255
222 236 255
222 236 255
222 236 255
222 236 255
222 236 255
222 236 255
222 236 255
222 236 255
222 236 255
222 236 255
222 236 255
222 236 255
222 236 255
222 236 255
222 236 255
222 236 255
222 236 255
222 236 255
222 236 255
222 236 255
222 236 255
222 236 255
222 236 255
222 236 255
222 236 255
222 236 255
222 236 255
222 236 255
222 236 255
222 236 255
222 236 255
222 236 255
222 236 255
222 236 255
222 236 255
222 236 255
222 236 255
222 236 255
222 236 255
222 236 255
222 236 255
222 236 255
222 236 255
222 236 255
222 236 255
222 236 255
222 236 255
222 236 255
222 236 255
222 236 255
222 236 255
222 236 255
222 236 255
222 236 255
222 236 255
222 236 255
222 236 255
222 236 255
222 236 255
222 236 255
222 236 255
222 236 255
222 236 255
222 236 255
222 236 255
222 236 255
222 236 255
222 236 255
222 236 255
222 236 255
222 236 255
222 236 255
222 236 255
222 236 255
222 236 255
222 236 255
222 236 255
222 236 255
222 236 255
222 236 255
222 236 255
222 236 255
222 236 255
222 236 255
222 236 255
222 236 255
222 236 255
222 236 255
222 236 255
222 236 255
222 236 255
222 236 255
222 236 255
222 236 255
222 236 255
222 236 255
222 236 255
222 236 255
222 236 255
222 236 255
222 236 255
222 236 255
222 236 255
222 236 255
222 236 255
222 236 255
222 236 255
222 236 255
222 236 255
222 236 255
222 236 255
222 236 255
222 236 255
221 234 253
198 206 220
142 131 129
116 92 77
120 95 76
117 92 74
116 91 73
120 95 76
120 95 77
118 94 76
118 94 76
119 94 75
119 94 75
117 93 75
116 91 74
117 93 75
120 94 76
117 93 76
115 90 72
117 92 73
118 93 75
116 91 74
130 113 107
142 146 164
126 137 162
93 100 129
109 119 145
120 134 158
121 133 158
96 92 126
98 110 128
99 115 125
131 147 163
139 157 152
113 100 90
110 100 96
123 129 125
139 161 172
128 147 162
120 134 155
125 140 164
126 140 164
124 140 163
121 131 155
123 136 160
124 138 160
123 138 160
116 130 150
123 137 160
123 136 158
121 134 159
106 117 134
109 116 136
114 124 146
117 124 148
112 122 144
116 127 149
110 118 135
115 127 147
111 119 138
107 112 132
100 89 110
123 119 121
176 176 178
176 178 181
173 176 181
171 175 181
169 174 181
168 174 181
166 173 181
165 172 181
164 172 181
163 171 181
162 171 181
161 170 181
160 170 181
159 169 181
158 169 181
157 169 181
157 168 181
156 168 181
156 168 181
155 167 181
155 167 181
154 167 181
154 167 181
153 166 181
153 166 181
153 166 181
152 166 181
152 166 181
152 166 181
152 166 181
151 166 181
151 166 181
151 166 181
151 166 181
151 165 181
151 165 181
151 166 181
151 166 181
151 166 181
152 166 181
152 166 181
152 166 181
152 166 181
152 166 181
153 166 181
153 166 181
153 167 181
154 167 181
154 167 181
155 167 181
155 167 181
156 168 181
156 168 181
157 168 181
158 169 181
159 169 181
159 169 181
160 170 181
161 170 181
162 171 181
163 171 181
164 172 181
166 172 181
167 173 181
168 174 181
170 175 181
172 176 181
174 177 181
177 178 181
188 191 195
216 227 244
222 236 255
222 236 255
222 236 255
222 236 255
222 236 255
222 236 255
222 236 255
222 236 255
222 236 255
222 236 255
222 236 255
222 236 255
222 236 255
222 236 255
222 236 255
222 236 255
222 236 255
222 236 255
222 236 255
222 236 255
222 236 255
222 236 255
222 236 255
222 236 255
222 236 255
222 236 255
222 236 255
222 236 255
222 236 255
222 236 255
222 236 255
222 236 255
222 236 255
222 236 255
222 236 255
222 236 255
222 236 255
222 236 255
222 236 255
222 236 255
222 236 255
222 236 255
222 236 255
222 236 255
222 236 255
222 236 255
222 236 255
222 236 255
222 236 255
222 236 255
222 236 255
222 236 255
222 236 255
222 236 255
222 236 255
222 236 255
222 236 255
222 236 255
222 236 255
222 236 255
222 236 255
222 236 255
222 236 255
222 236 255
222 236 255
222 236 255
222 236 255
222 236 255
222 236 255
222 236 255
222 236 255
222 236 255
222 236 255
222 236 255
222 236 255
222 236 255
222 236 255
222 236 255
222 236 255
222 236 255
222 236 255
222 236 255
222 236 255
222 236 255
222 236 255
222 236 255
222 236 255
222 236 255
222 236 255
222 236 255
222 236 255
222 236 255
222 236 255
222 236 255
222 236 255
222 236 255
222 236 255
222 236 255
222 236 255
222 236 255
222 236 255
222 236 255
222 236 255
222 236 255
222 236 255
222 236 255
222 236 255
222 236 255
222 236 255
222 236 255
222 236 255
222 236 255
222 236 255
222 236 255
222 236 255
222 236 255
222 236 255
222 236 255
222 236 255
222 236 255
222 236 255
222 236 255
212 223 240
163 160 166
121 99 85
118 93 75
114 90 73
112 88 71
118 93 75
118 93 75
117 92 74
114 90 73
118 93 74
115 90 73
116 92 74
112 88 71
119 93 75
114 91 72
117 92 75
116 91 73
122 96 77
118 93 76
118 93 75
121 98 83
139 141 157
130 140 166
104 114 140
119 132 156
135 149 173
104 108 137
86 53 118
94 93 122
89 103 108
103 109 127
114 112 119
118 110 102
113 106 103
131 143 149
137 159 176
125 142 164
119 133 158
124 139 164
128 140 165
127 140 166
122 137 158
126 142 164
124 138 160
121 136 157
120 135 156
121 134 156
118 131 153
121 133 157
116 127 148
111 121 141
113 124 145
117 127 152
117 129 148
117 128 149
119 130 152
107 117 135
115 126 144
115 126 145
110 120 138
136 138 149
175 175 176
176 178 181
173 176 181
171 175 181
170 174 181
168 174 181
167 173 181
165 172 181
164 172 181
163 171 181
162 171 181
161 170 181
160 170 181
159 169 181
158 169 181
158 169 181
157 168 181
156 168 181
156 168 181
155 167 181
155 167 181
154 167 181
154 167 181
153 167 181
153 166 181
153 166 181
152 166 181
152 166 181
152 166 181
152 166 181
151 166 181
151 166 181
151 166 181
151 165 181
151 165 181
151 165 181
151 165 181
151 165 181
151 165 181
151 166 181
151 166 181
152 166 181
152 166 181
152 166 181
152 166 181
152 166 181
153 166 181
153 166 181
154 167 181
154 167 181
154 167 181
155 167 181
155 168 181
156 168 181
157 168 181
157 168 181
158 169 181
159 169 181
160 170 181
160 170 181
161 170 181
162 171 181
163 171 181
164 172 181
166 172 181
167 173 181
169 174 181
170 175 181
172 176 181
174 177 181
177 178 181
185 187 190
216 228 245
222 236 255
222 236 255
222 236 255
222 236 255
222 236 255
222 236 255
222 236 255
222 236 255
222 236 255
222 236 255
222 236 255
222 236 255
222 236 255
222 236 255
222 236 255
222 236 255
222 236 255
222 236 255
222 236 255
222 236 255
222 236 255
222 236 255
222 236 255
222 236 255
222 236 255
222 236 255
222 236 255
222 236 255
222 236 255
222 236 255
222 236 255
222 236 255
222 236 255
222 236 255
222 236 255
222 236 255
222 236 255
222 236 255
222 236 255
222 236 255
222 236 255
222 236 255
222 236 255
222 236 255
222 236 255
222 236 255
222 236 255
222 236 255
222 236 255
222 236 255
222 236 255
222 236 255
222 236 255
222 236 255
222 236 255
222 236 255
222 236 255
222 236 255
222 236 255
222 236 255
222 236 255
222 236 255
222 236 255
222 236 255
222 236 255
222 236 255
222 236 255
222 236 255
222 236 255
222 236 255
222 236 255
222 236 255
222 236 255
222 236 255
222 236 255
222 236 255
222 236 255
222 236 255
222 236 255
222 236 255
222 236 255
222 236 255
222 236 255
222 236 255
222 236 255
222 236 255
222 236 255
222 236 255
222 236 255
222 236 255
222 236 255
222 236 255
222 236 255
222 236 255
222 236 255
222 236 255
222 236 255
222 236 255
222 236 255
222 236 255
222 236 255
222 236 255
222 236 255
222 236 255
222 236 255
222 236 255
222 236 255
222 236 255
222 236 255
222 236 255
222 236 255
222 236 255
222 236 255
222 236 255
222 236 255
222 236 255
222 236 255
222 236 255
222 236 255
222 236 255
222 236 255
188 194 206
141 130 127
115 92 74
119 94 76
115 91 74
120 95 75
116 92 74
112 89 71
110 86 70
116 92 73
117 92 74
118 93 75
114 90 72
112 90 72
118 93 75
119 93 74
111 88 71
114 90 73
116 91 73
116 91 73
117 92 74
136 130 133
138 147 171
115 126 152
117 129 153
121 134 158
97 96 130
95 69 129
110 96 145
84 95 98
106 108 131
111 101 114
104 92 86
117 114 109
125 139 149
133 152 173
118 135 157
119 134 158
120 134 157
120 133 157
127 142 167
121 136 158
127 142 164
122 138 159
122 136 157
118 131 151
124 138 159
122 137 159
119 133 153
118 131 150
114 127 147
109 118 137
109 119 136
113 123 141
111 123 139
113 125 143
120 134 152
114 124 140
108 119 137
110 120 138
120 122 129
176 176 177
176 178 181
173 176 181
172 175 181
170 175 181
168 174 181
167 173 181
166 172 181
164 172 181
163 171 181
162 171 181
161 170 181
160 170 181
159 169 181
159 169 181
158 169 181
157 168 181
157 168 181
156 168 181
155 168 181
155 167 181
154 167 181
154 167 181
154 167 181
153 166 181
153 166 181
153 166 181
152 166 181
152 166 181
152 166 181
152 166 181
151 166 181
151 166 181
151 165 181
151 165 181
151 165 181
151 165 181
151 165 181
151 165 181
151 165 181
151 166 181
151 166 181
151 166 181
152 166 181
152 166 181
152 166 181
152 166 181
153 166 181
153 166 181
153 167 181
154 167 181
154 167 181
155 167 181
155 167 181
156 168 181
156 168 181
157 168 181
158 169 181
158 169 181
159 169 181
160 170 181
161 170 181
162 171 181
163 171 181
164 172 181
165 172 181
166 173 181
167 173 181
169 174 181
170 175 181
172 176 181
175 177 181
177 178 181
184 185 188
215 226 242
222 236 255
222 236 255
222 236 255
222 236 255
222 236 255
222 236 255
222 236 255
222 236 255
222 236 255
222 236 255
222 236 255
222 236 255
222 236 255
222 236 255
222 236 255
222 236 255
222 236 255
222 236 255
222 236 255
222 236 255
222 236 255
222 236 255
222 236 255
222 236 255
222 236 255
222 236 255
222 236 255
222 236 255
222 236 255
222 236 255
222 236 255
222 236 255
222 236 255
222 236 255
222 236 255
222 236 255
222 236 255
222 236 255
222 236 255
222 236 255
222 236 255
222 236 255
222 236 255
222 236 255
222 236 255
222 236 255
222 236 255
222 236 255
222 236 255
222 236 255
222 236 255
222 236 255
222 236 255
222 236 255
222 236 255
222 236 255
222 236 255
222 236 255
222 236 255
222 236 255
222 236 255
222 236 255
222 236 255
222 236 255
222 236 255
222 236 255
222 236 255
222 236 255
222 236 255
222 236 255
222 236 255
222 236 255
222 236 255
222 236 255
222 236 255
222 236 255
222 236 255
222 236 255
222 236 255
222 236 255
222 236 255
222 236 255
222 236 255
222 236 255
222 236 255
222 236 255
222 236 255
222 236 255
222 236 255
222 236 255
222 236 255
222 236 255
222 236 255
222 236 255
222 236 255
222 236 255
222 236 255
222 236 255
222 236 255
222 236 255
222 236 255
222 236 255
222 236 255
222 236 255
222 236 255
222 236 255
222 236 255
222 236 255
222 236 255
222 236 255
222 236 255
222 236 255
222 236 255
222 236 255
222 236 255
222 236 255
222 236 255
222 236 255
222 236 255
215 227 245
166 166 172
126 107 97
119 94 75
117 92 74
115 90 72
118 93 74
111 89 72
120 93 75
116 92 73
110 87 70
117 92 74
114 90 72
116 92 74
110 87 70
118 93 75
118 93 75
116 91 73
113 89 72
114 90 72
115 91 73
127 110 99
135 159 163
120 138 153
133 149 171
126 140 166
121 123 159
88 58 120
102 72 136
81 86 93
100 104 120
99 77 99
108 94 92
107 93 97
110 110 128
107 122 136
117 134 153
114 130 150
116 126 152
119 132 155
123 138 162
126 141 165
118 131 151
123 138 159
121 133 154
120 133 152
132 148 171
119 133 154
119 132 151
115 129 149
115 127 149
114 126 146
107 118 137
114 126 147
109 121 142
111 124 145
114 126 146
105 115 131
102 111 124
108 120 135
117 124 134
174 174 175
176 178 181
174 177 181
172 176 181
170 175 181
169 174 181
167 173 181
166 173 181
165 172 181
164 172 181
163 171 181
162 171 181
161 170 181
160 170 181
159 169 181
158 169 181
158 169 181
157 168 181
156 168 181
156 168 181
155 167 181
155 167 181
154 167 181
154 167 181
154 167 181
153 166 181
153 166 181
152 166 181
152 166 181
152 166 181
152 166 181
152 166 181
151 166 181
151 166 181
151 166 181
151 165 181
151 165 181
151 165 181
151 165 181
151 165 181
151 165 181
151 166 181
151 166 181
151 166 181
152 166 181
152 166 181
152 166 181
152 166 181
153 166 181
153 166 181
153 167 181
154 167 181
154 167 181
155 167 181
155 167 181
156 168 181
156 168 181
157 168 181
157 168 181
158 169 181
159 169 181
160 170 181
160 170 181
161 170 181
162 171 181
163 171 181
164 172 181
165 172 181
166 173 181
168 174 181
169 174 181
171 175 181
173 176 181
175 177 181
177 178 181
186 187 190
220 232 250
222 236 255
222 236 255
222 236 255
222 236 255
222 236 255
222 236 255
222 236 255
222 236 255
222 236 255
222 236 255
222 236 255
222 236 255
222 236 255
222 236 255
222 236 255
222 236 255
222 236 255
222 236 255
222 236 255
222 236 255
222 236 255
222 236 255
222 236 255
222 236 255
222 236 255
222 236 255
222 236 255
222 236 255
222 236 255
222 236 255
222 236 255
222 236 255
222 236 255
222 236 255
222 236 255
222 236 255
222 236 255
222 236 255
222 236 255
222 236 255
222 236 255
222 236 255
222 236 255
222 236 255
223 236 255
223 236 255
223 236 255
223 236 255
223 236 255
222 236 255
223 236 255
223 236 255
223 236 255
223 236 255
223 236 255
223 236 255
223 236 255
223 236 255
223 236 255
223 236 255
223 236 255
223 236 255
223 236 255
223 236 255
223 236 255
223 236 255
223 236 255
223 236 255
223 236 255
223 236 255
223 236 255
223 236 255
223 236 255
223 236 255
223 236 255
223 236 255
223 236 255
223 236 255
223 236 255
223 236 255
223 236 255
223 236 255
223 236 255
223 236 255
223 236 255
223 236 255
223 236 255
223 236 255
223 236 255
223 236 255
223 236 255
223 236 255
223 236 255
223 236 255
223 236 255
223 236 255
223 236 255
223 236 255
223 236 255
223 236 255
223 236 255
223 236 255
223 236 255
223 236 255
223 236 255
223 236 255
223 236 255
223 236 255
223 236 255
223 236 255
223 236 255
223 236 255
223 236 255
223 236 255
223 236 255
223 236 255
223 236 255
223 236 255
205 214 229
145 136 134
114 90 73
116 92 74
110 87 70
112 88 71
110 87 70
117 93 74
115 90 73
115 91 73
114 90 72
117 92 74
114 90 72
113 90 72
114 89 72
116 91 73
115 90 72
112 88 71
115 90 73
114 89 72
114 90 74
123 137 137
115 148 151
126 142 163
132 146 171
125 137 163
94 69 127
102 52 142
96 80 122
100 108 119
102 66 104
103 87 86
102 84 95
103 103 122
92 106 113
80 93 100
107 120 138
114 125 148
115 124 150
123 136 160
120 131 155
122 136 159
122 136 157
126 140 162
125 140 163
114 124 142
123 137 157
121 137 157
118 130 148
114 124 142
114 126 145
114 125 142
110 121 143
117 129 149
107 116 136
109 119 139
119 132 152
110 121 136
104 112 127
121 130 144
170 169 170
177 178 181
174 177 181
172 176 181
171 175 181
169 174 181
168 174 181
166 173 181
165 172 181
164 172 181
163 171 181
162 171 181
161 170 181
160 170 181
160 170 181
159 169 181
158 169 181
158 169 181
157 168 181
156 168 181
156 168 181
155 167 181
155 167 181
154 167 181
154 167 181
154 167 181
153 166 181
153 166 181
153 166 181
152 166 181
152 166 181
152 166 181
152 166 181
152 166 181
151 166 181
151 166 181
151 166 181
151 166 181
151 166 181
151 166 181
151 166 181
151 166 181
151 166 181
151 166 181
152 166 181
152 166 181
152 166 181
152 166 181
152 166 181
153 166 181
153 166 181
153 167 181
154 167 181
154 167 181
155 167 181
155 167 181
156 168 181
156 168 181
157 168 181
157 168 181
158 169 181
159 169 181
159 169 181
160 170 181
161 170 181
162 171 181
163 171 181
164 171 181
165 172 181
166 173 181
167 173 181
168 174 181
170 175 181
171 175 181
173 176 181
175 177 181
178 179 181
190 192 197
221 234 252
223 236 255
223 236 255
223 236 255
223 236 255
223 236 255
223 236 255
223 236 255
223 236 255
223 236 255
223 236 255
223 236 255
223 236 255
223 236 255
223 236 255
223 236 255
223 236 255
223 236 255
223 236 255
223 236 255
223 236 255
223 236 255
223 236 255
223 236 255
223 236 255
223 236 255
223 236 255
223 236 255
223 236 255
223 236 255
223 236 255
223 236 255
223 236 255
223 236 255
223 236 255
223 236 255
222 236 255
223 236 255
223 236 255
223 236 255
223 236 255
223 236 255
222 236 255
223 236 255
223 236 255
223 236 255
223 236 255
223 236 255
223 236 255
223 236 255
223 236 255
223 236 255
223 236 255
223 236 255
223 236 255
223 236 255
223 236 255
223 236 255
223 236 255
223 236 255
223 236 255
223 236 255
223 236 255
223 236 255
223 236 255
223 236 255
223 236 255
223 236 255
223 236 255
223 236 255
223 236 255
223 236 255
223 236 255
223 236 255
223 236 255
223 236 255
223 236 255
223 236 255
223 236 255
223 236 255
223 236 255
223 236 255
223 236 255
223 236 255
223 236 255
223 236 255
223 236 255
223 236 255
223 236 255
223 236 255
223 236 255
223 236 255
223 236 255
223 236 255
223 236 255
223 236 255
223 236 255
223 236 255
223 236 255
223 236 255
223 236 255
223 236 255
223 236 255
223 236 255
223 236 255
223 236 255
223 236 255
223 236 255
223 236 255
223 236 255
223 236 255
223 236 255
223 236 255
223 236 255
223 236 255
223 236 255
223 236 255
220 232 251
177 180 190
118 98 86
114 91 73
115 91 73
119 93 75
114 89 72
113 89 72
114 90 73
116 90 72
112 89 72
108 86 69
108 85 69
114 90 72
111 88 71
114 91 73
113 89 72
117 92 74
109 86 69
113 88 71
115 90 72
126 118 112
113 142 140
112 137 144
131 147 170
136 149 178
116 108 156
110 75 150
90 59 121
87 94 102
106 79 113
106 87 84
109 92 98
103 92 118
88 97 106
87 78 113
91 77 123
102 113 135
105 116 136
125 138 163
121 135 158
126 140 163
119 133 153
120 132 153
126 141 161
127 142 164
118 131 148
120 133 153
120 135 154
115 128 147
115 127 145
116 129 148
114 127 147
119 132 152
115 127 150
112 124 144
114 125 143
111 124 143
110 120 137
112 121 137
169 168 169
178 178 181
175 177 181
173 176 181
171 175 181
170 175 181
168 174 181
167 173 181
166 173 181
165 172 181
164 172 181
163 171 181
162 171 181
161 170 181
160 170 181
159 169 181
159 169 181
158 169 181
157 169 181
157 168 181
156 168 181
156 168 181
155 167 181
155 167 181
154 167 181
154 167 181
154 167 181
153 167 181
153 166 181
153 166 181
153 166 181
152 166 181
152 166 181
152 166 181
152 166 181
152 166 181
152 166 181
152 166 181
151 166 181
151 166 181
151 166 181
151 166 181
152 166 181
152 166 181
152 166 181
152 166 181
152 166 181
152 166 181
152 166 181
153 166 181
153 166 181
153 166 181
154 167 181
154 167 181
154 167 181
155 167 181
155 167 181
156 168 181
156 168 181
157 168 181
157 168 181
158 169 181
158 169 181
159 169 181
160 170 181
161 170 181
161 170 181
162 171 181
163 171 181
164 172 181
165 172 181
166 173 181
168 173 181
169 174 181
170 175 181
172 176 181
174 176 181
176 178 181
179 179 181
194 197 203
222 236 255
223 236 255
223 236 255
223 236 255
223 236 255
223 236 255
223 236 255
223 236 255
223 236 255
223 236 255
223 236 255
223 236 255
223 236 255
223 236 255
223 236 255
223 236 255
223 236 255
223 236 255
223 236 255
223 236 255
223 236 255
223 236 255
223 236 255
223 236 255
223 236 255
223 236 255
223 236 255
223 236 255
223 236 255
223 236 255
223 236 255
223 236 255
223 236 255
223 236 255
223 236 255
223 236 255
223 236 255
223 236 255
223 236 255
223 236 255
223 236 255
223 236 255
223 236 255
223 236 255
223 236 255
223 236 255
223 236 255
223 236 255
223 236 255
223 236 255
223 236 255
223 236 255
223 236 255
223 236 255
223 236 255
223 236 255
223 236 255
223 236 255
223 236 255
223 236 255
223 236 255
223 236 255
223 236 255
223 236 255
223 236 255
223 236 255
223 236 255
223 236 255
223 236 255
223 236 255
223 236 255
223 236 255
223 236 255
223 236 255
223 236 255
223 236 255
223 236 255
223 236 255
223 236 255
223 236 255
223 236 255
223 236 255
223 236 255
223 236 255
223 236 255
223 236 255
223 236 255
223 236 255
223 236 255
223 236 255
223 236 255
223 236 255
223 236 255
223 236 255
223 236 255
223 236 255
223 236 255
223 236 255
223 236 255
223 236 255
223 236 255
223 236 255
223 236 255
223 236 255
223 236 255
223 236 255
223 236 255
223 236 255
223 236 255
223 236 255
223 236 255
223 236 255
223 236 255
223 236 255
223 236 255
223 236 255
215 227 245
160 155 159
115 90 72
115 90 72
109 86 69
114 90 72
111 87 70
110 87 71
112 89 71
117 91 73
117 92 73
110 87 70
109 85 69
115 91 73
113 88 72
113 89 72
109 86 69
107 85 69
116 91 73
110 87 70
113 94 79
127 146 146
115 154 153
120 140 154
138 156 178
130 131 172
111 75 153
116 79 154
96 96 118
104 88 119
102 78 90
109 94 96
101 88 112
86 88 103
86 69 110
93 55 126
88 62 120
85 83 108
99 105 126
121 134 158
117 131 153
127 143 165
130 146 169
125 141 164
127 141 164
120 132 152
126 141 161
126 142 163
121 135 155
119 130 150
116 129 148
122 136 156
124 140 161
115 128 148
115 127 148
114 125 145
112 122 140
114 127 145
113 124 141
151 151 157
178 179 181
176 178 181
174 177 181
172 176 181
170 175 181
169 174 181
168 174 181
167 173 181
165 172 181
164 172 181
163 171 181
163 171 181
162 171 181
161 170 181
160 170 181
159 169 181
159 169 181
158 169 181
158 169 181
157 168 181
156 168 181
156 168 181
155 168 181
155 167 181
155 167 181
154 167 181
154 167 181
154 167 181
153 167 181
153 166 181
153 166 181
153 166 181
152 166 181
152 166 181
152 166 181
152 166 181
152 166 181
152 166 181
152 166 181
152 166 181
152 166 181
152 166 181
152 166 181
152 166 181
152 166 181
152 166 181
152 166 181
153 166 181
153 166 181
153 166 181
153 166 181
154 167 181
154 167 181
154 167 181
154 167 181
155 167 181
155 167 181
156 168 181
156 168 181
157 168 181
157 168 181
158 169 181
158 169 181
159 169 181
160 170 181
161 170 181
161 170 181
162 171 181
163 171 181
164 172 181
165 172 181
166 173 181
167 173 181
168 174 181
170 174 181
171 175 181
173 176 181
174 177 181
177 178 181
180 179 181
203 209 219
223 236 255
223 236 255
223 236 255
223 236 255
223 236 255
223 236 255
223 236 255
223 236 255
223 236 255
223 236 255
223 236 255
223 236 255
223 236 255
223 236 255
223 236 255
223 236 255
223 236 255
223 236 255
223 236 255
223 236 255
223 236 255
223 236 255
223 236 255
223 236 255
223 236 255
223 236 255
223 236 255
223 236 255
223 236 255
223 236 255
223 236 255
223 236 255
223 236 255
223 236 255
223 236 255
223 236 255
223 236 255
223 236 255
223 236 255
223 236 255
223 236 255
223 236 255
223 236 255
223 236 255
223 236 255
223 236 255
223 236 255
223 236 255
223 236 255
223 236 255
223 236 255
223 236 255
223 236 255
223 236 255
223 236 255
223 236 255
223 236 255
223 236 255
223 236 255
223 236 255
223 236 255
223 236 255
223 236 255
223 236 255
223 236 255
223 236 255
223 236 255
223 236 255
223 236 255
223 236 255
223 236 255
223 236 255
223 236 255
223 236 255
223 236 255
223 236 255
223 236 255
223 236 255
223 236 255
223 236 255
223 236 255
223 236 255
223 236 255
223 236 255
223 236 255
223 236 255
223 236 255
223 236 255
223 236 255
223 236 255
223 236 255
223 236 255
223 236 255
223 236 255
223 236 255
223 236 255
223 236 255
223 236 255
223 236 255
223 236 255
223 236 255
223 236 255
223 236 255
223 236 255
223 236 255
223 236 255
223 236 255
223 236 255
223 236 255
223 236 255
223 236 255
223 236 255
223 236 255
223 236 255
223 236 255
195 203 217
142 133 131
115 93 79
114 90 72
112 87 70
114 89 72
114 90 72
112 89 71
112 88 71
110 87 69
108 86 69
105 82 66
110 87 70
114 90 72
114 89 71
115 90 73
111 87 70
111 87 70
109 86 69
114 88 71
118 117 110
132 163 165
104 129 136
119 137 154
140 153 182
116 89 159
119 85 159
104 87 134
99 98 115
103 79 102
113 98 90
106 82 106
90 90 103
76 63 92
97 64 132
91 55 124
75 36 105
73 62 98
89 92 115
120 133 157
119 133 157
122 135 156
129 146 170
124 138 161
127 144 167
120 133 154
129 144 167
130 147 170
122 137 158
123 138 160
121 132 153
115 129 148
112 124 140
122 136 156
112 124 142
119 130 151
113 123 141
119 133 154
134 134 142
179 179 181
177 178 181
175 177 181
173 176 181
171 175 181
170 175 181
168 174 181
167 173 181
166 173 181
165 172 181
164 172 181
163 171 181
162 171 181
162 171 181
161 170 181
160 170 181
159 169 181
159 169 181
158 169 181
158 169 181
157 168 181
157 168 181
156 168 181
156 168 181
155 167 181
155 167 181
155 167 181
154 167 181
154 167 181
154 167 181
153 167 181
153 166 181
153 166 181
153 166 181
153 166 181
152 166 181
152 166 181
152 166 181
152 166 181
152 166 181
152 166 181
152 166 181
152 166 181
152 166 181
152 166 181
152 166 181
153 166 181
153 166 181
153 166 181
153 166 181
153 167 181
154 167 181
154 167 181
154 167 181
154 167 181
155 167 181
155 167 181
156 168 181
156 168 181
156 168 181
157 168 181
157 168 181
158 169 181
159 169 181
159 169 181
160 170 181
161 170 181
161 170 181
162 171 181
163 171 181
164 172 181
165 172 181
166 172 181
167 173 181
168 174 181
169 174 181
170 175 181
172 175 181
173 176 181
175 177 181
178 179 181
182 182 183
214 224 240
223 236 255
223 236 255
223 236 255
223 236 255
223 236 255
223 236 255
223 236 255
223 236 255
223 236 255
223 236 255
223 236 255
223 236 255
223 236 255
223 236 255
223 236 255
223 236 255
223 236 255
223 236 255
223 236 255
223 236 255
223 236 255
223 236 255
223 236 255
223 236 255
223 236 255
223 236 255
223 236 255
223 236 255
223 236 255
223 236 255
223 236 255
223 236 255
223 236 255
223 236 255
223 236 255
223 236 255
223 236 255
223 236 255
223 236 255
223 236 255
223 236 255
223 236 255
223 236 255
223 236 255
223 236 255
223 236 255
223 236 255
223 236 255
223 236 255
223 236 255
223 236 255
223 236 255
223 236 255
223 236 255
223 236 255
223 236 255
223 236 255
223 236 255
223 236 255
223 236 255
223 236 255
223 236 255
223 236 255
223 236 255
223 236 255
223 236 255
223 236 255
223 236 255
223 236 255
223 236 255
223 236 255
223 236 255
223 236 255
223 236 255
223 236 255
223 236 255
223 236 255
223 236 255
223 236 255
223 236 255
223 236 255
223 236 255
223 236 255
223 236 255
223 236 255
223 236 255
223 236 255
223 236 255
223 236 255
223 236 255
223 236 255
223 236 255
223 236 255
223 236 255
223 236 255
223 236 255
223 236 255
223 236 255
223 236 255
223 236 255
223 236 255
223 236 255
223 236 255
223 236 255
223 236 255
223 236 255
223 236 255
223 236 255
223 236 255
223 236 255
223 236 255
223 236 255
223 236 255
223 236 255
192 199 211
135 121 116
108 85 69
115 90 72
108 85 67
112 88 71
114 89 71
110 87 70
110 86 70
116 91 73
112 87 70
113 88 71
111 88 70
113 89 71
106 84 68
112 89 71
114 90 72
113 89 71
109 86 69
115 94 80
125 137 134
113 148 150
104 127 137
136 152 174
133 130 176
113 70 157
111 67 154
105 112 125
108 76 118
108 94 93
108 89 102
96 92 110
87 79 108
101 60 136
97 58 130
101 77 138
80 43 113
69 48 97
77 79 99
101 104 129
116 126 150
123 135 160
120 134 158
121 135 156
126 140 164
128 143 166
120 132 153
125 140 162
125 139 161
118 130 151
113 124 144
119 131 150
126 141 162
115 123 142
126 140 163
112 120 139
119 130 149
117 122 136
174 174 175
178 179 181
175 177 181
174 176 181
172 176 181
170 175 181
169 174 181
168 174 181
167 173 181
166 173 181
165 172 181
164 172 181
163 171 181
162 171 181
162 171 181
161 170 181
160 170 181
160 170 181
159 169 181
158 169 181
158 169 181
157 168 181
157 168 181
156 168 181
156 168 181
156 168 181
155 167 181
155 167 181
155 167 181
154 167 181
154 167 181
154 167 181
154 167 181
153 167 181
153 166 181
153 166 181
153 166 181
153 166 181
153 166 181
153 166 181
153 166 181
153 166 181
153 166 181
153 166 181
153 166 181
153 166 181
153 166 181
153 166 181
153 166 181
153 167 181
153 167 181
154 167 181
154 167 181
154 167 181
154 167 181
155 167 181
155 167 181
155 168 181
156 168 181
156 168 181
157 168 181
157 168 181
158 169 181
158 169 181
159 169 181
159 169 181
160 170 181
161 170 181
161 170 181
162 171 181
163 171 181
164 171 181
164 172 181
165 172 181
166 173 181
167 173 181
169 174 181
170 175 181
171 175 181
173 176 181
174 177 181
176 178 181
179 179 181
186 187 189
219 231 248
223 236 255
223 236 255
223 236 255
223 236 255
223 236 255
223 236 255
223 236 255
223 236 255
223 236 255
223 236 255
223 236 255
223 236 255
223 236 255
223 236 255
223 236 255
223 236 255
223 236 255
223 236 255
223 236 255
223 236 255
223 236 255
223 236 255
223 236 255
223 236 255
223 236 255
223 236 255
223 236 255
223 236 255
223 236 255
223 236 255
223 236 255
223 236 255
223 236 255
223 236 255
223 236 255
223 236 255
223 236 255
223 236 255
223 236 255
223 236 255
223 236 255
223 236 255
223 236 255
223 236 255
223 236 255
223 236 255
223 236 255
223 236 255
223 236 255
223 236 255
223 236 255
223 236 255
223 236 255
223 236 255
223 236 255
223 236 255
223 236 255
223 236 255
223 236 255
223 236 255
223 236 255
223 236 255
223 236 255
223 236 255
223 236 255
223 236 255
223 236 255
223 236 255
223 236 255
223 236 255
223 236 255
223 236 255
223 236 255
223 236 255
223 236 255
223 236 255
223 236 255
223 236 255
223 236 255
223 236 255
223 236 255
223 236 255
223 236 255
223 236 255
223 236 255
223 236 255
223 236 255
223 236 255
223 236 255
223 236 255
223 236 255
223 236 255
223 236 255
223 236 255
223 236 255
223 236 255
223 236 255
223 236 255
223 236 255
223 236 255
223 236 255
223 236 255
223 236 255
223 236 255
223 236 255
223 236 255
223 236 255
223 236 255
223 236 255
223 236 255
223 236 255
223 236 255
221 233 252
190 195 206
114 95 81
109 86 69
115 91 72
110 87 70
110 86 70
110 87 70
112 88 70
112 88 71
107 84 67
108 85 67
109 86 69
115 91 73
108 84 67
110 86 70
110 87 70
110 86 69
109 86 69
111 87 70
128 123 120
148 173 180
118 140 150
99 119 130
137 154 177
115 77 159
118 79 160
104 86 136
105 86 122
108 81 99
116 97 100
105 86 108
98 98 121
105 77 140
105 65 143
100 59 137
100 63 138
93 62 129
77 41 109
68 56 92
70 69 91
88 91 115
110 118 142
114 124 148
118 132 155
122 133 157
120 132 154
127 144 165
122 134 158
119 131 153
122 135 157
121 134 157
120 132 154
114 124 145
115 124 147
113 122 143
114 121 141
115 121 141
167 166 168
179 179 181
176 178 181
174 177 181
173 176 181
172 175 181
170 175 181
169 174 181
168 174 181
167 173 181
166 173 181
165 172 181
164 172 181
163 171 181
162 171 181
162 171 181
161 170 181
160 170 181
160 170 181
159 169 181
159 169 181
158 169 181
158 169 181
157 168 181
157 168 181
156 168 181
156 168 181
156 168 181
155 168 181
155 167 181
155 167 181
155 167 181
154 167 181
154 167 181
154 167 181
154 167 181
154 167 181
153 167 181
153 167 181
153 166 181
153 166 181
153 166 181
153 166 181
153 166 181
153 166 181
153 166 181
153 167 181
153 167 181
154 167 181
154 167 181
154 167 181
154 167 181
154 167 181
154 167 181
155 167 181
155 167 181
155 167 181
156 168 181
156 168 181
156 168 181
157 168 181
157 168 181
157 169 181
158 169 181
158 169 181
159 169 181
160 170 181
160 170 181
161 170 181
161 170 181
162 171 181
163 171 181
164 171 181
164 172 181
165 172 181
166 173 181
167 173 181
168 174 181
169 174 181
171 175 181
172 176 181
173 176 181
175 177 181
177 178 181
180 180 181
197 202 209
223 236 255
223 236 255
223 236 255
223 236 255
223 236 255
223 236 255
223 236 255
223 236 255
223 236 255
223 236 255
223 236 255
223 236 255
223 236 255
223 236 255
223 236 255
223 236 255
223 236 255
223 236 255
223 236 255
223 236 255
223 236 255
223 236 255
223 236 255
223 236 255
223 236 255
223 236 255
223 236 255
223 236 255
223 236 255
223 236 255
223 236 255
223 236 255
223 236 255
223 236 255
223 236 255
223 236 255
223 236 255
223 236 255
223 236 255
223 237 255
222 235 254
222 235 254
222 235 254
222 236 255
222 236 255
223 237 255
223 237 255
222 236 255
222 236 255
222 235 254
222 236 255
222 235 254
221 235 254
223 237 255
222 235 254
223 237 255
222 236 255
222 236 255
221 234 254
221 235 254
220 234 253
222 235 254
222 236 255
220 234 253
219 232 252
220 234 253
219 233 252
221 234 254
220 234 253
219 232 252
221 234 254
219 232 252
220 233 252
216 229 248
217 231 250
220 234 253
218 232 251
221 235 254
221 235 254
222 236 255
219 233 252
216 230 249
221 234 254
222 236 255
221 235 254
214 228 248
218 232 251
219 232 252
217 231 250
219 233 252
217 231 250
216 230 249
219 232 252
219 233 252
214 228 248
217 231 250
211 225 244
217 230 250
217 231 250
213 227 246
215 229 248
218 232 251
217 231 250
211 225 244
215 229 248
213 227 246
214 228 248
216 230 249
213 227 246
211 225 245
216 230 250
215 228 248
201 213 231
160 160 166
114 89 71
114 89 71
109 85 68
114 89 71
104 82 66
113 89 71
114 90 72
112 87 70
110 86 69
105 83 66
112 87 70
108 84 68
107 84 68
106 84 67
105 83 66
111 87 70
112 88 70
110 86 69
129 128 129
130 151 162
106 129 140
113 132 145
113 114 145
121 79 168
119 90 160
93 100 106
108 73 115
110 85 88
107 80 104
94 93 106
101 77 128
108 59 149
114 79 155
108 74 148
90 58 127
83 43 119
79 41 112
77 49 107
70 38 97
72 58 95
73 68 92
94 97 119
105 115 138
112 122 145
122 136 160
123 139 163
127 140 165
130 143 168
121 133 156
124 135 159
115 122 146
114 120 144
110 114 136
97 98 119
89 82 104
128 125 127
180 180 181
177 178 181
175 177 181
174 177 181
172 176 181
171 175 181
170 175 181
169 174 181
168 173 181
167 173 181
166 173 181
165 172 181
164 172 181
163 171 181
163 171 181
162 171 181
161 170 181
161 170 181
160 170 181
160 170 181
159 169 181
159 169 181
158 169 181
158 169 181
157 168 181
157 168 181
157 168 181
156 168 181
156 168 181
156 168 181
155 167 181
155 167 181
155 167 181
155 167 181
154 167 181
154 167 181
154 167 181
154 167 181
154 167 181
154 167 181
154 167 181
154 167 181
154 167 181
154 167 181
154 167 181
154 167 181
154 167 181
154 167 181
154 167 181
154 167 181
154 167 181
155 167 181
155 167 181
155 167 181
155 167 181
155 168 181
156 168 181
156 168 181
156 168 181
157 168 181
157 168 181
157 169 181
158 169 181
158 169 181
159 169 181
159 169 181
160 170 181
160 170 181
161 170 181
162 171 181
162 171 181
163 171 181
164 172 181
164 172 181
165 172 181
166 173 181
167 173 181
168 174 181
169 174 181
170 175 181
171 175 181
173 176 181
174 177 181
176 178 181
178 179 181
181 180 181
209 218 231
220 234 253
219 232 252
219 233 252
219 232 252
219 233 252
221 235 254
221 235 254
220 234 253
221 234 254
219 232 252
220 234 253
219 232 252
221 234 254
219 233 252
222 235 254
222 235 254
222 235 254
221 235 254
220 234 253
222 235 254
220 234 253
222 235 254
223 237 255
222 235 254
223 237 255
222 236 255
222 236 255
223 237 255
221 235 254
222 236 255
222 235 254
222 236 255
223 237 255
222 235 254
223 237 255
222 235 254
223 237 255
223 236 255
208 222 242
210 224 243
211 225 244
208 222 242
206 221 240
215 229 248
211 225 244
211 225 244
207 221 241
204 218 238
207 221 240
204 218 238
209 223 242
210 224 243
207 221 240
204 218 238
208 222 242
199 214 234
206 220 240
209 223 242
193 207 228
208 223 242
206 220 240
206 220 240
206 221 240
204 218 238
200 214 234
201 215 236
204 218 238
193 207 228
194 209 229
199 214 233
202 216 236
201 215 236
201 216 236
202 217 237
208 222 242
197 211 231
198 213 233
200 215 235
202 216 236
195 210 230
207 221 240
196 211 231
198 213 233
192 207 227
197 211 231
201 215 236
201 216 236
196 210 231
204 218 238
196 210 230
208 222 242
196 211 231
198 213 233
194 209 229
195 210 231
199 213 233
190 205 226
194 209 229
202 216 236
196 211 231
196 210 231
199 214 233
197 212 232
193 208 228
197 211 231
189 204 224
184 199 220
193 208 228
189 204 225
189 204 224
194 209 229
184 194 211
161 161 169
111 89 73
110 87 69
111 87 70
111 86 69
114 89 71
109 84 67
114 89 71
105 81 65
111 87 70
113 88 70
110 85 69
108 84 67
109 86 69
109 85 68
102 81 65
111 87 69
109 85 69
108 89 76
143 153 162
128 148 160
104 128 137
112 130 143
99 84 130
132 89 182
95 81 117
105 92 122
107 74 105
107 87 88
109 86 122
91 89 113
119 72 166
112 52 157
118 73 159
109 66 151
101 57 142
98 57 138
96 67 133
90 52 125
93 57 130
93 71 127
87 73 117
98 99 128
106 113 138
112 120 145
115 127 152
122 134 160
116 126 151
126 141 165
126 140 165
127 140 163
129 144 169
126 138 162
122 129 154
110 108 133
103 81 105
174 173 174
179 179 181
177 178 181
175 177 181
173 176 181
172 176 181
171 175 181
170 174 181
169 174 181
168 173 181
167 173 181
166 173 181
165 172 181
164 172 181
164 171 181
163 171 181
162 171 181
162 171 181
161 170 181
161 170 181
160 170 181
159 169 181
159 169 181
159 169 181
158 169 181
158 169 181
157 168 181
157 168 181
157 168 181
156 168 181
156 168 181
156 168 181
156 168 181
155 168 181
155 167 181
155 167 181
155 167 181
155 167 181
155 167 181
155 167 181
155 167 181
154 167 181
154 167 181
154 167 181
154 167 181
154 167 181
154 167 181
155 167 181
155 167 181
155 167 181
155 167 181
155 167 181
155 167 181
155 168 181
156 168 181
156 168 181
156 168 181
156 168 181
157 168 181
157 168 181
157 168 181
158 169 181
158 169 181
158 169 181
159 169 181
159 169 181
160 170 181
160 170 181
161 170 181
161 170 181
162 171 181
162 171 181
163 171 181
164 172 181
165 172 181
165 172 181
166 173 181
167 173 181
168 174 181
169 174 181
170 175 181
171 175 181
172 176 181
174 177 181
175 177 181
177 178 181
179 179 181
187 188 191
196 209 228
203 218 238
201 216 236
202 217 236
198 212 233
203 217 237
199 213 233
202 217 237
202 216 236
202 216 236
204 219 238
204 218 238
207 221 241
205 219 238
208 222 242
206 221 240
205 219 239
209 223 242
209 223 243
203 218 238
209 223 243
212 226 245
210 224 244
210 224 243
209 223 242
211 225 244
210 224 244
213 227 246
209 224 243
211 225 244
209 223 242
212 226 246
213 227 246
211 225 244
207 221 240
218 232 251
213 227 246
214 228 247
193 208 228
189 204 224
195 210 230
190 204 225
191 205 226
194 208 228
184 199 219
183 199 220
185 200 221
191 206 226
187 201 222
189 204 224
187 202 223
186 201 222
178 194 215
178 193 214
189 204 225
183 198 219
177 193 214
186 201 221
176 192 214
187 202 223
175 191 212
180 195 216
176 192 213
182 197 217
178 193 214
179 194 214
174 190 211
177 192 214
177 192 214
179 195 216
181 196 217
184 199 220
172 187 208
175 191 212
178 194 214
178 194 214
179 194 215
176 192 213
177 193 214
173 189 211
183 198 219
169 185 207
172 188 210
172 188 209
173 189 211
168 184 206
169 185 207
175 191 213
178 194 215
174 190 211
170 186 207
167 183 205
162 179 202
170 186 208
168 184 206
177 193 214
179 195 216
169 185 207
170 186 207
168 184 205
176 192 213
168 184 207
164 180 203
172 188 209
159 175 198
178 193 214
162 179 201
174 189 210
170 186 208
166 182 204
166 183 205
157 171 192
125 115 114
106 85 69
109 85 68
113 89 71
112 88 71
111 87 70
111 87 70
113 89 72
104 82 65
111 86 69
106 82 66
112 88 70
109 85 69
108 84 68
102 80 65
109 86 69
101 79 63
111 87 70
119 105 100
136 155 167
116 141 152
116 137 152
92 110 113
109 86 150
118 70 166
93 104 104
116 81 131
113 90 98
101 79 92
98 91 117
110 80 146
118 57 165
111 75 152
107 55 152
112 67 158
106 62 148
99 60 139
105 75 143
96 58 133
95 55 135
93 56 128
89 57 122
86 53 116
99 97 131
114 129 148
119 133 155
125 137 160
129 142 167
122 136 158
129 144 167
128 141 166
132 147 169
135 150 175
128 116 153
112 54 113
151 146 150
180 180 181
178 179 181
176 178 181
174 177 181
173 176 181
172 176 181
171 175 181
170 174 181
169 174 181
168 174 181
167 173 181
166 173 181
165 172 181
165 172 181
164 172 181
163 171 181
163 171 181
162 171 181
161 170 181
161 170 181
160 170 181
160 170 181
160 170 181
159 169 181
159 169 181
158 169 181
158 169 181
158 169 181
157 168 181
157 168 181
157 168 181
157 168 181
156 168 181
156 168 181
156 168 181
156 168 181
156 168 181
155 168 181
155 168 181
155 167 181
155 167 181
155 167 181
155 167 181
155 167 181
155 167 181
155 167 181
155 167 181
155 167 181
155 168 181
155 168 181
156 168 181
156 168 181
156 168 181
156 168 181
156 168 181
156 168 181
157 168 181
157 168 181
157 168 181
157 168 181
158 169 181
158 169 181
159 169 181
159 169 181
159 169 181
160 170 181
160 170 181
161 170 181
161 170 181
162 171 181
162 171 181
163 171 181
163 171 181
164 172 181
165 172 181
166 172 181
166 173 181
167 173 181
168 174 181
169 174 181
170 175 181
171 175 181
172 176 181
173 176 181
175 177 181
176 178 181
178 179 181
181 180 181
178 184 194
176 192 214
185 200 220
171 187 209
183 198 218
172 188 210
183 198 219
182 197 217
189 204 225
182 198 219
170 186 207
182 197 218
186 201 221
180 196 217
181 196 217
188 203 223
187 202 223
187 201 222
176 192 213
183 198 219
190 204 225
183 198 219
184 199 220
188 203 224
185 200 221
186 201 222
185 200 220
179 194 214
188 203 224
186 201 221
186 201 221
184 199 220
188 203 223
185 200 221
189 204 224
184 199 220
192 207 227
184 199 220
176 192 213
164 180 202
165 182 203
159 176 198
162 179 201
155 172 194
159 176 198
160 176 199
165 181 203
157 174 196
163 179 201
161 178 200
164 180 203
154 171 194
156 173 196
153 170 194
158 175 197
153 170 193
153 170 193
154 170 193
151 169 192
154 171 194
149 167 190
155 172 194
158 175 197
155 172 194
151 169 192
148 166 189
154 171 194
149 167 190
145 163 188
152 169 192
152 170 193
152 170 193
152 169 192
150 167 190
150 167 190
150 167 190
153 170 193
146 164 188
143 161 185
150 167 190
147 164 188
147 164 188
148 166 188
149 167 190
146 163 186
141 160 184
145 163 187
147 165 188
144 162 186
148 166 189
147 165 188
148 165 188
143 161 185
142 160 184
148 166 189
140 158 182
146 164 188
145 163 186
145 163 187
149 166 189
145 163 187
145 163 187
145 163 187
144 162 186
144 162 186
141 159 183
143 161 185
142 160 184
141 159 183
144 162 186
141 159 183
139 153 174
114 110 113
111 87 69
113 88 70
111 87 69
102 80 64
111 87 70
104 80 64
103 80 65
109 86 68
107 84 67
105 82 66
112 88 70
109 86 69
107 83 67
109 85 68
108 85 68
104 81 65
105 83 66
136 138 143
129 153 164
114 140 151
115 134 149
82 101 97
103 82 141
99 96 122
109 114 131
112 72 116
104 85 84
116 92 125
92 99 108
118 80 163
117 59 163
117 61 163
120 62 169
119 75 168
102 53 144
104 42 146
107 71 147
103 65 142
98 52 136
98 51 138
99 55 134
100 66 132
99 66 129
95 82 124
102 111 127
120 133 154
126 138 158
121 134 154
132 146 170
133 149 171
131 148 169
134 146 169
127 80 136
120 95 119
177 175 176
179 179 181
177 178 181
175 177 181
174 177 181
173 176 181
172 176 181
171 175 181
170 174 181
169 174 181
168 174 181
167 173 181
166 173 181
166 172 181
165 172 181
164 172 181
164 171 181
163 171 181
162 171 181
162 171 181
161 170 181
161 170 181
160 170 181
160 170 181
160 170 181
159 169 181
159 169 181
159 169 181
158 169 181
158 169 181
158 169 181
158 169 181
157 168 181
157 168 181
157 168 181
157 168 181
157 168 181
156 168 181
156 168 181
156 168 181
156 168 181
156 168 181
156 168 181
156 168 181
156 168 181
156 168 181
156 168 181
156 168 181
156 168 181
156 168 181
156 168 181
156 168 181
156 168 181
157 168 181
157 168 181
157 168 181
157 168 181
157 168 181
158 169 181
158 169 181
158 169 181
158 169 181
159 169 181
159 169 181
160 170 181
160 170 181
160 170 181
161 170 181
161 170 181
162 171 181
162 171 181
163 171 181
163 171 181
164 172 181
164 172 181
165 172 181
166 173 181
167 173 181
167 173 181
168 174 181
169 174 181
170 175 181
171 175 181
172 176 181
173 176 181
175 177 181
176 178 181
178 179 181
180 180 181
183 182 183
154 169 189
152 170 193
151 169 192
155 172 194
148 166 189
153 170 193
149 166 189
149 166 189
156 174 197
153 170 193
154 171 194
151 169 192
159 175 198
153 171 194
160 177 199
156 173 196
158 174 197
162 178 200
157 174 196
161 178 199
158 175 198
165 181 203
161 177 199
159 176 199
162 178 200
156 173 195
158 175 197
155 172 194
159 176 199
161 178 200
153 170 193
156 173 195
165 181 203
165 181 203
161 178 201
162 178 200
159 176 198
142 160 184
141 159 183
140 158 181
139 158 182
140 158 182
139 157 181
139 157 181
138 156 181
139 158 181
141 159 182
143 160 184
140 158 181
139 157 181
138 156 181
139 157 181
138 157 181
139 157 181
138 156 181
136 156 181
138 156 181
139 157 181
139 157 181
139 157 181
137 156 181
137 156 181
138 156 181
137 156 181
139 157 181
138 156 181
139 157 181
137 156 181
138 157 181
138 157 181
137 156 181
138 157 181
138 157 181
137 156 181
137 156 181
138 156 181
137 156 181
136 156 181
138 156 181
137 156 181
138 156 181
138 156 181
137 156 181
137 156 181
137 156 181
138 156 181
138 156 181
139 157 181
138 156 181
138 156 181
138 157 181
138 156 181
138 156 181
138 156 181
136 156 181
138 156 181
137 156 181
139 157 181
139 157 181
137 156 181
138 156 181
138 156 181
139 157 181
138 157 181
138 156 181
139 157 181
137 156 181
138 156 181
137 156 181
139 157 181
130 141 160
116 108 110
106 83 66
106 83 66
110 85 68
104 82 65
107 84 67
107 83 66
106 83 66
111 87 69
108 86 68
106 83 67
110 86 69
108 85 68
101 79 64
109 86 69
109 84 67
107 84 66
105 82 66
146 156 164
145 167 180
133 155 171
102 121 129
93 113 108
113 127 146
101 116 124
121 110 151
109 79 88
111 89 96
123 119 146
95 93 116
120 71 169
120 58 171
116 48 167
117 62 164
119 71 169
117 55 163
110 57 156
113 70 158
114 80 155
111 59 153
105 61 143
107 69 144
102 57 134
104 57 139
99 57 128
86 97 95
111 127 141
131 148 166
120 135 154
130 146 165
130 146 164
133 149 168
136 134 165
132 78 135
161 158 160
180 180 181
178 179 181
177 178 181
175 177 181
174 177 181
173 176 181
172 175 181
171 175 181
170 175 181
169 174 181
168 174 181
167 173 181
167 173 181
166 173 181
165 172 181
165 172 181
164 172 181
163 171 181
163 171 181
162 171 181
162 171 181
162 170 181
161 170 181
161 170 181
160 170 181
160 170 181
160 170 181
159 169 181
159 169 181
159 169 181
158 169 181
158 169 181
158 169 181
158 169 181
158 169 181
157 168 181
157 168 181
157 168 181
157 168 181
157 168 181
157 168 181
157 168 181
157 168 181
157 168 181
157 168 181
157 168 181
157 168 181
157 168 181
157 168 181
157 168 181
157 168 181
157 168 181
157 168 181
157 168 181
157 168 181
158 169 181
158 169 181
158 169 181
158 169 181
159 169 181
159 169 181
159 169 181
159 169 181
160 170 181
160 170 181
160 170 181
161 170 181
161 170 181
162 171 181
162 171 181
163 171 181
163 171 181
164 172 181
164 172 181
165 172 181
166 172 181
166 173 181
167 173 181
168 173 181
168 174 181
169 174 181
170 175 181
171 175 181
172 176 181
173 176 181
174 177 181
176 177 181
177 178 181
179 179 181
181 180 181
166 171 181
138 156 181
138 157 181
138 156 181
138 156 181
138 157 181
141 159 182
139 157 181
138 156 181
139 157 181
137 156 181
138 157 181
137 156 181
137 156 181
139 157 181
139 158 182
139 157 181
138 156 181
139 158 182
141 159 182
139 157 181
139 157 181
138 156 180
141 159 182
139 157 181
139 158 182
140 158 182
139 157 181
139 158 182
141 159 183
141 159 182
140 158 182
141 159 182
139 158 182
144 162 185
144 162 186
141 160 184
138 156 181
139 157 181
138 157 181
138 157 181
137 156 181
138 156 181
137 156 181
137 156 181
139 157 181
138 156 181
138 157 181
137 156 181
138 156 181
137 156 181
138 156 181
138 156 181
136 156 181
137 156 181
137 156 181
138 156 181
138 156 181
138 157 181
139 157 181
138 157 181
139 157 181
137 156 181
138 156 181
137 156 181
138 157 181
138 157 181
138 156 181
137 156 180
138 156 181
138 157 181
138 157 181
138 156 181
138 157 181
137 156 181
138 156 181
137 156 181
137 156 181
138 156 181
138 156 181
138 156 181
137 156 181
138 156 181
138 157 181
137 156 181
139 157 181
139 157 181
138 156 181
137 156 181
138 156 181
138 156 181
139 157 181
138 156 181
138 156 181
138 157 181
137 156 181
138 156 181
137 156 181
138 156 181
138 156 181
138 157 181
136 156 181
138 156 181
137 156 181
139 157 181
138 156 181
137 156 181
138 156 181
137 156 181
138 156 181
131 144 163
117 108 109
107 84 66
102 80 64
111 87 69
110 86 68
107 83 67
106 83 66
106 84 67
107 84 67
104 82 67
107 84 67
100 78 63
103 80 64
106 82 66
103 81 65
106 82 66
100 78 64
105 81 67
142 148 159
138 154 169
141 157 178
103 121 122
72 95 81
117 132 150
103 118 146
123 92 144
105 86 89
115 97 118
109 109 132
97 98 115
133 88 183
122 71 171
119 71 164
101 66 139
109 65 150
115 54 160
120 70 168
112 59 156
116 60 159
107 53 150
110 67 148
122 79 167
112 68 150
98 61 125
112 71 145
76 81 83
81 93 83
123 140 158
133 150 171
120 136 153
124 142 158
124 141 156
138 122 157
143 108 148
179 178 178
179 179 181
178 179 181
176 178 181
175 177 181
174 177 181
173 176 181
172 175 181
171 175 181
170 175 181
169 174 181
168 174 181
168 173 181
167 173 181
166 173 181
166 173 181
165 172 181
165 172 181
164 172 181
164 171 181
163 171 181
163 171 181
162 171 181
162 171 181
161 170 181
161 170 181
161 170 181
160 170 181
160 170 181
160 170 181
159 169 181
159 169 181
159 169 181
159 169 181
159 169 181
158 169 181
158 169 181
158 169 181
158 169 181
158 169 181
158 169 181
158 169 181
158 169 181
158 169 181
158 169 181
158 169 181
158 169 181
158 169 181
158 169 181
158 169 181
158 169 181
158 169 181
158 169 181
158 169 181
158 169 181
158 169 181
158 169 181
159 169 181
159 169 181
159 169 181
159 169 181
160 170 181
160 170 181
160 170 181
160 170 181
161 170 181
161 170 181
161 170 181
162 171 181
162 171 181
163 171 181
163 171 181
164 172 181
164 172 181
165 172 181
165 172 181
166 173 181
167 173 181
167 173 181
168 174 181
169 174 181
169 174 181
170 175 181
171 175 181
172 176 181
173 176 181
174 177 181
175 177 181
177 178 181
178 179 181
180 180 181
179 179 181
143 159 181
138 156 181
138 156 181
140 157 181
138 156 181
138 157 181
137 154 178
140 156 179
137 156 181
139 157 181
137 156 181
136 155 181
137 156 181
137 156 181
139 157 181
138 156 181
137 156 181
138 156 181
138 156 181
136 155 181
136 156 181
138 156 181
137 156 181
138 156 181
137 156 181
137 156 181
138 156 181
137 156 180
137 156 181
138 157 181
136 155 181
138 156 181
138 157 181
139 157 181
137 156 181
138 156 181
139 157 181
137 156 181
139 157 181
139 157 181
137 156 181
138 157 181
137 156 181
139 157 181
138 156 181
137 156 181
139 157 181
138 156 181
139 157 181
138 156 181
137 156 181
138 156 181
138 156 181
138 156 181
137 156 181
139 157 181
137 156 181
137 156 181
138 156 181
139 157 181
139 157 181
137 156 181
137 156 180
139 157 181
139 157 181
138 156 181
138 157 181
137 156 181
138 156 181
136 155 181
137 156 181
138 157 181
137 156 181
138 157 181
138 156 181
138 156 181
138 156 181
137 156 181
138 156 181
139 157 181
137 156 181
138 156 181
138 156 181
138 156 181
137 156 181
137 156 181
136 155 181
139 157 181
137 156 181
137 156 181
138 157 181
139 157 181
137 156 181
137 156 181
139 157 181
138 156 181
138 156 181
138 156 181
137 156 181
139 157 181
138 156 181
138 156 181
139 157 181
138 157 181
138 156 181
138 156 181
137 156 181
137 156 181
138 156 181
134 146 165
112 109 114
113 89 72
103 81 65
110 86 70
107 84 67
101 81 65
108 84 66
102 80 64
107 84 67
109 85 68
106 83 67
106 83 66
104 81 65
106 83 66
105 83 65
105 82 66
109 85 68
110 93 84
146 150 163
127 135 153
134 150 169
88 108 100
87 106 100
124 140 164
99 98 155
122 86 134
109 94 92
116 88 137
98 104 137
120 137 155
113 124 143
83 95 101
71 86 86
63 86 70
75 89 88
94 77 125
122 65 173
126 71 177
124 79 170
116 49 164
120 71 165
121 74 165
118 62 157
112 63 149
107 57 148
81 90 85
70 81 65
105 119 123
139 158 181
137 154 175
138 156 178
122 144 152
119 123 132
155 147 153
181 180 181
179 179 181
177 178 181
176 178 181
175 177 181
174 177 181
173 176 181
172 176 181
171 175 181
170 175 181
170 174 181
169 174 181
168 174 181
167 173 181
167 173 181
166 173 181
166 172 181
165 172 181
165 172 181
164 172 181
164 172 181
163 171 181
163 171 181
162 171 181
162 171 181
162 171 181
161 170 181
161 170 181
161 170 181
161 170 181
160 170 181
160 170 181
160 170 181
160 170 181
159 169 181
159 169 181
159 169 181
159 169 181
159 169 181
159 169 181
159 169 181
159 169 181
158 169 181
158 169 181
158 169 181
158 169 181
158 169 181
158 169 181
158 169 181
158 169 181
159 169 181
159 169 181
159 169 181
159 169 181
159 169 181
159 169 181
159 169 181
160 169 181
160 170 181
160 170 181
160 170 181
160 170 181
161 170 181
161 170 181
161 170 181
162 170 181
162 171 181
162 171 181
163 171 181
163 171 181
163 171 181
164 172 181
164 172 181
165 172 181
165 172 181
166 173 181
166 173 181
167 173 181
168 173 181
168 174 181
169 174 181
170 174 181
170 175 181
171 175 181
172 176 181
173 176 181
174 177 181
175 177 181
177 178 181
178 179 181
180 180 181
182 181 181
163 170 181
137 156 181
137 156 181
138 155 178
137 150 173
135 137 159
136 133 154
136 133 155
138 145 168
137 152 176
137 155 180
138 156 181
137 156 181
137 156 181
138 157 181
138 156 181
139 158 182
147 166 186
155 175 191
146 166 187
146 165 185
138 157 181
136 156 181
137 156 181
137 155 179
137 156 181
138 156 181
137 156 181
136 156 181
138 156 181
137 156 181
140 157 181
138 157 181
137 156 181
135 154 179
127 143 170
138 156 181
138 156 181
137 156 181
137 156 181
137 156 181
137 156 181
137 156 181
138 156 181
137 156 181
137 156 181
139 157 181
138 157 181
137 156 181
137 156 181
139 157 181
138 156 181
138 157 181
139 157 181
138 157 181
137 156 181
137 156 181
137 156 181
138 156 181
138 156 181
139 157 181
137 156 181
138 156 181
140 157 181
137 156 181
139 157 181
138 156 181
138 156 181
138 156 181
138 156 181
138 156 181
137 156 181
138 156 181
137 156 181
137 156 181
137 156 181
138 157 181
137 156 181
138 156 181
139 157 181
138 157 181
138 156 181
137 156 181
137 156 181
138 156 181
137 156 181
139 157 181
138 156 181
137 156 181
138 156 181
136 156 181
138 156 181
138 156 181
137 156 181
138 156 181
139 157 181
138 156 181
137 156 181
138 156 181
139 157 181
137 156 181
137 156 181
139 157 181
138 157 181
138 156 181
136 156 181
138 156 181
138 156 181
137 156 181
136 152 175
119 119 128
111 87 72
105 82 65
106 83 67
102 81 64
101 80 64
104 82 66
105 82 65
108 84 67
108 85 67
107 83 67
103 80 64
106 82 66
104 81 65
103 80 64
105 82 65
101 78 63
126 113 110
152 156 172
134 145 166
114 125 143
71 96 75
84 92 96
103 105 136
83 71 148
118 86 118
107 89 94
111 91 142
101 111 151
136 152 179
92 108 118
75 98 86
69 92 72
68 90 73
65 86 69
58 82 59
67 76 75
123 84 170
130 78 179
125 62 174
124 63 174
117 70 157
121 77 161
125 63 171
105 81 132
73 85 68
74 89 71
85 98 93
132 147 170
138 155 178
129 148 162
124 149 145
110 125 119
180 179 178
180 180 181
179 179 181
177 178 181
176 178 181
175 177 181
174 177 181
173 176 181
172 176 181
171 175 181
171 175 181
170 175 181
169 174 181
169 174 181
168 174 181
167 173 181
167 173 181
166 173 181
166 173 181
165 172 181
165 172 181
164 172 181
164 172 181
164 171 181
163 171 181
163 171 181
163 171 181
162 171 181
162 171 181
162 171 181
161 170 181
161 170 181
161 170 181
161 170 181
160 170 181
160 170 181
160 170 181
160 170 181
160 170 181
160 170 181
160 170 181
160 169 181
159 169 181
159 169 181
159 169 181
159 169 181
159 169 181
159 169 181
159 169 181
159 169 181
159 169 181
159 169 181
160 170 181
160 170 181
160 170 181
160 170 181
160 170 181
160 170 181
160 170 181
160 170 181
161 170 181
161 170 181
161 170 181
161 170 181
162 171 181
162 171 181
162 171 181
163 171 181
163 171 181
163 171 181
164 172 181
164 172 181
164 172 181
165 172 181
165 172 181
166 173 181
166 173 181
167 173 181
168 173 181
168 174 181
169 174 181
169 174 181
170 175 181
171 175 181
172 175 181
172 176 181
173 176 181
174 177 181
175 177 181
176 178 181
178 179 181
179 179 181
181 180 181
180 180 181
142 158 181
138 155 178
137 146 169
135 123 144
131 94 112
131 96 114
132 104 122
132 108 126
134 129 151
137 149 172
138 156 180
138 156 181
137 156 181
139 157 181
141 160 183
157 178 193
162 184 197
169 194 204
163 187 199
156 177 193
152 170 186
136 149 171
131 140 161
134 145 168
136 150 172
138 155 179
137 156 180
137 156 181
137 156 181
138 156 181
138 156 181
138 156 181
138 156 179
125 140 166
104 115 148
137 156 181
138 156 181
138 156 181
137 156 181
138 156 181
139 157 181
138 156 181
138 156 181
137 156 181
138 157 181
137 156 181
138 157 181
138 157 181
137 156 181
137 156 181
138 157 181
136 155 181
138 156 181
138 156 181
138 156 181
138 157 181
138 156 181
137 156 181
138 156 181
138 156 181
138 156 181
137 156 181
137 156 181
137 156 181
138 156 181
138 157 181
138 156 181
137 156 181
136 155 181
138 156 181
140 157 181
138 156 181
137 156 181
138 157 181
139 157 181
137 156 181
137 156 181
139 157 181
138 156 181
138 156 181
137 156 181
138 156 181
134 153 177
138 156 181
137 156 180
138 156 181
138 156 181
138 156 181
138 156 181
138 156 181
137 156 181
137 156 181
137 156 181
138 157 181
137 156 181
137 156 181
138 156 181
138 156 181
137 155 180
140 157 181
137 156 181
139 157 181
136 155 181
138 155 180
139 156 180
138 157 181
139 157 181
137 156 181
135 151 173
115 116 125
106 85 69
105 83 66
101 80 64
103 82 66
106 82 66
107 83 66
104 81 65
104 81 64
106 83 67
106 83 66
102 79 64
107 84 66
103 81 65
103 79 64
104 80 64
108 84 67
132 129 135
138 142 159
150 165 187
120 130 147
77 103 83
107 115 126
128 134 173
100 91 154
109 84 99
105 83 84
100 85 147
112 118 159
121 127 149
80 91 90
74 97 80
80 102 84
61 88 62
64 86 62
55 82 55
73 96 76
72 94 78
131 123 172
135 94 184
126 58 179
129 69 178
125 69 172
106 79 137
65 78 56
84 99 80
83 102 80
88 101 97
112 120 138
85 78 102
113 128 132
127 154 144
138 139 136
182 181 181
180 180 181
178 179 181
177 178 181
176 178 181
175 177 181
174 177 181
173 176 181
172 176 181
172 176 181
171 175 181
170 175 181
170 174 181
169 174 181
168 174 181
168 174 181
167 173 181
167 173 181
166 173 181
166 173 181
166 172 181
165 172 181
165 172 181
164 172 181
164 172 181
164 171 181
163 171 181
163 171 181
163 171 181
162 171 181
162 171 181
162 171 181
162 171 181
162 170 181
161 170 181
161 170 181
161 170 181
161 170 181
161 170 181
161 170 181
161 170 181
160 170 181
160 170 181
160 170 181
160 170 181
160 170 181
160 170 181
160 170 181
160 170 181
160 170 181
160 170 181
160 170 181
160 170 181
161 170 181
161 170 181
161 170 181
161 170 181
161 170 181
161 170 181
161 170 181
162 171 181
162 171 181
162 171 181
162 171 181
162 171 181
163 171 181
163 171 181
163 171 181
164 172 181
164 172 181
164 172 181
165 172 181
165 172 181
166 172 181
166 173 181
167 173 181
167 173 181
168 173 181
168 174 181
169 174 181
169 174 181
170 175 181
170 175 181
171 175 181
172 176 181
173 176 181
174 176 181
174 177 181
176 177 181
176 178 181
178 179 181
179 179 181
181 180 181
183 181 181
159 167 180
135 142 165
131 123 144
128 103 120
130 92 101
130 94 99
128 83 90
130 89 97
133 115 130
133 131 152
138 156 180
138 157 183
138 156 182
146 164 186
164 184 195
181 205 210
186 212 216
186 214 218
183 210 215
172 195 203
150 161 170
127 127 142
121 115 130
122 112 127
126 136 142
131 148 143
133 153 161
136 158 166
137 157 174
138 157 180
137 156 181
137 156 181
132 150 175
103 115 146
71 71 116
137 156 181
138 156 181
138 156 181
137 156 181
137 156 181
137 156 181
138 157 181
138 156 181
135 153 176
136 154 177
137 155 179
137 156 181
137 156 181
138 156 181
138 156 181
138 156 181
138 156 181
138 156 181
137 156 181
138 156 181
138 156 181
139 157 181
138 156 181
139 157 181
138 156 181
139 157 181
138 156 181
138 156 181
138 157 181
138 156 181
139 157 181
138 156 181
138 156 180
136 154 177
136 154 176
137 156 179
138 156 181
139 157 181
138 156 181
137 156 181
138 156 181
139 157 181
137 156 181
138 156 181
136 155 179
124 145 169
119 141 164
117 141 165
122 144 167
132 152 176
136 154 178
137 156 181
138 156 181
137 156 181
137 156 181
138 156 181
137 156 181
138 156 181
138 157 181
139 157 181
137 156 181
138 156 181
138 156 181
138 156 181
139 157 181
138 157 182
138 154 178
139 148 172
141 139 164
143 139 164
142 143 168
140 149 173
139 156 180
136 153 176
119 116 123
98 80 70
97 77 61
101 80 64
104 82 65
102 79 64
103 81 65
104 81 64
105 82 65
103 81 65
100 78 63
101 79 63
105 82 65
107 83 66
100 78 62
101 78 63
96 74 60
124 120 128
162 176 196
159 175 197
99 103 126
87 110 95
109 100 124
111 109 159
111 99 165
119 98 113
121 101 114
95 81 156
108 111 160
109 102 129
87 89 93
71 98 74
59 92 56
74 99 76
56 83 52
61 89 60
59 89 57
63 90 62
113 122 143
129 142 167
132 142 175
121 119 162
97 103 114
80 97 73
86 103 82
85 102 82
81 99 73
118 121 145
105 73 120
103 57 117
125 121 138
159 190 176
173 171 170
181 180 181
180 180 181
178 179 181
177 178 181
176 178 181
175 177 181
174 177 181
174 176 181
173 176 181
172 176 181
171 175 181
171 175 181
170 175 181
170 174 181
169 174 181
169 174 181
168 174 181
168 173 181
167 173 181
167 173 181
166 173 181
166 173 181
166 172 181
165 172 181
165 172 181
164 172 181
164 172 181
164 172 181
164 171 181
163 171 181
163 171 181
163 171 181
163 171 181
162 171 181
162 171 181
162 171 181
162 171 181
162 171 181
162 171 181
162 171 181
162 170 181
161 170 181
161 170 181
161 170 181
161 170 181
161 170 181
161 170 181
161 170 181
161 170 181
161 170 181
161 170 181
161 170 181
161 170 181
162 170 181
162 171 181
162 171 181
162 171 181
162 171 181
162 171 181
162 171 181
162 171 181
163 171 181
163 171 181
163 171 181
163 171 181
164 172 181
164 172 181
164 172 181
165 172 181
165 172 181
165 172 181
166 172 181
166 173 181
166 173 181
167 173 181
167 173 181
168 173 181
168 174 181
169 174 181
169 174 181
170 175 181
170 175 181
171 175 181
172 175 181
172 176 181
173 176 181
174 177 181
175 177 181
176 177 181
177 178 181
178 179 181
179 179 181
180 180 181
182 181 181
173 174 177
134 139 157
129 109 123
134 113 116
136 142 139
140 146 144
138 151 148
138 136 134
136 130 133
135 134 154
139 151 185
142 160 196
142 159 196
153 170 200
176 195 208
194 215 216
196 220 218
190 217 218
184 208 209
167 182 183
142 141 146
117 100 108
113 97 98
113 109 83
120 138 83
126 153 83
129 160 102
131 162 115
135 159 152
135 157 163
136 155 179
136 155 179
127 142 168
89 95 132
55 50 99
138 156 181
137 156 181
137 156 181
138 156 181
138 156 180
136 155 179
134 150 171
126 142 161
122 136 153
118 131 145
122 136 153
132 148 170
137 155 179
137 156 181
138 157 181
138 156 181
138 156 181
139 157 181
137 156 181
137 156 181
137 156 181
139 157 181
137 156 181
137 156 181
138 157 181
136 155 181
136 155 181
138 156 181
138 156 181
138 156 180
137 156 180
137 156 178
132 153 168
130 151 156
123 145 148
125 146 159
128 147 164
137 155 177
137 156 181
138 156 181
138 156 181
138 156 181
137 156 181
133 153 177
118 141 164
91 121 143
71 109 129
76 110 130
105 127 147
132 147 166
143 155 175
146 159 180
145 159 181
138 156 180
138 157 181
137 156 181
137 156 181
137 155 180
138 157 181
138 156 180
138 157 181
139 157 181
136 155 180
136 157 183
139 161 188
139 162 191
140 158 191
144 132 162
147 109 139
149 95 124
144 113 140
142 123 148
138 144 169
138 153 178
128 137 154
102 86 77
99 77 61
101 79 63
101 79 64
108 84 67
104 81 64
99 79 63
101 79 62
103 80 64
100 78 62
103 80 64
99 77 62
101 79 64
99 76 62
104 80 64
104 81 65
116 110 119
154 165 184
143 159 177
103 106 131
91 93 108
103 78 115
95 84 155
113 89 158
117 99 105
116 93 119
98 84 170
110 101 150
107 80 118
88 67 95
69 92 70
80 107 82
60 93 56
68 96 68
69 99 69
76 101 79
76 72 82
82 56 93
120 123 149
125 137 161
131 140 163
127 137 159
100 113 129
82 96 112
89 105 123
119 135 153
119 79 136
114 62 128
114 47 129
112 66 126
151 154 154
183 181 181
181 180 181
180 180 181
178 179 181
177 178 181
176 178 181
176 177 181
175 177 181
174 177 181
173 176 181
173 176 181
172 176 181
171 175 181
171 175 181
170 175 181
170 175 181
169 174 181
169 174 181
168 174 181
168 174 181
167 173 181
167 173 181
167 173 181
166 173 181
166 173 181
166 172 181
165 172 181
165 172 181
165 172 181
164 172 181
164 172 181
164 172 181
164 172 181
164 171 181
163 171 181
163 171 181
163 171 181
163 171 181
163 171 181
163 171 181
163 171 181
162 171 181
162 171 181
162 171 181
162 171 181
162 171 181
162 171 181
162 171 181
162 171 181
162 171 181
162 171 181
162 171 181
162 171 181
162 171 181
162 171 181
163 171 181
163 171 181
163 171 181
163 171 181
163 171 181
163 171 181
163 171 181
164 171 181
164 172 181
164 172 181
164 172 181
165 172 181
165 172 181
165 172 181
165 172 181
166 173 181
166 173 181
166 173 181
167 173 181
167 173 181
167 173 181
168 174 181
168 174 181
169 174 181
169 174 181
170 175 181
170 175 181
171 175 181
171 175 181
172 176 181
173 176 181
173 176 181
174 177 181
175 177 181
176 178 181
177 178 181
178 179 181
179 179 181
180 180 181
182 181 181
183 181 180
140 137 141
131 117 116
135 135 128
142 166 161
144 184 179
142 181 177
144 178 172
143 162 166
148 163 187
144 160 205
146 164 220
147 165 222
150 168 219
167 184 221
179 197 212
185 207 207
174 191 188
155 165 164
131 129 131
107 84 92
101 80 84
108 106 74
114 131 58
117 146 34
122 156 33
118 153 34
123 159 53
123 156 79
130 158 127
136 157 166
138 156 181
123 139 163
95 106 133
48 45 91
138 156 181
139 157 181
138 156 181
139 157 181
138 156 178
129 145 164
113 125 137
101 109 114
95 101 101
89 94 93
98 105 107
112 123 134
125 140 158
136 153 177
137 156 181
138 156 181
138 156 181
139 157 181
138 156 180
138 157 181
138 156 180
137 156 181
138 156 181
138 157 181
138 156 181
138 157 181
137 156 181
138 156 181
138 156 181
138 156 181
140 160 178
152 172 181
153 176 178
139 163 157
132 158 150
135 159 150
122 144 146
119 140 152
136 155 178
138 157 181
137 156 181
138 156 181
134 153 178
115 138 160
92 120 141
53 96 115
66 101 119
102 119 133
140 144 156
149 153 168
166 166 182
169 170 187
164 168 185
149 160 181
139 157 181
138 156 181
136 155 180
139 157 181
139 157 181
137 155 180
138 156 181
137 156 181
139 162 190
141 171 205
139 178 220
138 181 228
140 168 212
144 156 200
149 103 141
148 79 115
152 40 82
144 77 107
145 114 139
140 139 162
131 123 140
111 102 102
94 73 59
98 77 61
98 76 60
99 77 62
96 75 60
102 79 63
104 82 66
101 79 63
100 77 61
104 81 65
102 79 63
99 76 62
97 75 60
99 77 62
105 83 69
113 108 121
138 148 171
148 164 180
110 110 137
103 82 125
114 83 126
89 78 152
118 104 172
110 93 93
127 110 136
89 86 170
110 89 144
107 76 118
110 78 120
88 40 94
90 50 95
81 63 86
90 78 97
85 61 91
100 67 108
93 51 101
95 51 103
110 89 125
140 153 177
120 109 140
101 87 131
68 71 158
48 49 152
74 79 162
115 128 173
132 104 155
128 58 145
123 70 139
125 68 140
156 149 151
183 181 181
181 180 181
180 180 181
179 179 181
178 179 181
177 178 181
176 178 181
175 177 181
174 177 181
174 177 181
173 176 181
172 176 181
172 176 181
171 175 181
171 175 181
170 175 181
170 175 181
169 174 181
169 174 181
169 174 181
168 174 181
168 174 181
167 173 181
167 173 181
167 173 181
166 173 181
166 173 181
166 173 181
166 172 181
165 172 181
165 172 181
165 172 181
165 172 181
165 172 181
164 172 181
164 172 181
164 172 181
164 172 181
164 172 181
164 172 181
164 171 181
163 171 181
163 171 181
163 171 181
163 171 181
163 171 181
163 171 181
163 171 181
163 171 181
163 171 181
163 171 181
163 171 181
163 171 181
163 171 181
163 171 181
164 171 181
164 172 181
164 172 181
164 172 181
164 172 181
164 172 181
164 172 181
165 172 181
165 172 181
165 172 181
165 172 181
165 172 181
166 173 181
166 173 181
166 173 181
167 173 181
167 173 181
167 173 181
167 173 181
168 174 181
168 174 181
169 174 181
169 174 181
170 174 181
170 175 181
170 175 181
171 175 181
171 175 181
172 176 181
173 176 181
173 176 181
174 177 181
175 177 181
175 177 181
176 178 181
177 178 181
178 179 181
179 179 181
180 180 181
181 180 181
183 181 181
155 150 143
127 116 100
133 133 118
136 153 142
142 177 169
145 184 178
145 183 179
142 169 177
147 165 199
151 166 221
149 167 228
149 166 228
150 167 228
163 178 223
162 177 204
145 161 169
137 151 145
129 136 132
107 104 101
98 80 83
103 92 78
105 114 60
113 141 38
112 145 13
117 152 13
116 152 13
114 148 13
117 152 34
122 152 87
130 154 149
127 149 165
106 129 142
83 111 114
44 76 74
135 152 176
137 152 175
134 148 171
134 146 168
129 142 161
110 120 133
91 96 95
80 80 66
79 79 64
79 79 64
75 76 62
88 93 91
105 115 125
128 145 166
138 156 181
139 157 181
138 156 181
138 156 181
138 156 181
136 155 181
139 157 181
137 156 181
138 157 181
137 156 180
135 155 176
131 154 167
130 154 163
131 154 167
134 155 173
143 162 179
161 182 191
174 197 196
179 206 201
181 210 205
172 199 192
151 176 164
152 174 164
134 154 154
124 144 161
139 157 181
137 156 181
137 156 181
131 151 174
103 129 151
62 100 118
26 81 97
91 108 120
143 145 155
177 170 180
187 179 191
184 178 191
185 176 189
175 169 184
157 158 177
141 148 174
135 148 175
137 154 178
137 156 181
138 156 181
137 156 180
138 156 181
138 159 185
143 175 210
142 183 226
139 188 239
136 187 241
137 188 242
140 182 233
142 167 211
142 127 164
142 51 86
146 33 71
147 74 95
152 89 110
152 90 103
123 85 83
97 72 58
99 79 63
99 77 61
100 78 62
103 81 65
97 75 60
104 82 65
100 77 62
100 78 61
101 79 64
99 77 62
101 79 64
101 79 63
92 72 58
101 79 63
113 108 119
136 146 167
106 123 126
109 119 127
99 81 121
118 84 129
102 86 166
122 102 170
113 97 97
131 116 141
94 83 178
115 90 153
116 95 133
98 45 107
104 54 112
108 65 117
109 68 117
98 41 106
101 52 111
95 41 102
104 61 113
101 58 111
116 100 137
133 113 147
133 77 128
95 48 137
67 69 181
73 75 182
80 84 184
108 118 180
110 106 154
127 79 148
126 47 144
122 63 134
179 176 175
182 181 181
181 180 181
180 180 181
179 179 181
178 179 181
177 178 181
176 178 181
176 177 181
175 177 181
174 177 181
174 176 181
173 176 181
173 176 181
172 176 181
172 175 181
171 175 181
171 175 181
170 175 181
170 175 181
169 174 181
169 174 181
169 174 181
168 174 181
168 174 181
168 174 181
167 173 181
167 173 181
167 173 181
167 173 181
166 173 181
166 173 181
166 173 181
166 173 181
166 172 181
165 172 181
165 172 181
165 172 181
165 172 181
165 172 181
165 172 181
165 172 181
164 172 181
165 172 181
164 172 181
164 172 181
164 172 181
164 172 181
164 172 181
164 172 181
164 172 181
164 172 181
164 172 181
164 172 181
164 172 181
165 172 181
165 172 181
165 172 181
165 172 181
165 172 181
165 172 181
165 172 181
165 172 181
166 172 181
166 173 181
166 173 181
166 173 181
166 173 181
167 173 181
167 173 181
167 173 181
167 173 181
168 173 181
168 174 181
168 174 181
169 174 181
169 174 181
169 174 181
170 175 181
170 175 181
171 175 181
171 175 181
172 175 181
172 176 181
173 176 181
173 176 181
174 177 181
174 177 181
175 177 181
176 178 181
176 178 181
177 178 181
178 179 181
179 179 181
180 180 181
181 180 181
183 181 181
179 176 173
125 112 92
127 119 100
132 138 122
134 155 143
139 172 165
128 157 161
138 157 186
152 164 213
149 160 212
152 166 222
151 164 220
149 161 216
151 162 214
140 151 188
110 125 135
97 119 108
85 106 89
86 96 83
85 89 79
91 98 69
108 126 51
109 139 27
110 144 13
109 141 12
114 147 13
111 144 13
116 150 13
120 150 79
111 142 106
100 131 125
82 119 107
49 102 64
39 95 52
114 116 132
127 127 144
127 126 142
121 111 124
122 119 133
105 102 108
80 73 63
75 74 60
74 73 59
72 72 58
71 71 57
76 75 62
87 92 91
121 135 152
133 151 175
137 156 181
138 156 181
137 156 181
138 156 181
137 155 180
138 157 181
138 156 181
137 156 180
131 154 167
121 150 145
108 147 112
106 143 112
110 146 118
116 150 127
140 168 156
171 196 188
190 215 210
189 217 213
188 217 214
190 218 214
191 216 209
167 188 174
142 161 150
120 140 147
133 152 174
138 156 181
137 156 181
128 148 172
93 118 137
34 81 97
57 88 101
126 129 137
180 169 176
194 182 190
190 180 191
186 176 189
173 160 178
155 140 163
139 126 157
124 115 152
126 123 156
130 135 164
134 148 174
136 155 179
136 155 180
138 156 181
135 160 186
142 176 213
145 192 237
142 191 242
140 190 242
140 190 241
142 191 240
144 186 232
145 142 180
144 96 123
156 26 59
158 28 48
158 41 54
156 47 58
125 57 49
96 72 57
100 79 62
99 78 62
101 78 63
93 73 59
103 80 64
96 75 60
102 79 63
102 79 63
100 78 62
98 76 61
96 75 60
96 76 61
92 71 58
104 83 69
111 107 120
123 138 161
87 108 95
74 104 85
97 100 125
128 103 147
106 83 176
118 111 168
115 99 97
128 118 148
109 101 184
130 105 160
120 94 138
104 51 114
112 85 130
112 103 137
119 108 143
120 104 142
121 96 139
108 61 121
115 82 131
127 115 151
137 148 174
138 110 151
138 64 130
134 64 148
82 76 197
72 74 202
66 68 203
135 150 187
165 167 198
173 166 207
162 155 197
141 136 154
184 182 181
182 181 181
181 180 181
180 180 181
179 179 181
178 179 181
177 178 181
177 178 181
176 178 181
175 177 181
175 177 181
174 177 181
174 177 181
173 176 181
173 176 181
172 176 181
172 176 181
171 175 181
171 175 181
171 175 181
170 175 181
170 175 181
170 174 181
169 174 181
169 174 181
169 174 181
168 174 181
168 174 181
168 174 181
168 173 181
167 173 181
167 173 181
167 173 181
167 173 181
167 173 181
166 173 181
166 173 181
166 173 181
166 173 181
166 173 181
166 173 181
166 172 181
166 172 181
166 172 181
165 172 181
165 172 181
165 172 181
165 172 181
165 172 181
165 172 181
165 172 181
165 172 181
165 172 181
165 172 181
166 172 181
166 172 181
166 173 181
166 173 181
166 173 181
166 173 181
166 173 181
166 173 181
166 173 181
167 173 181
167 173 181
167 173 181
167 173 181
167 173 181
168 173 181
168 174 181
168 174 181
168 174 181
169 174 181
169 174 181
169 174 181
170 174 181
170 175 181
170 175 181
171 175 181
171 175 181
171 175 181
172 176 181
172 176 181
173 176 181
173 176 181
174 177 181
174 177 181
175 177 181
175 177 181
176 178 181
177 178 181
178 178 181
178 179 181
179 179 181
180 180 181
181 180 181
183 181 181
185 182 181
130 120 107
118 105 86
118 107 88
121 134 121
111 130 122
102 124 128
112 127 153
124 133 173
130 137 180
126 132 173
132 138 180
131 133 174
122 117 152
102 95 113
83 82 77
71 86 65
67 96 72
63 96 70
71 91 72
81 100 64
85 108 42
107 139 12
102 132 12
107 138 12
105 136 12
100 129 11
103 132 18
107 132 52
103 131 92
71 104 73
51 96 53
40 98 43
37 98 42
105 87 94
111 91 97
111 79 80
106 71 70
109 74 73
96 69 65
87 66 58
74 67 55
69 67 53
69 69 55
69 68 55
70 70 56
80 82 77
112 125 148
122 139 179
134 152 182
132 150 182
138 156 181
137 155 179
136 156 181
137 155 180
137 156 179
128 150 161
122 149 147
99 142 88
88 134 63
89 138 57
90 139 60
96 138 80
129 162 126
161 188 165
187 211 198
191 214 205
186 210 201
188 210 202
184 203 196
182 201 190
154 167 157
124 140 144
128 147 165
137 155 180
138 157 181
130 148 171
93 115 132
39 78 92
58 84 94
131 127 128
180 166 167
189 175 179
185 171 178
168 152 169
146 127 154
119 99 138
115 91 134
111 89 131
116 93 136
121 110 148
123 123 154
124 143 166
121 147 169
116 144 165
116 148 173
125 162 193
138 181 221
132 174 213
140 186 230
132 167 209
133 170 212
135 176 220
138 162 200
138 113 138
156 34 55
146 12 24
158 13 26
152 50 55
136 101 101
103 82 75
102 79 63
91 71 57
105 82 65
95 75 59
95 74 60
101 79 64
98 76 61
101 78 63
101 79 64
101 78 62
100 77 61
100 76 61
93 73 58
94 72 58
111 118 125
124 144 166
65 102 79
91 118 91
94 115 133
127 122 157
103 72 168
126 130 177
113 100 106
114 105 126
116 101 186
135 115 168
137 147 174
137 146 173
137 153 178
143 160 183
140 158 181
142 160 183
143 160 183
144 161 185
143 159 182
138 157 181
143 161 184
142 153 179
150 118 162
147 86 146
141 127 171
128 142 194
139 155 185
141 158 181
146 163 186
152 162 190
160 167 196
144 141 154
184 182 181
182 181 181
181 180 181
180 180 181
179 179 181
179 179 181
178 179 181
177 178 181
177 178 181
176 178 181
175 177 181
175 177 181
174 177 181
174 177 181
173 176 181
173 176 181
173 176 181
172 176 181
172 176 181
171 175 181
171 175 181
171 175 181
170 175 181
170 175 181
170 175 181
170 174 181
169 174 181
169 174 181
169 174 181
169 174 181
168 174 181
168 174 181
168 174 181
168 174 181
168 173 181
167 173 181
167 173 181
167 173 181
167 173 181
167 173 181
167 173 181
167 173 181
167 173 181
167 173 181
167 173 181
166 173 181
167 173 181
166 173 181
167 173 181
166 173 181
166 173 181
166 173 181
166 173 181
167 173 181
167 173 181
167 173 181
167 173 181
167 173 181
167 173 181
167 173 181
167 173 181
167 173 181
167 173 181
168 173 181
168 174 181
168 174 181
168 174 181
168 174 181
168 174 181
169 174 181
169 174 181
169 174 181
169 174 181
170 175 181
170 175 181
170 175 181
171 175 181
171 175 181
171 175 181
172 176 181
172 176 181
173 176 181
173 176 181
173 176 181
174 177 181
174 177 181
175 177 181
175 177 181
176 178 181
177 178 181
177 178 181
178 179 181
179 179 181
180 179 181
180 180 181
181 180 181
183 181 181
184 182 181
140 134 126
105 94 76
109 99 81
105 106 91
94 109 104
90 109 112
85 99 119
98 105 138
101 103 136
102 100 128
100 88 113
87 57 71
88 54 66
77 28 27
76 46 38
73 55 39
63 75 54
63 93 68
61 93 67
70 100 61
85 115 46
90 119 39
96 126 11
94 124 11
97 125 13
104 122 28
110 106 44
110 92 58
106 78 66
91 68 60
82 77 56
65 85 49
44 91 42
99 66 66
104 65 62
104 65 63
105 66 63
105 66 63
103 65 62
98 64 59
85 65 56
71 67 54
67 67 53
67 67 57
65 66 80
70 76 124
88 99 167
95 109 184
102 115 183
110 113 173
132 136 162
136 136 153
139 137 151
137 142 159
137 153 172
120 143 143
96 135 93
87 134 53
85 132 53
85 132 52
87 136 53
85 133 52
97 140 75
127 159 116
159 182 160
168 189 175
170 191 178
167 185 173
177 191 183
176 191 182
145 156 148
125 142 148
136 154 175
137 155 179
137 156 181
128 147 171
93 121 137
59 95 108
69 92 97
115 120 117
156 146 143
158 146 144
159 144 153
141 122 143
118 95 133
111 86 128
115 88 131
110 86 129
107 83 123
106 86 124
99 109 136
99 118 140
79 124 139
66 118 131
74 123 139
91 135 155
113 153 182
111 148 181
113 145 180
110 136 169
113 136 171
110 140 179
117 128 161
129 68 88
146 29 44
143 27 46
158 80 86
160 151 158
158 171 179
124 145 150
102 86 74
94 74 58
94 74 59
98 77 61
104 80 64
99 77 62
91 71 57
88 69 54
97 75 60
93 72 58
95 73 59
100 78 62
97 75 59
92 71 57
117 123 130
133 148 168
72 104 92
92 122 95
124 146 165
138 150 176
115 80 162
128 133 186
117 106 109
120 110 119
124 115 185
137 120 165
142 159 182
139 157 181
137 155 180
139 157 181
137 155 180
139 156 180
137 157 181
143 161 182
145 163 185
147 164 187
156 172 194
156 173 195
154 170 193
165 179 199
155 171 193
164 180 201
164 180 201
156 172 194
165 182 203
161 177 199
152 166 188
167 163 164
183 182 181
182 181 181
181 180 181
181 180 181
180 180 181
179 179 181
178 179 181
178 179 181
177 178 181
177 178 181
176 178 181
176 177 181
175 177 181
175 177 181
174 177 181
174 177 181
173 176 181
173 176 181
173 176 181
172 176 181
172 176 181
172 175 181
171 175 181
171 175 181
171 175 181
170 175 181
170 175 181
170 175 181
170 175 181
170 174 181
169 174 181
169 174 181
169 174 181
169 174 181
169 174 181
168 174 181
168 174 181
168 174 181
168 174 181
168 174 181
168 174 181
168 174 181
168 174 181
168 173 181
168 173 181
168 173 181
168 173 181
168 173 181
168 173 181
167 173 181
168 173 181
168 173 181
168 173 181
168 173 181
168 173 181
168 174 181
168 174 181
168 174 181
168 174 181
168 174 181
168 174 181
168 174 181
168 174 181
169 174 181
169 174 181
169 174 181
169 174 181
169 174 181
169 174 181
170 175 181
170 175 181
170 175 181
170 175 181
171 175 181
171 175 181
171 175 181
172 175 181
172 176 181
172 176 181
173 176 181
173 176 181
173 176 181
174 177 181
174 177 181
175 177 181
175 177 181
176 177 181
176 178 181
177 178 181
177 178 181
178 179 181
178 179 181
179 179 181
180 180 181
181 180 181
182 181 181
183 181 181
184 182 181
149 143 143
111 93 103
106 94 86
100 106 94
87 105 99
80 101 102
89 104 123
94 104 133
87 86 115
83 66 87
75 26 27
72 18 11
72 18 11
76 18 11
77 19 12
73 26 18
70 50 35
62 76 54
55 82 59
59 89 65
77 102 72
97 122 79
91 116 56
89 115 32
98 109 32
96 98 37
114 75 58
121 35 69
118 36 68
115 39 67
106 46 63
98 63 61
66 71 45
97 68 62
94 66 60
95 68 62
95 65 60
94 59 58
100 63 60
98 61 58
92 63 57
73 59 50
61 60 48
62 63 81
62 67 133
60 68 157
62 73 183
66 77 185
85 78 168
104 83 140
136 98 100
141 96 79
142 96 74
140 116 114
135 126 127
116 126 104
82 128 54
81 126 50
83 128 50
81 125 49
81 128 50
81 127 50
83 127 50
92 130 74
124 149 120
142 162 149
142 161 156
132 151 152
157 173 177
151 163 167
139 153 161
138 153 166
136 154 178
136 155 179
135 157 179
123 155 171
90 145 147
50 124 117
46 125 115
85 124 115
109 131 124
131 129 128
130 118 130
112 92 125
103 80 118
105 81 121
105 81 121
101 79 117
106 83 124
92 88 119
72 94 115
47 106 117
29 101 109
30 105 114
30 102 111
32 102 111
45 104 117
75 117 141
85 119 151
91 122 156
95 118 152
90 118 152
96 105 147
105 73 122
103 35 101
105 48 109
122 104 133
142 162 180
156 201 215
141 178 187
100 99 94
91 72 57
95 74 59
98 77 61
92 72 58
91 72 57
93 73 59
97 75 60
89 70 56
95 74 60
93 72 58
96 75 60
87 68 55
91 70 57
127 134 142
171 186 203
144 162 179
135 155 176
137 156 179
137 155 179
139 100 164
131 132 178
111 100 99
121 114 127
137 139 184
136 130 172
137 154 179
139 156 179
159 175 196
183 198 218
188 203 224
204 219 238
213 225 244
217 229 248
216 230 248
218 231 251
218 231 250
216 229 248
221 235 254
216 230 248
218 232 250
216 229 249
217 230 250
219 233 252
217 230 249
217 230 248
193 202 218
183 180 180
184 182 181
183 181 181
182 181 181
181 180 181
180 180 181
179 179 181
179 179 181
178 179 181
178 179 181
177 178 181
177 178 181
176 178 181
176 178 181
175 177 181
175 177 181
175 177 181
174 177 181
174 177 181
173 176 181
173 176 181
173 176 181
173 176 181
172 176 181
172 176 181
172 176 181
171 175 181
171 175 181
171 175 181
171 175 181
171 175 181
170 175 181
170 175 181
170 175 181
170 175 181
170 175 181
170 174 181
169 174 181
169 174 181
169 174 181
169 174 181
169 174 181
169 174 181
169 174 181
169 174 181
169 174 181
169 174 181
169 174 181
169 174 181
169 174 181
169 174 181
169 174 181
169 174 181
169 174 181
169 174 181
169 174 181
169 174 181
169 174 181
169 174 181
169 174 181
169 174 181
169 174 181
169 174 181
170 174 181
170 174 181
170 175 181
170 175 181
170 175 181
170 175 181
171 175 181
171 175 181
171 175 181
171 175 181
171 175 181
172 175 181
172 176 181
172 176 181
172 176 181
173 176 181
173 176 181
173 176 181
174 177 181
174 177 181
174 177 181
175 177 181
175 177 181
176 178 181
176 178 181
177 178 181
177 178 181
178 179 181
178 179 181
179 179 181
180 179 181
180 180 181
181 180 181
182 181 181
183 181 181
184 182 181
171 167 170
117 87 146
104 89 118
99 95 114
94 112 112
105 122 133
106 122 136
106 118 140
89 82 103
77 40 51
74 18 11
74 18 11
73 18 11
73 18 11
72 17 11
69 17 10
69 33 23
64 60 42
55 77 55
53 79 59
80 103 91
98 117 106
100 119 108
95 109 74
103 86 77
106 57 71
114 33 78
116 31 68
117 30 67
119 31 68
116 30 67
115 36 66
90 57 54
76 78 62
69 78 61
76 78 62
76 75 61
83 67 58
88 60 56
97 61 57
87 61 54
69 54 47
59 59 56
55 59 107
58 69 173
58 69 180
59 66 168
76 67 155
110 72 119
127 72 49
138 76 20
139 75 6
140 76 6
136 76 26
135 85 52
117 102 54
95 108 44
77 120 47
83 129 51
75 119 47
80 124 49
76 119 47
80 123 48
81 119 58
109 129 110
128 148 145
137 156 168
139 159 178
139 157 179
138 156 178
133 150 170
139 158 180
143 160 183
135 155 177
121 157 171
82 157 150
56 153 137
39 157 135
31 151 127
44 151 129
77 143 128
101 136 129
108 112 124
102 84 116
106 81 120
102 79 117
98 77 116
102 80 119
97 81 117
79 91 115
42 96 106
28 100 107
27 97 104
27 96 104
28 99 107
27 95 104
26 92 101
48 101 115
76 113 141
86 117 149
86 116 152
83 111 157
69 84 146
62 62 139
54 44 127
54 50 132
59 65 137
103 130 168
126 164 191
146 186 197
119 133 134
95 78 65
91 71 57
93 72 58
94 72 58
88 70 56
89 69 56
92 71 57
92 72 58
88 68 55
95 73 58
92 71 58
89 69 55
93 71 58
119 122 122
194 207 224
206 219 238
207 222 241
167 184 204
138 156 180
146 140 177
142 152 186
126 121 133
110 97 96
144 149 178
140 157 181
161 177 200
205 218 238
220 233 252
216 229 247
215 230 249
214 228 247
218 231 250
219 231 251
218 232 252
216 230 248
214 228 246
220 234 253
216 229 248
214 228 246
218 232 251
215 228 248
216 230 249
218 232 250
215 229 247
218 231 250
184 188 198
185 182 181
184 182 181
183 181 181
182 181 181
181 180 181
181 180 181
180 180 181
179 179 181
179 179 181
178 179 181
178 179 181
177 178 181
177 178 181
177 178 181
176 178 181
176 178 181
175 177 181
175 177 181
175 177 181
174 177 181
174 177 181
174 177 181
173 176 181
173 176 181
173 176 181
173 176 181
172 176 181
172 176 181
172 176 181
172 176 181
172 175 181
171 175 181
171 175 181
171 175 181
171 175 181
171 175 181
171 175 181
171 175 181
170 175 181
170 175 181
170 175 181
170 175 181
170 175 181
170 175 181
170 175 181
170 175 181
170 175 181
170 175 181
170 175 181
170 175 181
170 175 181
170 175 181
170 175 181
170 175 181
170 175 181
170 175 181
170 175 181
170 175 181
170 175 181
170 175 181
170 175 181
170 175 181
170 175 181
171 175 181
171 175 181
171 175 181
171 175 181
171 175 181
171 175 181
172 175 181
172 176 181
172 176 181
172 176 181
172 176 181
173 176 181
173 176 181
173 176 181
173 176 181
174 176 181
174 177 181
174 177 181
175 177 181
175 177 181
175 177 181
176 178 181
176 178 181
176 178 181
177 178 181
177 178 181
178 179 181
178 179 181
179 179 181
179 179 181
180 180 181
181 180 181
181 180 181
182 181 181
183 181 181
184 182 181
174 169 172
116 81 159
115 80 158
108 94 145
110 120 143
114 129 145
124 141 162
114 128 146
93 95 112
69 20 19
69 17 10
72 17 11
69 17 10
70 17 11
72 17 11
68 16 10
66 25 17
58 52 37
51 74 53
60 83 68
94 112 117
102 112 132
108 112 147
102 92 141
102 65 127
106 49 131
110 46 121
110 39 100
112 31 72
113 29 64
113 29 65
114 29 64
104 41 59
53 83 61
50 84 61
51 84 61
57 83 62
62 74 57
78 71 59
88 59 54
91 69 71
89 86 90
77 85 112
62 69 137
56 67 173
54 65 168
61 65 165
96 65 109
122 70 67
132 71 5
132 72 5
136 74 6
130 72 5
129 70 5
135 73 5
131 81 18
97 104 37
80 111 43
72 113 45
70 110 44
74 115 45
74 114 45
74 115 45
86 120 71
116 137 132
135 153 165
139 157 181
136 155 180
135 153 177
136 155 179
134 152 175
133 148 169
141 160 181
123 154 171
90 153 150
49 150 130
31 154 130
30 149 126
30 151 127
31 152 129
33 150 126
56 142 122
83 130 116
96 96 108
93 86 107
100 77 114
95 74 109
94 74 108
89 79 110
58 92 108
29 96 103
27 96 104
27 94 101
26 94 101
27 93 101
26 89 97
28 97 105
41 94 106
68 106 128
78 102 131
78 103 144
67 88 145
42 52 132
40 47 134
37 44 125
39 45 131
37 43 123
50 61 135
94 120 160
135 173 194
116 136 145
93 84 75
90 71 57
86 67 54
88 68 55
90 71 57
93 72 57
87 68 54
91 71 57
98 76 61
88 68 55
88 68 56
88 68 56
88 67 54
105 100 101
182 196 209
205 218 237
212 227 245
214 228 247
196 209 230
148 166 189
148 162 189
138 132 151
114 100 96
151 154 183
151 167 190
202 214 236
219 232 252
217 231 250
219 232 252
218 232 251
217 231 250
216 231 249
218 232 252
217 231 250
215 228 246
216 231 249
214 230 247
215 229 248
212 225 243
215 228 248
216 229 249
217 231 250
218 232 251
219 233 252
218 232 252
181 181 185
185 182 181
184 182 181
183 181 181
182 181 181
182 181 181
181 180 181
181 180 181
180 180 181
179 179 181
179 179 181
178 179 181
178 179 181
178 179 181
177 178 181
177 178 181
177 178 181
176 178 181
176 178 181
176 177 181
175 177 181
175 177 181
175 177 181
174 177 181
174 177 181
174 177 181
174 177 181
173 176 181
173 176 181
173 176 181
173 176 181
173 176 181
173 176 181
172 176 181
172 176 181
172 176 181
172 176 181
172 176 181
172 176 181
172 175 181
171 175 181
171 175 181
171 175 181
171 175 181
171 175 181
171 175 181
171 175 181
171 175 181
171 175 181
171 175 181
171 175 181
171 175 181
171 175 181
171 175 181
171 175 181
171 175 181
171 175 181
171 175 181
171 175 181
171 175 181
171 175 181
171 175 181
171 175 181
172 175 181
172 175 181
172 176 181
172 176 181
172 176 181
172 176 181
172 176 181
173 176 181
173 176 181
173 176 181
173 176 181
173 176 181
174 176 181
174 177 181
174 177 181
174 177 181
175 177 181
175 177 181
175 177 181
175 177 181
176 178 181
176 178 181
176 178 181
177 178 181
177 178 181
178 178 181
178 179 181
178 179 181
179 179 181
179 179 181
180 180 181
180 180 181
181 180 181
182 181 181
182 181 181
183 181 181
184 182 181
185 182 180
116 89 150
119 81 164
118 85 161
117 113 159
107 124 148
109 135 150
112 129 145
87 87 97
65 27 27
66 16 10
65 15 10
65 15 9
64 15 9
64 15 10
65 15 10
63 20 14
57 53 38
46 68 48
67 87 80
93 106 125
100 94 149
99 78 157
96 65 158
92 66 154
98 62 158
99 56 153
101 50 135
104 41 108
107 29 67
108 28 61
105 27 60
105 37 60
47 79 58
58 87 70
55 86 67
51 82 62
46 77 56
58 72 55
74 66 58
91 81 88
98 104 117
97 109 132
61 71 152
50 60 156
51 60 153
77 63 136
106 66 91
123 67 28
132 72 5
123 66 5
124 66 5
127 70 5
124 67 5
126 69 5
126 70 8
105 80 24
89 99 36
70 108 42
66 102 40
68 106 42
66 104 40
71 105 58
84 111 88
120 142 149
138 156 177
133 151 174
137 154 177
136 149 171
146 149 165
146 139 151
158 142 147
150 138 143
128 139 136
82 141 126
34 141 121
34 148 128
30 143 119
29 138 115
30 143 119
33 147 110
39 147 89
46 143 58
66 133 70
74 125 79
83 100 94
86 83 98
93 74 106
76 72 97
44 86 96
25 90 97
26 89 95
24 86 92
25 85 91
25 87 94
24 85 93
24 85 93
30 88 97
78 106 123
97 116 141
78 95 139
48 57 128
37 44 125
38 44 126
36 42 120
37 43 122
36 41 117
36 42 120
44 52 125
79 95 135
100 119 131
93 95 91
93 75 62
89 71 56
87 68 54
82 65 52
86 68 54
95 74 59
84 65 54
91 71 57
89 68 55
88 68 55
86 67 56
93 72 57
104 98 102
183 198 214
202 214 233
209 223 243
209 223 242
217 231 251
199 213 233
150 168 193
149 149 175
109 97 97
138 135 153
170 184 206
215 226 248
218 231 251
219 233 253
213 227 247
215 229 248
213 228 246
212 227 246
221 235 254
218 232 252
218 232 251
218 232 252
218 233 252
218 232 252
219 234 254
215 229 249
214 228 248
216 229 249
218 232 252
220 234 254
215 229 248
178 178 179
185 182 181
184 182 181
183 182 181
183 181 181
182 181 181
182 181 181
181 180 181
181 180 181
180 180 181
180 180 181
179 179 181
179 179 181
178 179 181
178 179 181
178 179 181
177 178 181
177 178 181
177 178 181
177 178 181
176 178 181
176 178 181
176 177 181
175 177 181
175 177 181
175 177 181
175 177 181
174 177 181
174 177 181
174 177 181
174 177 181
174 177 181
174 176 181
173 176 181
173 176 181
173 176 181
173 176 181
173 176 181
173 176 181
173 176 181
173 176 181
173 176 181
172 176 181
172 176 181
172 176 181
172 176 181
172 176 181
172 176 181
172 176 181
172 176 181
172 176 181
172 176 181
172 176 181
172 176 181
172 176 181
172 176 181
172 176 181
172 176 181
172 176 181
172 176 181
172 176 181
172 176 181
173 176 181
173 176 181
173 176 181
173 176 181
173 176 181
173 176 181
173 176 181
173 176 181
174 176 181
174 177 181
174 177 181
174 177 181
174 177 181
175 177 181
175 177 181
175 177 181
175 177 181
175 177 181
176 178 181
176 178 181
176 178 181
177 178 181
177 178 181
177 178 181
178 178 181
178 179 181
178 179 181
179 179 181
179 179 181
180 179 181
180 180 181
180 180 181
181 180 181
182 181 181
182 181 181
183 181 181
184 182 181
184 182 181
185 182 180
121 102 145
108 76 151
106 90 152
89 111 143
79 136 141
74 143 143
68 135 133
61 118 116
63 80 75
58 46 41
62 15 9
60 14 9
59 14 9
61 14 9
63 15 9
57 30 26
69 68 68
69 86 88
100 116 131
102 101 148
91 73 146
83 68 141
79 77 134
74 84 125
76 80 130
85 74 142
87 64 142
98 51 133
101 39 99
103 29 66
102 26 57
98 40 62
128 153 161
124 150 160
123 147 155
94 120 117
75 101 92
47 78 58
69 81 74
103 111 123
117 130 148
114 129 161
74 85 157
53 63 158
50 60 155
69 57 125
104 63 78
126 68 5
124 67 5
117 64 5
117 63 5
125 68 5
114 64 5
116 62 5
123 66 5
114 79 32
83 90 44
74 109 60
61 96 38
60 94 36
69 100 61
83 114 81
101 123 115
129 146 161
137 153 175
134 152 174
139 150 171
159 136 138
166 132 127
169 118 96
169 118 96
162 115 94
138 119 107
92 129 123
51 135 133
49 131 130
44 126 121
41 134 122
37 132 101
39 144 61
41 147 46
40 142 29
40 137 19
42 142 22
54 134 48
65 105 68
75 88 85
71 71 93
52 84 98
25 85 93
23 82 87
26 91 97
23 81 88
24 84 91
25 88 95
25 88 94
41 84 93
91 118 135
99 117 144
72 82 129
40 46 125
36 42 120
34 40 113
34 39 109
36 41 118
33 38 108
36 41 116
35 40 114
52 66 116
85 107 124
99 124 131
92 89 85
86 68 55
89 69 56
89 70 55
93 72 58
87 67 54
88 70 56
80 62 50
76 59 50
80 62 51
73 56 47
94 73 59
86 74 71
144 155 171
195 209 232
208 222 240
211 225 244
217 231 251
219 233 252
191 205 226
151 156 183
109 97 100
126 122 132
167 183 206
218 230 251
219 233 253
218 232 252
216 230 250
216 230 250
218 232 252
214 229 248
211 227 245
219 234 253
216 230 249
216 230 250
218 232 252
216 230 250
214 229 248
213 228 247
216 230 250
216 230 250
217 231 251
215 229 248
211 224 243
163 162 161
185 182 181
184 182 181
184 182 181
183 181 181
183 181 181
182 181 181
182 181 181
181 180 181
181 180 181
180 180 181
180 180 181
180 180 181
179 179 181
179 179 181
179 179 181
178 179 181
178 179 181
178 179 181
177 178 181
177 178 181
177 178 181
177 178 181
176 178 181
176 178 181
176 178 181
176 178 181
176 177 181
175 177 181
175 177 181
175 177 181
175 177 181
175 177 181
175 177 181
174 177 181
174 177 181
174 177 181
174 177 181
174 177 181
174 177 181
174 177 181
174 176 181
174 176 181
173 176 181
173 176 181
173 176 181
173 176 181
173 176 181
173 176 181
173 176 181
173 176 181
173 176 181
173 176 181
173 176 181
173 176 181
173 176 181
173 176 181
173 176 181
173 176 181
173 176 181
174 176 181
174 176 181
174 177 181
174 177 181
174 177 181
174 177 181
174 177 181
174 177 181
174 177 181
175 177 181
175 177 181
175 177 181
175 177 181
175 177 181
175 177 181
176 177 181
176 178 181
176 178 181
176 178 181
176 178 181
177 178 181
177 178 181
177 178 181
177 178 181
178 179 181
178 179 181
178 179 181
179 179 181
179 179 181
179 179 181
180 180 181
180 180 181
181 180 181
181 180 181
181 181 181
182 181 181
183 181 181
183 181 181
184 182 181
185 182 181
186 183 181
122 110 132
86 86 130
70 111 130
58 129 133
39 136 127
43 142 134
40 140 131
40 137 128
48 117 110
56 80 73
58 23 19
55 13 8
53 13 8
54 13 8
62 37 40
76 79 87
88 99 110
101 118 133
100 109 138
96 89 147
80 73 133
65 89 110
52 95 86
48 101 81
46 103 78
49 100 83
62 93 104
84 71 123
92 49 99
98 28 67
93 24 52
102 67 87
172 204 230
173 206 233
172 203 230
153 186 199
114 155 147
55 117 73
67 117 90
95 132 121
121 138 158
115 131 160
90 103 151
56 66 143
46 53 138
63 54 123
92 56 77
117 64 20
114 63 5
112 60 4
118 64 5
111 63 4
117 62 5
118 64 5
120 65 5
111 86 75
105 119 116
97 120 116
78 105 81
77 104 82
84 109 94
100 122 123
122 140 156
128 143 164
123 141 157
136 145 162
152 135 140
171 123 105
171 111 78
165 106 73
166 109 79
144 110 98
108 112 119
80 117 130
62 116 136
62 115 135
55 107 124
57 117 128
49 122 101
46 138 61
42 147 25
39 137 19
39 135 18
39 136 18
39 135 18
43 130 30
65 108 70
78 84 96
72 90 106
37 84 90
22 79 85
22 78 85
22 79 84
22 79 86
21 74 81
29 86 96
49 88 105
88 113 138
93 113 144
74 91 134
41 54 110
37 44 119
34 40 113
34 38 109
33 38 107
33 38 109
33 38 108
32 37 105
55 70 113
88 115 134
101 133 138
100 119 120
86 83 77
85 67 54
86 68 55
89 68 55
84 65 52
78 61 49
82 63 51
86 66 54
89 67 54
82 63 53
73 56 47
83 70 66
129 136 149
195 211 232
208 222 241
200 214 231
213 227 247
219 233 252
213 228 248
169 183 206
121 113 125
117 108 114
156 168 189
214 228 247
219 233 253
218 232 252
214 228 249
215 229 248
217 232 252
209 223 243
216 231 250
212 227 246
218 232 252
217 231 251
217 231 252
217 232 252
215 229 249
212 227 247
216 231 251
217 231 251
210 224 243
215 229 249
199 210 225
158 156 157
186 183 181
185 182 181
184 182 181
184 182 181
183 181 181
183 181 181
182 181 181
182 181 181
181 180 181
181 180 181
181 180 181
180 180 181
180 180 181
180 180 181
179 179 181
179 179 181
179 179 181
179 179 181
178 179 181
178 179 181
178 179 181
178 178 181
177 178 181
177 178 181
177 178 181
177 178 181
177 178 181
176 178 181
176 178 181
176 178 181
176 178 181
176 178 181
176 177 181
176 177 181
175 177 181
175 177 181
175 177 181
175 177 181
175 177 181
175 177 181
175 177 181
175 177 181
175 177 181
175 177 181
175 177 181
174 177 181
175 177 181
174 177 181
174 177 181
174 177 181
174 177 181
174 177 181
174 177 181
174 177 181
174 177 181
174 177 181
175 177 181
175 177 181
175 177 181
175 177 181
175 177 181
175 177 181
175 177 181
175 177 181
175 177 181
175 177 181
175 177 181
175 177 181
176 177 181
176 178 181
176 178 181
176 178 181
176 178 181
176 178 181
177 178 181
177 178 181
177 178 181
177 178 181
177 178 181
178 179 181
178 179 181
178 179 181
178 179 181
179 179 181
179 179 181
179 179 181
180 179 181
180 180 181
180 180 181
181 180 181
181 180 181
181 180 181
182 181 181
182 181 181
183 181 181
183 181 181
184 182 181
184 182 181
185 182 181
186 183 181
105 107 122
70 113 131
41 134 127
36 131 122
37 133 123
37 133 123
38 140 129
37 136 126
38 138 127
43 111 103
53 63 61
54 39 43
63 46 52
72 68 79
86 89 100
88 96 109
101 116 131
112 127 147
108 112 153
82 86 130
59 87 96
41 100 70
42 98 72
49 102 82
49 104 81
43 103 72
41 104 69
51 91 87
74 70 76
92 38 66
92 51 71
101 89 105
174 209 240
170 207 237
153 199 213
139 194 188
84 166 114
53 154 80
39 155 69
56 154 86
87 153 121
101 141 134
103 123 159
77 89 151
45 51 128
48 49 123
88 56 85
109 59 25
104 56 4
113 61 4
110 60 4
108 58 4
104 57 4
108 59 4
110 66 36
111 100 101
115 123 133
110 127 137
108 126 133
97 115 120
110 128 139
120 138 154
127 144 162
128 140 157
128 134 150
141 127 129
161 116 98
174 112 76
169 109 75
163 106 73
141 107 93
113 112 116
67 116 136
61 113 134
60 111 132
58 109 128
58 108 127
58 106 125
57 111 124
51 125 98
44 130 71
44 134 67
42 132 54
40 128 49
37 124 27
37 127 18
48 115 47
91 117 113
93 114 130
75 103 116
32 80 87
20 70 76
18 66 72
23 74 82
32 79 92
50 89 116
61 96 132
72 102 138
73 102 139
64 92 129
53 76 119
44 59 111
38 48 111
31 36 104
33 37 106
33 38 111
33 38 110
31 35 102
46 58 109
77 103 119
93 124 129
99 124 131
98 108 113
90 84 82
76 59 48
88 69 55
83 65 52
84 65 53
77 59 48
83 65 52
71 55 46
77 60 49
74 57 47
65 50 42
126 128 136
186 200 222
197 211 232
205 219 237
212 227 247
216 230 250
217 231 250
202 216 236
132 137 152
101 85 76
148 157 172
207 223 243
219 233 253
218 233 253
215 230 250
217 231 250
216 230 250
220 235 255
216 230 250
217 232 252
216 231 251
212 226 246
216 231 251
216 231 251
218 232 252
215 230 250
213 227 247
215 229 249
217 232 252
215 229 249
197 207 222
130 133 134
186 183 181
185 182 181
185 182 181
184 182 181
184 182 181
183 181 181
183 181 181
183 181 181
182 181 181
182 181 181
181 180 181
181 180 181
181 180 181
181 180 181
180 180 181
180 180 181
180 180 181
180 179 181
179 179 181
179 179 181
179 179 181
179 179 181
178 179 181
178 179 181
178 179 181
178 179 181
178 179 181
177 178 181
177 178 181
177 178 181
177 178 181
177 178 181
177 178 181
177 178 181
176 178 181
176 178 181
176 178 181
176 178 181
176 178 181
176 178 181
176 178 181
176 178 181
176 178 181
176 178 181
176 178 181
176 177 181
176 177 181
176 177 181
176 177 181
176 177 181
175 177 181
176 177 181
176 177 181
176 177 181
176 177 181
176 177 181
176 178 181
176 178 181
176 178 181
176 178 181
176 178 181
176 178 181
176 178 181
176 178 181
176 178 181
176 178 181
176 178 181
176 178 181
177 178 181
177 178 181
177 178 181
177 178 181
177 178 181
177 178 181
178 178 181
178 179 181
178 179 181
178 179 181
178 179 181
178 179 181
179 179 181
179 179 181
179 179 181
179 179 181
180 180 181
180 180 181
180 180 181
181 180 181
181 180 181
181 180 181
182 181 181
182 181 181
182 181 181
183 181 181
183 181 181
184 182 181
184 182 181
185 182 181
185 182 181
184 181 179
101 105 117
50 120 119
35 127 116
36 130 121
35 127 118
36 131 121
35 129 119
38 139 127
36 131 121
37 123 114
66 110 110
73 74 82
82 85 97
92 100 116
98 108 123
110 123 142
117 133 152
109 122 143
95 113 130
61 87 94
50 96 83
65 99 107
88 102 141
87 100 142
88 103 145
83 103 133
76 103 125
51 101 83
60 90 80
83 75 84
112 107 126
111 121 138
176 210 238
148 198 206
102 177 147
59 167 94
21 156 57
20 154 56
21 156 56
21 157 57
22 150 54
64 148 95
88 112 120
75 77 123
60 48 106
53 37 105
64 41 90
88 48 54
92 50 18
101 54 4
107 58 4
101 54 4
99 54 4
99 56 25
107 86 84
113 118 130
124 142 161
119 136 154
118 135 152
113 130 147
119 137 155
118 136 154
117 135 153
141 152 170
154 159 174
155 131 126
165 110 80
162 104 71
161 104 71
146 99 73
128 104 97
66 111 128
60 112 131
58 107 125
60 110 129
58 106 126
56 103 121
53 102 111
53 120 111
52 130 107
49 133 97
48 133 95
48 133 92
45 128 82
42 124 71
36 115 38
41 123 32
88 124 111
112 128 145
100 120 139
84 108 123
65 92 104
51 81 90
48 83 99
54 91 120
63 97 134
67 101 140
67 99 138
63 94 131
61 89 124
57 83 114
52 74 106
43 59 100
35 42 101
30 35 100
29 34 97
29 32 94
35 41 97
70 88 115
88 113 123
97 122 130
107 132 142
111 127 141
103 107 114
86 76 73
78 60 48
78 62 51
84 65 52
84 66 53
65 50 43
64 50 53
59 44 59
50 37 65
59 44 60
84 82 99
174 187 206
200 214 234
209 224 243
217 231 251
215 230 250
218 233 252
216 230 250
168 180 200
105 97 97
107 103 106
197 211 231
210 225 244
219 234 254
220 234 254
218 233 253
215 230 250
216 230 250
213 227 247
216 230 250
216 231 251
216 230 251
215 230 250
215 230 250
218 233 254
214 229 249
214 229 250
217 231 252
218 233 254
215 229 249
184 194 207
98 104 104
182 179 177
186 183 181
185 182 181
185 182 181
184 182 181
184 182 181
183 182 181
183 181 181
183 181 181
182 181 181
182 181 181
182 181 181
182 181 181
181 180 181
181 180 181
181 180 181
181 180 181
180 180 181
180 180 181
180 180 181
180 180 181
180 180 181
179 179 181
179 179 181
179 179 181
179 179 181
179 179 181
178 179 181
178 179 181
178 179 181
178 179 181
178 179 181
178 179 181
178 179 181
178 178 181
178 178 181
177 178 181
177 178 181
177 178 181
177 178 181
177 178 181
177 178 181
177 178 181
177 178 181
177 178 181
177 178 181
177 178 181
177 178 181
177 178 181
177 178 181
177 178 181
177 178 181
177 178 181
177 178 181
177 178 181
177 178 181
177 178 181
177 178 181
177 178 181
177 178 181
177 178 181
177 178 181
177 178 181
177 178 181
177 178 181
177 178 181
178 178 181
178 179 181
178 179 181
178 179 181
178 179 181
178 179 181
178 179 181
178 179 181
179 179 181
179 179 181
179 179 181
179 179 181
179 179 181
179 179 181
180 180 181
180 180 181
180 180 181
180 180 181
181 180 181
181 180 181
181 180 181
181 180 181
182 181 181
182 181 181
182 181 181
183 181 181
183 181 181
183 181 181
184 182 181
184 182 181
185 182 181
185 182 181
186 183 181
168 167 166
90 94 108
55 125 120
40 124 116
34 121 112
34 125 116
35 129 119
36 130 120
36 129 119
34 126 116
34 124 113
58 118 115
102 124 140
104 115 133
112 126 145
112 125 145
119 133 153
117 131 151
119 135 157
87 108 117
63 97 98
76 97 122
98 101 158
106 102 172
112 105 182
110 105 178
109 103 180
108 104 175
91 101 145
71 95 103
96 111 123
119 129 150
124 140 161
170 206 222
115 181 158
27 154 60
21 156 56
21 157 57
20 152 55
20 150 54
20 151 54
27 135 58
47 109 74
66 79 94
62 35 92
62 24 92
61 22 87
63 24 85
69 31 74
77 39 61
85 49 36
91 53 34
101 63 43
96 61 47
105 88 90
118 120 135
122 136 158
121 137 159
131 149 173
126 143 165
130 149 172
132 150 174
131 150 173
133 151 173
139 155 177
161 171 190
161 136 134
152 101 73
156 100 68
150 97 67
130 94 75
113 100 99
89 98 106
95 98 105
80 98 110
71 100 114
56 100 116
54 107 116
53 119 111
50 128 99
49 132 99
49 134 99
48 129 96
49 130 96
46 122 90
44 119 86
41 117 75
38 114 46
87 123 114
114 133 152
113 129 149
112 129 149
86 108 122
73 94 108
67 92 116
62 95 129
66 98 136
64 97 135
64 96 133
62 93 129
59 87 121
56 81 111
54 79 108
47 67 98
37 51 92
28 34 85
27 31 92
28 33 86
64 75 116
91 108 128
100 118 131
109 128 143
113 132 148
125 144 163
114 129 148
91 88 92
81 72 68
80 62 49
74 58 46
80 63 53
61 46 59
54 40 80
40 27 85
31 16 94
30 16 84
50 47 87
141 149 174
201 214 235
212 226 247
211 225 245
216 230 250
215 230 250
218 233 252
205 219 239
133 134 142
110 103 102
166 178 195
219 233 253
218 232 253
220 235 255
219 234 254
217 231 252
216 230 251
213 227 247
214 229 249
215 230 250
218 232 253
214 229 249
213 228 248
215 230 251
215 230 250
215 230 250
214 228 249
212 227 247
216 231 252
167 176 187
94 95 95
134 130 133
184 181 179
186 183 181
185 182 181
185 182 181
184 182 181
184 182 181
184 182 181
184 182 181
183 181 181
183 181 181
183 181 181
182 181 181
182 181 181
182 181 181
182 181 181
182 181 181
181 180 181
181 180 181
181 180 181
181 180 181
181 180 181
180 180 181
180 180 181
180 180 181
180 180 181
180 180 181
180 179 181
179 179 181
179 179 181
179 179 181
179 179 181
179 179 181
179 179 181
179 179 181
179 179 181
178 179 181
178 179 181
178 179 181
178 179 181
178 179 181
178 179 181
178 179 181
178 179 181
178 179 181
178 179 181
178 179 181
178 179 181
178 179 181
178 179 181
178 179 181
178 179 181
178 179 181
178 179 181
178 179 181
178 179 181
178 179 181
178 179 181
178 179 181
178 179 181
178 179 181
178 179 181
178 179 181
178 179 181
178 179 181
179 179 181
179 179 181
179 179 181
179 179 181
179 179 181
179 179 181
179 179 181
179 179 181
179 179 181
180 180 181
180 180 181
180 180 181
180 180 181
180 180 181
180 180 181
181 180 181
181 180 181
181 180 181
181 180 181
181 180 181
182 181 181
182 181 181
182 181 181
182 181 181
183 181 181
183 181 181
183 181 181
184 182 181
184 182 181
184 182 181
185 182 181
185 182 181
185 183 181
186 183 181
141 145 144
88 92 104
111 147 160
102 145 151
58 126 121
33 119 110
32 115 108
33 120 110
32 118 109
33 121 112
31 116 106
69 117 118
112 134 153
124 141 164
119 133 154
131 148 171
121 136 158
128 145 168
125 141 163
103 124 138
77 90 122
106 101 168
109 100 173
109 101 177
109 101 175
109 101 175
107 100 174
110 103 179
109 105 177
92 101 147
98 114 136
119 133 154
116 127 148
136 182 176
70 164 98
20 151 55
20 147 53
20 148 53
19 140 50
19 142 51
30 142 60
46 102 72
57 57 83
60 21 85
62 22 88
60 21 84
61 21 86
59 20 84
59 21 81
61 24 77
73 53 75
86 73 78
97 76 75
92 88 100
105 105 119
111 117 135
121 135 156
124 139 162
126 142 165
128 145 168
124 140 161
132 150 173
133 151 175
133 152 177
135 151 174
138 154 176
152 142 150
142 99 76
152 97 66
134 83 53
140 81 49
126 75 52
131 70 35
128 71 41
120 71 50
114 78 67
82 90 96
58 109 96
46 117 91
48 126 93
49 129 94
48 129 96
46 123 90
48 130 96
46 124 92
46 123 91
43 116 83
51 120 77
92 123 121
114 133 152
118 136 156
120 138 159
113 131 151
106 125 146
74 101 131
60 92 127
61 93 128
63 94 130
63 94 130
61 90 124
62 92 128
54 79 109
55 81 112
47 69 97
43 58 88
39 47 83
41 47 87
63 73 108
99 114 139
108 124 146
106 122 140
116 133 154
115 130 150
122 141 163
125 143 165
114 129 148
106 112 125
82 70 73
79 61 67
81 64 88
72 54 97
60 45 102
61 45 101
37 23 95
29 14 94
26 11 89
111 115 147
178 186 209
206 221 241
211 226 246
209 224 245
214 229 249
218 233 253
217 231 251
182 193 211
107 100 101
130 132 140
208 221 239
218 233 252
221 235 255
220 235 255
216 231 251
216 231 251
216 231 251
218 232 253
213 228 249
215 230 250
214 228 248
213 228 248
216 231 252
214 229 249
215 230 251
213 228 248
217 232 253
215 230 251
174 183 194
87 90 79
99 98 94
137 130 135
181 178 175
186 183 181
185 183 181
185 182 181
185 182 181
185 182 181
184 182 181
184 182 181
184 182 181
184 182 181
183 181 181
183 181 181
183 181 181
183 181 181
182 181 181
182 181 181
182 181 181
182 181 181
182 181 181
182 181 181
181 180 181
181 180 181
181 180 181
181 180 181
181 180 181
181 180 181
180 180 181
180 180 181
180 180 181
180 180 181
180 180 181
180 180 181
180 180 181
180 180 181
180 180 181
180 180 181
180 180 181
179 179 181
179 179 181
179 179 181
179 179 181
179 179 181
179 179 181
179 179 181
179 179 181
179 179 181
179 179 181
179 179 181
179 179 181
179 179 181
179 179 181
179 179 181
179 179 181
179 179 181
179 179 181
179 179 181
179 179 181
179 179 181
179 179 181
179 179 181
179 179 181
180 180 181
180 180 181
180 180 181
180 180 181
180 180 181
180 180 181
180 180 181
180 180 181
180 180 181
180 180 181
180 180 181
181 180 181
181 180 181
181 180 181
181 180 181
181 180 181
181 180 181
181 180 181
182 181 181
182 181 181
182 181 181
182 181 181
183 181 181
183 181 181
183 181 181
183 181 181
183 182 181
184 182 181
184 182 181
184 182 181
185 182 181
185 182 181
185 182 181
186 183 181
186 183 181
163 163 163
110 104 115
94 99 110
133 153 177
129 152 171
87 134 139
38 115 109
32 117 109
32 118 109
31 112 103
28 105 99
33 112 104
79 124 127
125 147 169
134 152 175
130 146 170
133 151 175
131 149 173
129 147 170
126 143 166
109 124 156
96 96 153
103 95 164
105 105 168
99 104 160
94 101 152
99 104 158
106 103 172
109 101 176
106 99 173
105 100 164
115 123 164
124 141 164
122 137 159
100 154 134
32 144 59
20 146 53
19 143 51
19 142 51
18 136 49
18 127 47
39 97 63
57 46 82
60 21 85
60 21 85
58 20 83
60 21 84
57 20 79
58 20 80
58 20 82
57 20 79
68 53 93
93 93 113
107 117 134
110 118 135
116 127 147
119 132 151
118 128 147
120 137 158
126 140 161
127 144 167
130 147 169
130 147 170
130 149 172
131 147 170
131 148 170
137 151 173
137 130 139
145 99 75
141 85 53
136 74 34
131 65 13
135 66 13
135 66 13
130 64 12
130 64 12
127 62 16
121 67 30
94 95 68
50 122 90
47 125 92
47 127 94
46 123 91
46 124 91
47 124 92
44 115 87
43 113 88
39 101 79
55 110 100
90 124 125
124 143 166
129 148 171
128 146 169
119 137 159
114 135 158
75 101 130
60 90 124
59 90 123
62 93 129
59 88 122
55 83 116
54 80 110
55 80 111
52 76 105
44 63 87
45 59 81
66 74 94
78 89 114
98 112 136
113 129 152
115 131 154
119 135 159
118 135 158
122 139 162
124 141 165
125 143 167
124 140 162
115 126 149
99 91 119
93 72 109
96 75 117
96 75 120
95 74 118
89 69 114
73 56 107
51 37 97
28 13 89
59 58 103
157 163 186
196 208 229
205 219 240
214 229 250
214 229 249
214 229 249
215 229 249
206 219 239
137 138 146
103 91 87
170 177 189
217 231 251
219 233 254
219 234 254
218 233 254
219 233 254
217 232 252
219 234 255
212 227 248
210 224 244
215 230 250
214 229 249
214 229 250
215 230 250
214 230 250
215 230 251
219 234 255
217 233 254
166 176 187
73 89 72
77 88 78
122 105 121
100 100 104
157 155 159
184 181 179
186 183 181
186 183 181
185 182 181
185 182 181
185 182 181
185 182 181
184 182 181
184 182 181
184 182 181
184 182 181
184 182 181
183 181 181
183 181 181
183 181 181
183 181 181
183 181 181
182 181 181
182 181 181
182 181 181
182 181 181
182 181 181
182 181 181
182 181 181
182 181 181
182 181 181
181 180 181
181 180 181
181 180 181
181 180 181
181 180 181
181 180 181
181 180 181
181 180 181
181 180 181
181 180 181
181 180 181
180 180 181
180 180 181
180 180 181
180 180 181
180 180 181
180 180 181
180 180 181
180 180 181
180 180 181
180 180 181
180 180 181
180 180 181
180 180 181
180 180 181
180 180 181
180 180 181
180 180 181
180 180 181
180 180 181
180 180 181
181 180 181
181 180 181
181 180 181
181 180 181
181 180 181
181 180 181
181 180 181
181 180 181
181 180 181
181 180 181
181 180 181
181 180 181
182 181 181
182 181 181
182 181 181
182 181 181
182 181 181
182 181 181
182 181 181
182 181 181
183 181 181
183 181 181
183 181 181
183 181 181
183 181 181
184 182 181
184 182 181
184 182 181
184 182 181
184 182 181
185 182 181
185 182 181
185 182 181
185 183 181
186 183 181
186 182 180
159 159 159
116 121 131
98 84 104
89 93 101
129 146 169
139 157 181
122 146 162
64 116 115
31 108 101
31 113 104
29 107 99
28 104 95
47 108 103
93 131 141
127 145 169
127 143 167
131 147 172
129 148 174
129 146 170
127 144 170
124 140 165
116 125 165
91 103 145
88 106 142
78 110 129
77 111 125
69 112 114
73 111 119
83 109 135
93 99 148
104 99 167
103 95 166
113 112 168
129 144 172
131 149 174
75 142 106
19 138 50
18 132 48
18 135 48
17 130 47
17 129 46
27 124 53
43 93 68
57 21 81
58 20 80
56 19 78
58 20 82
58 20 80
57 20 80
57 20 81
55 19 77
55 19 76
57 25 78
94 95 122
122 136 157
127 143 165
124 141 163
129 146 167
128 144 165
131 148 172
132 150 172
131 149 172
130 147 170
134 152 175
134 152 176
136 153 177
132 151 174
132 151 176
132 133 146
135 105 102
135 76 40
129 64 13
129 63 12
130 64 12
127 62 12
127 63 12
122 61 12
129 71 42
129 94 87
118 93 80
86 109 85
63 120 97
49 119 91
43 114 84
46 120 96
46 110 124
45 102 137
46 102 149
45 96 143
53 100 141
88 114 155
113 133 166
128 147 169
127 146 169
127 145 169
120 139 162
63 87 114
57 86 119
54 81 110
54 82 113
55 82 114
53 79 110
54 79 110
54 78 107
53 76 105
43 63 87
58 73 93
92 105 125
100 113 133
114 128 150
114 129 151
120 136 158
122 138 162
121 138 163
123 140 165
125 141 164
126 144 168
120 131 157
103 96 132
93 74 117
96 76 120
97 76 120
94 74 116
95 74 117
90 71 111
94 74 119
81 62 106
46 33 93
27 13 85
133 138 163
187 196 218
208 222 244
210 225 246
214 229 250
216 231 252
220 235 255
219 233 254
195 208 225
122 115 116
124 121 125
197 207 224
216 230 250
217 232 252
217 232 252
216 231 252
213 228 249
216 231 252
217 232 253
213 228 249
214 230 250
214 229 249
213 228 248
216 231 252
216 232 253
217 233 254
217 232 254
216 232 254
146 156 166
75 66 72
93 108 106
114 114 134
81 71 87
106 93 108
104 105 114
139 140 143
166 165 165
185 182 180
186 183 181
186 183 181
185 183 181
185 182 181
185 182 181
185 182 181
185 182 181
184 182 181
184 182 181
184 182 181
184 182 181
184 182 181
184 182 181
184 182 181
183 181 181
183 181 181
183 181 181
183 181 181
183 181 181
183 181 181
183 181 181
183 181 181
182 181 181
182 181 181
182 181 181
182 181 181
182 181 181
182 181 181
182 181 181
182 181 181
182 181 181
182 181 181
182 181 181
182 181 181
182 181 181
182 181 181
182 181 181
182 181 181
182 181 181
181 180 181
181 180 181
181 181 181
182 181 181
181 180 181
181 180 181
181 181 181
181 180 181
181 181 181
181 180 181
181 180 181
182 181 181
182 181 181
182 181 181
182 181 181
182 181 181
182 181 181
182 181 181
182 181 181
182 181 181
182 181 181
182 181 181
182 181 181
182 181 181
182 181 181
182 181 181
183 181 181
183 181 181
183 181 181
183 181 181
183 181 181
183 181 181
183 181 181
184 182 181
184 182 181
184 182 181
184 182 181
184 182 181
184 182 181
184 182 181
185 182 181
185 182 181
185 182 181
185 182 181
185 183 181
186 183 181
186 183 181
184 181 179
169 168 167
132 135 140
115 120 122
102 95 110
105 93 109
84 88 107
123 137 159
129 144 167
133 148 170
90 121 132
43 101 97
28 105 96
26 99 91
30 98 91
78 113 121
115 137 157
126 144 168
127 146 169
126 143 167
127 144 168
126 144 169
122 140 165
118 134 160
90 112 134
73 103 117
62 109 103
60 109 99
62 112 102
61 112 102
61 112 101
62 112 103
68 111 111
85 100 138
97 92 154
111 112 160
120 134 162
126 143 167
86 133 115
22 137 52
17 132 48
17 129 46
17 126 45
17 128 46
29 109 52
49 61 71
55 19 77
57 19 79
57 20 80
54 19 76
54 19 76
56 19 77
53 18 75
52 18 73
53 18 73
52 18 74
84 78 110
122 138 161
134 153 177
133 151 173
134 153 176
133 152 175
134 153 176
134 152 176
133 151 174
135 151 174
133 151 174
133 152 176
131 150 173
133 152 175
131 149 173
133 145 165
134 109 111
133 72 39
127 62 12
125 62 12
125 61 12
122 60 12
123 60 12
130 80 63
131 107 109
137 136 152
137 145 165
131 149 167
129 154 169
117 143 154
79 123 120
45 101 129
47 95 158
45 89 162
46 87 167
45 85 163
45 86 166
49 88 166
75 104 163
105 127 167
124 142 165
128 145 167
118 135 158
78 98 123
53 81 111
45 69 95
55 82 114
57 86 119
50 75 105
53 79 110
51 74 102
44 65 90
45 65 90
74 88 106
115 130 152
127 144 168
126 143 165
121 138 159
124 140 161
122 138 160
120 135 156
124 139 161
121 137 159
121 134 157
100 96 128
91 73 113
92 72 115
91 72 113
93 73 115
95 74 117
93 73 115
94 73 115
91 71 112
92 72 114
69 53 100
37 24 89
87 88 123
176 184 208
206 218 245
210 224 248
214 229 250
215 230 250
212 227 248
217 231 252
212 226 246
174 181 195
99 85 81
161 164 175
212 225 244
218 233 254
218 233 254
217 232 253
218 233 254
216 231 252
214 229 250
216 232 253
215 230 251
213 228 248
216 232 253
215 231 252
211 226 247
216 232 254
215 231 252
214 230 252
165 176 190
75 79 91
82 97 93
65 100 91
90 96 112
111 98 120
79 71 86
77 93 66
104 108 115
104 106 123
138 140 143
158 158 159
175 173 172
183 180 178
186 183 181
186 183 181
186 183 181
185 182 181
185 182 181
185 182 181
185 182 181
185 182 181
185 182 181
185 182 181
184 182 181
184 182 181
184 182 181
184 182 181
184 182 181
184 182 181
184 182 181
184 182 181
184 182 181
183 182 181
183 182 181
183 181 181
183 181 181
183 181 181
183 181 181
183 181 181
183 181 181
183 181 181
183 181 181
183 181 181
183 181 181
183 181 181
183 181 181
183 181 181
183 181 181
183 181 181
183 181 181
183 181 181
183 181 181
183 181 181
183 181 181
183 181 181
183 181 181
183 181 181
183 181 181
183 181 181
183 181 181
183 181 181
183 181 181
183 181 181
183 181 181
183 181 181
183 181 181
183 181 181
183 181 181
183 181 181
183 181 181
183 181 181
183 181 181
183 182 181
184 182 181
184 182 181
184 182 181
184 182 181
184 182 181
184 182 181
184 182 181
184 182 181
184 182 181
185 182 181
185 182 181
185 182 181
185 182 181
185 182 181
185 182 181
185 183 181
186 183 181
186 183 181
186 183 181
183 180 178
171 169 168
149 150 152
123 128 133
114 119 124
117 111 112
104 105 91
86 85 97
104 92 110
85 79 108
122 138 160
125 141 164
130 146 168
93 120 129
39 90 88
24 89 82
42 97 93
76 113 119
102 127 144
122 140 163
125 144 168
124 143 166
127 147 172
129 147 172
122 139 163
123 141 165
107 128 145
74 111 112
61 109 100
60 108 98
60 110 99
60 109 97
61 110 100
63 113 102
61 110 99
60 108 99
64 108 104
85 99 138
108 107 160
117 129 160
131 150 173
91 130 121
39 129 64
16 121 44
16 120 43
16 122 44
15 116 41
23 109 47
50 47 72
51 18 72
55 19 77
53 19 75
55 19 77
52 18 73
53 18 73
50 17 71
55 19 76
50 17 67
47 16 66
81 79 108
120 133 155
133 150 171
136 155 179
131 150 173
131 149 171
134 152 176
135 153 177
134 153 176
132 149 171
136 154 177
134 148 169
134 150 173
128 145 168
133 151 175
132 143 163
126 94 93
127 62 12
123 60 12
122 59 11
122 60 11
121 65 37
132 103 103
135 138 156
134 147 169
127 142 164
124 135 155
127 140 162
130 144 167
130 147 169
127 147 172
91 116 165
45 84 162
45 84 162
44 84 162
45 86 167
45 85 164
46 87 167
47 86 162
67 96 160
105 127 164
122 141 164
117 136 156
95 115 139
57 81 109
46 71 95
52 80 111
49 72 101
47 71 99
50 74 103
46 67 93
44 65 90
46 64 85
77 90 108
122 137 159
127 143 166
125 141 163
122 133 155
112 123 144
124 136 159
123 139 160
123 140 161
127 142 163
111 120 141
90 75 112
90 70 111
94 74 116
88 69 108
92 72 114
91 71 113
92 72 113
90 71 111
89 70 110
92 72 112
84 66 107
46 34 89
50 52 96
138 147 170
194 206 234
209 224 252
215 230 252
211 226 247
214 228 250
220 234 255
216 231 253
208 221 239
140 138 142
109 98 95
169 172 183
214 228 248
219 234 255
216 231 252
214 229 250
215 230 252
216 231 252
217 232 254
210 225 246
213 229 250
213 229 250
211 227 247
215 231 252
216 232 254
210 226 248
215 231 252
149 155 169
61 70 77
111 100 112
97 132 129
88 94 93
91 83 86
87 92 101
71 73 81
72 67 55
65 71 84
81 92 83
107 115 120
115 122 126
118 123 129
126 128 133
141 143 146
151 152 154
162 161 161
175 173 172
184 181 179
185 182 180
186 183 181
186 183 181
186 183 181
185 183 181
185 182 181
185 182 181
185 182 181
185 182 181
185 182 181
185 182 181
185 182 181
185 182 181
185 182 181
185 182 181
184 182 181
184 182 181
184 182 181
184 182 181
184 182 181
184 182 181
184 182 181
184 182 181
184 182 181
184 182 181
184 182 181
184 182 181
184 182 181
184 182 181
184 182 181
184 182 181
184 182 181
184 182 181
184 182 181
184 182 181
184 182 181
184 182 181
184 182 181
184 182 181
184 182 181
184 182 181
184 182 181
184 182 181
184 182 181
184 182 181
184 182 181
184 182 181
184 182 181
184 182 181
184 182 181
184 182 181
184 182 181
184 182 181
184 182 181
185 182 181
185 182 181
185 182 181
185 182 181
185 182 181
185 182 181
185 182 181
185 182 181
185 182 181
185 183 181
186 183 181
186 183 181
186 183 181
185 182 180
185 182 180
176 174 173
164 163 163
153 153 155
138 140 143
110 124 120
110 116 115
104 111 124
80 105 112
93 89 80
101 95 86
85 84 80
53 98 61
82 100 91
84 76 104
101 121 135
108 127 145
117 132 153
104 110 126
59 79 82
61 92 97
79 108 115
103 126 142
118 138 159
121 140 162
124 142 165
127 146 168
124 143 165
124 142 166
124 143 167
120 141 162
96 125 134
61 108 99
58 105 94
58 106 96
58 106 95
59 108 97
58 105 95
58 106 95
59 105 95
59 107 97
61 109 100
69 101 112
102 111 149
124 140 165
125 144 166
92 114 119
65 109 87
26 110 47
15 116 42
14 111 40
16 118 42
23 103 45
41 53 61
50 17 70
52 18 73
53 18 74
52 18 73
52 18 72
51 17 71
50 17 70
49 17 69
50 17 70
49 16 67
86 88 115
124 140 163
134 154 178
132 151 175
131 148 169
135 151 174
135 152 175
134 151 175
131 150 174
131 150 173
133 148 169
132 148 170
132 148 170
127 141 161
129 142 162
124 129 146
119 81 73
123 60 11
124 60 11
119 58 11
116 57 12
112 80 70
118 123 132
106 123 133
99 116 125
100 116 128
112 126 141
126 144 168
119 133 154
119 129 148
113 124 142
106 120 148
70 95 152
44 81 155
43 81 155
43 81 156
43 81 155
44 83 159
44 83 160
44 84 160
68 95 150
113 131 158
125 143 163
108 124 145
76 94 114
50 75 102
45 68 93
50 74 103
45 67 94
47 70 97
44 65 90
41 60 83
81 96 117
110 125 146
121 135 157
113 113 138
100 76 117
103 80 119
97 65 111
102 82 118
108 102 132
114 121 143
112 124 144
106 108 134
86 69 106
86 67 105
85 66 105
84 65 103
92 72 113
84 66 104
90 70 110
83 65 103
87 68 107
88 69 108
80 69 101
61 66 92
54 81 92
89 114 121
171 185 206
203 216 246
208 222 247
213 227 249
211 223 250
213 226 253
214 225 252
214 227 251
200 210 228
118 109 109
110 98 93
168 173 185
215 230 249
217 232 253
217 232 253
217 232 253
217 233 254
215 230 251
215 230 252
214 229 251
212 228 249
214 230 252
215 230 252
216 232 254
214 230 252
216 232 254
154 156 173
66 69 74
114 104 120
89 100 106
100 103 101
94 91 90
84 102 105
89 83 92
77 65 49
75 79 87
78 91 90
104 111 113
91 115 107
106 112 122
88 84 109
84 105 114
105 108 111
113 119 124
114 118 125
114 119 127
111 113 117
129 131 140
129 132 139
156 156 158
154 155 156
161 161 161
167 166 165
175 173 172
183 180 178
182 179 177
184 181 179
186 183 181
185 182 180
186 183 181
186 183 181
185 183 181
185 183 181
185 183 181
185 183 181
185 183 181
185 182 181
185 182 181
185 182 181
185 182 181
185 182 181
185 182 181
185 182 181
185 182 181
185 182 181
185 182 181
185 182 181
185 182 181
185 182 181
185 182 181
185 182 181
185 182 181
185 182 181
185 182 181
185 182 181
185 182 181
185 182 181
185 182 181
185 182 181
185 182 181
185 182 181
185 182 181
185 182 181
185 182 181
185 182 181
185 182 181
185 183 181
185 183 181
185 183 181
186 183 181
186 183 181
186 183 181
186 183 181
186 183 181
186 183 181
184 181 179
177 175 173
176 173 172
173 171 170
166 165 165
156 158 157
140 140 152
132 133 136
123 120 127
123 138 147
106 97 99
97 103 110
106 97 106
101 120 91
113 139 125
84 101 93
77 88 108
44 99 93
85 63 84
77 62 79
94 108 114
90 125 97
92 92 98
80 79 107
71 102 95
74 104 104
97 108 117
107 111 125
101 115 132
99 118 134
100 118 134
102 122 136
108 126 145
116 130 148
121 133 151
126 133 149
124 134 152
117 130 147
118 134 154
113 134 152
71 107 105
55 100 89
55 99 90
57 103 93
58 104 94
57 103 94
58 105 95
60 107 96
56 100 91
58 104 94
55 99 90
66 105 104
92 113 130
126 144 167
126 144 166
101 117 130
89 113 113
69 113 92
28 106 49
13 105 37
12 98 34
46 102 58
71 73 83
97 63 109
98 61 110
95 58 107
88 53 99
63 33 79
48 16 67
47 16 66
47 16 66
45 16 63
54 38 72
96 102 126
130 146 169
131 150 173
129 148 171
133 150 173
132 150 173
135 152 175
129 148 169
129 144 166
128 144 166
132 149 170
128 143 164
127 143 166
127 143 164
124 140 160
122 132 150
117 101 107
117 57 11
121 59 11
106 55 13
93 61 20
68 66 31
55 78 58
37 65 28
39 68 34
45 72 45
56 79 66
81 101 104
115 134 152
122 135 155
104 109 122
98 102 117
79 95 139
46 77 142
42 80 152
44 82 156
44 82 155
44 82 157
42 79 151
43 80 154
43 77 146
87 108 142
119 135 155
119 137 159
108 126 148
81 97 118
52 70 92
38 57 80
43 64 88
39 57 79
48 63 82
63 77 96
95 107 125
108 112 136
97 72 110
93 42 99
90 17 92
89 16 91
91 17 93
91 17 93
88 22 91
95 60 105
102 96 122
96 96 121
85 66 105
87 67 106
87 67 106
81 64 102
86 67 105
83 65 102
87 68 106
79 62 97
84 66 103
82 67 101
70 86 98
66 95 99
62 96 96
66 99 100
115 137 149
196 210 237
210 224 250
201 214 240
206 217 247
215 229 254
213 225 253
216 229 253
217 230 253
176 184 199
110 102 102
112 105 105
179 186 201
215 229 250
218 233 254
219 234 255
214 229 250
216 232 253
217 232 254
215 231 253
215 231 252
214 229 251
215 230 252
213 229 251
214 230 252
217 233 255
178 186 204
71 68 76
114 107 123
97 90 110
107 80 107
81 78 74
89 97 105
95 75 84
89 79 85
87 90 60
97 101 98
112 96 122
111 88 142
100 95 98
98 62 68
96 112 125
113 130 118
108 131 104
95 97 108
72 89 67
68 81 65
110 93 123
83 97 117
110 111 141
105 105 121
120 119 125
140 125 127
102 112 116
92 100 88
108 104 109
123 131 131
112 129 106
133 145 147
136 139 141
127 126 133
150 150 153
147 147 149
150 151 153
159 159 160
159 159 160
153 153 155
163 162 162
169 167 167
172 170 169
171 170 169
171 169 169
172 170 169
170 169 168
174 172 171
175 173 172
178 176 175
181 178 176
181 178 176
176 174 173
180 177 175
180 177 175
183 180 178
178 176 175
175 173 172
177 175 174
175 173 172
177 174 173
175 173 172
176 174 173
173 171 170
170 168 168
166 165 165
168 166 166
168 166 166
159 159 159
159 159 160
158 158 159
151 152 153
156 156 157
145 146 149
136 138 142
138 141 144
128 132 137
125 129 134
119 124 130
117 122 129
109 115 123
98 115 114
96 104 107
106 115 107
86 83 110
93 110 101
104 131 113
86 64 79
85 64 79
61 102 96
86 81 106
97 98 105
99 110 114
46 74 78
86 91 111
87 82 85
79 46 53
74 63 76
110 128 133
105 123 110
89 92 93
85 79 89
63 102 87
75 108 101
99 111 115
118 119 137
125 141 163
124 141 163
124 142 164
125 140 160
125 127 144
132 122 135
133 119 131
136 119 131
134 122 134
132 120 133
132 127 142
113 120 132
71 100 97
55 99 89
53 96 85
54 99 89
51 92 83
56 101 91
58 104 94
56 100 91
54 97 87
56 101 91
56 102 92
57 100 92
107 128 141
121 137 156
123 139 162
104 123 136
104 122 134
91 116 120
76 108 99
67 103 88
92 101 102
130 98 135
143 102 148
149 98 154
149 99 157
151 99 156
142 93 149
124 81 131
77 47 89
47 20 63
43 15 60
45 21 62
77 77 103
112 127 148
126 146 168
128 147 169
129 148 170
126 144 164
126 143 164
129 146 169
125 143 165
128 147 169
129 147 169
122 139 160
129 147 169
127 144 167
127 145 167
126 143 166
123 137 157
116 102 108
112 59 28
106 55 13
74 59 22
43 64 27
36 66 28
36 65 28
35 63 28
36 65 28
36 65 28
36 64 28
37 64 33
69 84 81
106 116 129
82 78 88
86 71 74
88 86 104
73 93 145
40 76 145
41 77 148
40 75 142
40 76 146
40 74 143
40 76 146
42 73 134
78 101 144
117 135 158
108 123 143
103 120 140
87 102 120
69 84 103
56 71 88
53 68 86
50 64 83
69 82 98
74 84 99
98 101 122
96 63 105
86 16 88
88 16 89
90 16 91
89 16 90
89 16 90
88 16 90
89 16 91
85 16 88
84 40 89
83 53 95
82 66 100
81 63 99
81 63 99
79 62 99
87 67 105
80 63 99
77 59 94
79 61 97
83 67 101
69 79 94
62 93 95
63 98 97
61 95 95
61 95 95
85 112 117
152 163 199
194 206 239
200 213 241
202 214 242
214 227 252
212 223 252
215 229 253
214 227 251
215 227 251
173 180 193
104 92 89
112 102 100
175 181 194
214 228 248
214 230 250
215 230 251
214 230 251
212 228 250
214 229 251
215 231 253
213 229 250
214 230 252
215 231 253
215 231 253
213 229 252
189 199 221
79 86 99
94 98 110
114 97 123
110 76 113
96 101 107
79 101 98
79 116 93
68 107 107
81 103 92
108 71 77
109 48 102
106 66 122
103 81 79
100 79 77
111 117 124
94 104 104
92 107 76
120 121 144
76 87 76
18 51 29
85 72 90
50 82 43
76 95 85
95 97 97
106 115 117
129 129 130
82 93 88
102 107 112
73 92 93
106 130 114
98 131 103
81 118 92
96 102 97
79 77 82
111 115 124
84 80 72
105 116 106
111 119 119
113 121 128
116 122 128
116 122 128
115 120 127
105 110 126
115 121 127
115 121 128
115 121 128
115 121 128
115 121 128
118 123 129
115 121 128
116 122 128
118 123 129
115 121 128
116 121 128
115 121 128
117 122 128
116 122 129
118 123 129
115 121 128
115 121 128
117 123 129
117 122 128
115 121 128
117 122 128
116 121 128
115 121 128
115 121 128
114 121 128
115 121 128
115 121 128
115 121 128
115 121 128
97 110 127
116 131 136
118 132 136
116 121 128
104 107 113
76 75 83
110 118 132
95 101 114
90 84 129
91 76 97
91 77 94
85 84 70
73 104 75
100 110 111
85 118 41
81 68 67
105 109 116
107 136 105
95 111 107
89 101 120
99 105 113
36 47 83
84 73 100
114 34 14
73 51 41
77 78 86
80 97 99
97 103 106
75 85 86
97 108 98
74 113 104
109 138 140
114 129 141
133 149 172
131 147 172
132 149 173
132 146 168
134 131 146
132 117 128
135 119 130
132 115 126
131 115 126
134 118 129
135 118 130
133 117 127
130 116 126
96 100 103
64 95 89
52 94 85
53 96 87
53 95 86
54 99 90
54 99 89
54 97 87
52 95 86
55 99 89
53 97 87
58 94 91
97 119 130
122 137 159
128 145 169
112 134 149
113 133 148
102 122 135
103 122 132
116 104 130
143 100 150
150 98 154
152 101 157
148 98 154
149 99 155
149 98 154
151 99 155
148 97 152
132 86 137
94 57 101
53 38 68
73 76 99
106 120 141
120 138 160
129 147 169
127 146 169
128 147 170
126 144 166
126 144 165
127 146 168
129 148 171
126 144 164
135 154 176
127 144 166
134 151 173
134 152 176
127 144 166
130 147 170
129 146 168
123 131 149
109 84 82
74 59 22
40 61 26
36 64 28
35 63 27
36 64 28
35 63 27
35 62 27
36 63 27
35 62 26
33 59 26
35 63 27
56 64 53
80 60 59
89 65 61
99 87 95
72 89 133
38 72 138
40 75 142
39 73 139
40 75 144
40 75 143
38 71 137
39 72 138
78 100 143
105 121 141
103 119 139
110 127 146
93 107 124
92 105 122
95 106 122
72 84 98
83 92 107
86 98 113
93 100 117
87 64 100
85 17 86
87 16 88
84 15 86
86 16 87
86 16 88
86 16 87
88 16 89
86 16 86
88 16 89
87 16 89
83 31 86
102 87 126
109 101 138
122 114 155
109 100 137
110 101 139
90 77 109
78 60 93
75 59 92
71 68 91
60 85 89
59 92 91
60 90 94
69 96 110
79 97 135
86 97 151
112 121 175
163 170 220
199 212 239
194 207 234
201 210 245
208 220 251
215 229 254
211 225 249
212 225 249
213 227 249
172 179 192
113 104 103
116 108 108
161 164 175
207 221 241
217 232 252
216 231 252
216 231 252
216 232 253
212 228 249
215 231 253
214 230 252
217 233 255
217 233 255
213 229 251
194 205 225
101 99 120
70 93 96
106 99 115
105 71 107
114 119 126
82 112 99
44 119 73
72 99 98
76 98 83
104 51 66
112 40 84
92 78 105
93 91 96
100 92 94
148 136 148
80 72 90
73 80 89
101 97 121
101 105 114
46 57 54
83 90 93
73 87 80
86 94 90
40 93 27
67 108 66
128 125 129
116 115 120
120 115 127
44 45 148
73 89 117
88 105 95
98 85 79
93 52 46
79 66 60
106 112 117
77 77 79
56 39 78
85 79 81
56 120 119
126 140 143
117 123 129
110 116 124
50 48 105
75 82 78
101 108 105
81 108 115
99 114 120
113 117 119
115 113 86
115 119 121
116 122 128
117 133 143
118 134 144
115 121 128
117 122 128
116 122 128
115 121 128
106 116 110
101 115 94
115 121 127
115 121 128
119 118 104
116 114 93
113 119 126
108 114 119
109 113 117
101 104 106
114 119 126
115 121 128
125 136 125
123 132 124
102 68 143
51 85 103
64 144 68
104 121 120
114 121 128
100 102 109
78 76 67
88 97 120
80 85 115
25 27 113
87 69 80
129 135 121
99 107 106
72 94 70
99 108 108
70 95 69
68 93 80
103 111 116
95 123 88
129 131 126
112 116 121
106 112 118
67 70 94
94 92 104
94 45 34
70 63 63
83 91 94
72 86 86
84 89 96
88 95 79
121 134 134
120 148 150
140 164 176
141 159 181
136 154 177
129 146 171
132 147 170
128 125 140
133 118 128
129 112 122
128 113 122
132 116 127
134 117 126
130 114 124
131 115 125
131 115 125
129 112 122
127 113 121
105 102 106
56 92 84
50 91 82
47 84 76
52 94 85
50 90 82
51 91 82
51 92 84
51 92 83
53 94 86
62 96 94
103 122 136
121 137 162
118 131 153
122 142 162
117 137 156
117 136 155
120 116 144
145 100 151
150 99 155
145 95 148
149 98 153
146 96 151
147 96 150
143 93 147
145 95 151
149 98 155
147 98 156
137 93 151
120 97 147
114 114 148
106 117 139
113 126 147
120 136 158
128 147 171
122 138 160
121 138 160
125 143 166
128 144 167
132 149 172
141 159 184
144 162 186
147 166 192
144 163 187
148 166 189
140 158 181
138 156 179
132 149 171
129 146 169
104 106 114
44 63 36
35 62 27
36 64 27
35 63 27
34 60 26
34 60 26
35 63 27
34 60 26
33 60 26
32 57 25
34 60 26
41 57 24
86 51 17
93 60 48
97 70 75
75 81 125
38 71 136
38 71 135
37 69 133
37 70 133
40 75 143
36 68 131
40 72 135
84 105 140
112 128 148
119 135 157
109 124 143
111 126 146
111 127 147
108 123 143
112 126 146
113 128 148
111 126 147
107 113 135
88 45 93
86 16 87
83 15 83
80 15 81
84 15 84
83 15 86
83 15 83
81 15 83
84 15 84
81 15 83
95 47 102
139 128 177
162 162 219
167 171 231
166 173 235
164 171 234
160 164 222
156 157 211
116 108 145
77 69 95
62 69 84
55 85 85
66 91 108
89 98 156
103 101 185
106 103 192
108 103 197
110 104 200
136 137 209
175 185 226
197 212 238
206 219 246
207 219 248
216 231 254
215 229 253
213 227 252
213 226 251
212 226 245
172 179 192
115 107 106
98 83 75
141 139 144
193 203 220
213 228 248
213 228 249
216 231 253
212 227 249
214 230 251
215 231 254
213 229 251
215 231 253
216 232 254
207 222 242
105 99 128
85 106 110
62 95 90
100 87 107
111 116 124
103 118 117
35 119 65
88 109 105
83 78 36
92 60 41
102 50 74
107 109 118
105 108 116
117 112 119
146 129 138
95 91 101
25 58 76
69 78 93
103 109 116
100 106 112
105 112 118
110 115 121
105 111 116
50 82 58
59 82 90
107 84 129
119 95 117
113 102 103
51 81 89
70 94 106
98 110 108
100 45 42
95 34 37
93 96 103
70 88 113
91 100 112
74 52 81
110 35 22
100 59 52
95 109 114
110 117 125
108 107 116
93 91 107
69 76 57
75 79 70
77 55 71
88 62 63
107 111 109
94 89 51
112 117 119
101 115 111
74 101 84
94 108 112
118 124 129
148 154 154
147 152 152
113 119 125
92 104 85
84 98 70
111 117 121
115 121 127
105 105 85
98 102 61
73 83 82
35 48 41
93 96 99
92 94 94
112 118 124
59 75 82
57 72 69
95 98 107
81 28 123
79 81 102
58 118 58
107 118 120
94 87 99
72 60 82
77 86 81
97 101 105
97 101 113
70 74 94
97 100 108
34 60 123
74 86 116
95 103 103
104 109 110
74 86 70
62 86 72
104 113 116
99 110 99
101 107 99
111 116 121
104 111 117
91 94 104
105 103 96
76 68 63
102 106 113
77 88 89
71 98 114
82 82 85
82 96 75
137 149 156
164 184 202
152 169 193
136 154 178
134 152 176
131 148 171
134 141 162
130 115 125
122 107 116
131 114 124
128 112 121
130 114 123
132 115 125
124 110 120
134 115 124
126 111 120
131 113 122
122 107 115
121 109 117
74 93 89
48 86 78
47 86 78
48 87 79
47 85 77
46 83 74
50 89 79
49 89 80
52 90 83
77 106 111
116 131 155
122 138 162
123 137 159
125 143 167
125 144 167
131 140 168
140 103 149
144 95 147
141 93 145
142 92 143
145 95 147
142 92 144
143 93 147
145 93 148
154 103 166
164 115 193
170 122 206
167 122 208
167 122 207
160 123 201
156 126 196
136 123 174
126 134 164
118 133 156
124 140 163
125 142 165
131 148 171
131 147 169
137 153 177
139 157 181
130 148 173
134 153 179
131 149 173
129 146 171
136 154 178
146 163 187
142 159 181
123 139 160
89 103 113
40 63 40
34 59 26
33 59 25
32 57 25
32 58 25
34 61 26
34 59 26
33 58 25
34 60 26
32 58 25
33 58 25
34 58 25
78 66 51
98 71 64
99 69 66
71 70 111
37 67 128
39 72 136
36 68 131
36 68 129
34 65 124
36 68 130
41 70 128
101 116 146
126 144 165
123 140 162
121 136 157
118 134 154
118 134 154
114 129 148
119 134 155
120 135 157
123 138 159
101 94 120
87 38 91
82 15 82
84 15 85
84 15 85
83 15 84
83 15 83
80 14 81
82 15 84
81 15 82
104 72 120
154 145 196
173 176 236
167 174 237
162 172 237
160 171 237
160 171 237
163 172 237
166 172 233
168 171 229
143 140 184
92 99 122
64 76 109
91 94 162
104 97 192
106 99 191
105 98 192
109 103 197
105 100 194
114 110 198
146 153 210
199 217 240
205 222 243
207 220 249
208 222 247
213 227 252
214 228 254
206 220 244
217 231 253
213 227 248
183 190 205
116 109 110
103 91 87
105 97 96
170 175 186
190 199 215
210 225 245
217 232 254
213 229 250
216 232 254
214 230 252
216 232 254
215 231 253
212 227 248
108 102 128
70 93 97
59 97 89
84 86 93
109 112 119
106 115 119
33 115 51
68 109 83
79 75 45
73 50 26
70 30 40
106 107 114
111 114 121
108 111 117
96 87 96
67 68 77
34 58 75
80 87 114
101 108 121
111 117 124
112 118 125
110 116 123
108 115 121
92 101 111
51 63 98
55 66 102
89 65 97
75 78 74
30 101 22
34 103 27
101 109 111
91 77 84
88 70 75
71 82 101
7 55 91
39 64 95
105 104 113
95 46 52
95 66 66
105 112 119
111 105 114
128 44 78
127 41 76
99 96 102
78 84 101
9 35 87
40 50 83
86 90 87
102 107 111
110 117 122
53 84 54
33 74 25
88 102 97
111 118 124
108 113 112
113 118 120
107 112 119
99 86 127
92 68 127
104 106 119
107 113 116
64 100 74
10 97 34
18 69 31
41 49 46
90 92 91
96 101 106
95 102 109
18 46 52
45 62 69
102 107 115
96 98 109
105 105 119
120 116 141
116 116 130
92 92 102
62 82 94
63 85 95
106 112 117
108 114 122
111 117 123
77 87 109
18 45 103
82 91 114
110 116 121
86 82 52
79 76 45
87 96 97
112 118 122
99 104 98
96 100 94
101 108 118
112 117 124
107 116 119
90 103 84
108 110 110
110 116 123
70 89 98
77 101 118
79 73 68
69 90 74
128 145 164
132 150 174
136 155 179
135 153 178
131 150 173
132 149 172
129 123 137
122 107 116
123 107 116
125 109 119
124 109 119
125 109 117
124 108 117
125 109 118
123 108 115
120 105 112
118 102 109
117 101 108
122 105 112
84 92 92
47 81 74
46 85 77
44 81 73
43 79 72
48 87 79
44 81 74
48 87 79
74 98 105
111 130 148
129 147 171
126 144 169
129 147 172
129 148 171
128 144 167
134 132 163
134 90 138
144 94 146
141 91 142
137 89 139
140 90 143
141 91 143
144 95 151
154 107 177
168 121 206
165 120 204
166 121 205
171 125 212
167 121 206
167 122 209
167 122 207
166 123 204
156 126 195
129 140 169
128 145 168
128 144 166
132 149 172
138 155 177
130 148 171
129 147 170
135 154 178
129 146 169
130 148 172
132 151 175
132 151 176
126 142 166
136 152 175
120 133 152
73 87 87
34 59 25
32 56 24
32 58 25
30 53 23
33 58 25
31 56 24
33 58 25
31 54 23
32 57 25
32 56 24
33 58 25
33 58 25
54 59 38
103 76 71
100 69 74
53 62 112
35 65 124
36 67 129
31 57 113
34 64 124
34 64 123
35 66 127
71 89 130
112 128 154
124 141 162
123 139 160
120 137 159
124 140 162
121 137 157
123 138 159
120 136 157
120 135 157
127 143 166
105 103 129
78 20 79
80 15 81
80 15 82
77 14 78
81 15 81
81 15 82
78 14 80
81 14 81
87 36 93
147 138 186
176 177 234
170 175 237
165 173 237
162 171 237
160 171 237
160 171 237
163 171 235
166 172 234
164 164 232
154 141 224
127 97 203
116 71 201
121 76 210
121 77 211
119 80 209
110 89 196
105 96 195
106 102 193
120 126 190
156 182 201
179 209 221
195 219 236
207 224 247
204 217 245
204 217 244
208 222 248
213 228 251
216 231 253
212 227 248
212 225 246
191 201 217
126 122 126
106 94 92
102 91 88
119 113 114
157 160 170
192 202 218
200 213 231
211 225 246
216 231 252
214 230 251
214 229 251
207 222 243
121 124 138
75 93 98
70 95 92
89 105 106
109 116 122
107 115 119
44 110 57
34 107 48
77 80 69
65 38 25
62 13 25
91 85 92
110 114 122
108 112 119
96 95 101
80 83 89
61 70 89
75 80 104
78 84 106
109 114 123
110 118 118
111 118 122
110 116 123
98 104 113
46 57 85
43 55 84
81 74 92
98 104 106
34 90 31
27 90 19
97 110 108
109 114 121
103 108 115
87 96 108
25 50 76
67 72 93
128 63 109
133 36 107
114 71 102
111 114 120
108 95 105
111 20 59
110 17 58
110 98 109
93 100 110
35 42 68
60 63 58
65 67 58
75 79 75
107 113 119
83 95 92
49 71 49
100 108 110
109 115 121
102 107 112
62 55 61
56 44 56
72 51 94
80 53 108
98 94 118
110 116 122
60 83 63
105 102 103
104 98 104
105 107 114
106 112 119
102 107 114
104 110 116
68 77 80
91 97 103
107 113 120
110 117 124
110 103 122
115 106 127
109 101 120
108 89 119
81 72 99
68 81 89
101 108 115
107 113 119
95 116 105
60 139 52
55 99 81
97 104 112
97 101 101
75 69 37
79 75 56
129 134 137
155 164 171
123 128 124
102 108 106
108 115 124
110 116 123
82 107 98
52 97 68
112 117 122
109 114 120
61 86 101
81 98 112
68 62 55
77 100 88
121 141 164
133 152 176
133 151 174
133 150 173
133 152 177
131 145 166
123 117 131
125 108 117
122 106 113
121 105 113
124 109 118
120 104 112
122 107 116
121 105 114
116 102 110
120 104 112
120 105 112
118 100 107
122 104 112
97 92 97
50 76 71
39 72 65
40 72 65
41 75 67
40 74 66
45 77 72
76 102 107
110 130 149
124 142 165
129 147 172
132 151 176
131 149 173
130 148 172
135 152 176
131 118 151
139 92 140
140 90 140
139 89 141
141 91 142
140 91 142
136 89 140
149 105 173
168 120 203
170 122 209
166 119 204
168 121 206
163 118 201
162 116 197
159 117 200
164 119 202
163 118 201
162 119 202
158 122 194
139 149 182
136 154 177
135 152 171
131 149 172
129 147 170
120 137 159
129 148 171
127 146 170
129 147 170
125 145 165
130 146 171
132 150 174
134 151 176
128 144 164
72 86 86
30 54 23
30 54 23
31 55 24
32 56 24
33 58 25
32 56 24
32 56 24
32 55 24
31 55 24
31 55 24
32 56 24
31 55 24
58 55 30
108 73 66
92 77 99
43 64 118
33 61 119
32 63 119
31 73 120
28 79 120
30 79 123
51 88 125
102 124 152
126 145 169
126 141 163
122 138 159
125 141 164
127 143 166
127 143 167
126 142 165
125 140 162
128 144 167
125 141 163
104 102 128
76 14 76
72 13 73
79 14 80
74 14 76
79 14 79
76 14 78
75 14 76
77 14 79
112 91 135
175 171 225
177 179 237
172 176 237
168 174 237
165 173 237
165 173 237
165 173 237
165 172 234
157 153 226
135 108 217
124 75 213
122 70 214
122 70 213
119 68 207
122 70 212
124 71 214
123 73 213
115 80 203
121 121 190
166 195 206
172 209 218
166 205 217
165 204 219
191 217 235
208 227 248
212 228 251
210 225 247
209 224 246
211 226 249
214 229 250
211 226 247
215 231 252
208 222 241
147 146 152
110 98 95
101 90 91
103 90 89
112 103 105
133 126 128
144 144 151
162 165 175
168 172 184
161 165 175
148 144 149
114 112 117
98 107 112
71 91 92
68 95 91
110 117 124
109 116 122
61 106 72
16 100 34
89 97 96
60 48 43
55 37 39
70 65 68
108 112 118
109 114 121
107 113 119
100 106 113
85 90 103
70 75 98
70 75 96
98 110 95
100 124 51
104 128 61
107 117 112
103 108 116
81 86 96
42 46 60
78 83 88
87 93 98
67 82 74
52 78 55
89 100 98
102 111 115
105 112 118
103 109 117
90 96 103
98 91 103
112 29 90
112 27 89
115 32 92
105 103 113
105 106 114
93 61 74
93 61 74
98 99 107
97 98 105
85 87 93
61 63 57
56 59 50
70 74 71
105 112 117
100 106 111
104 109 116
104 114 115
88 110 98
78 95 85
45 36 40
48 35 43
50 35 48
69 59 88
96 101 110
102 108 114
133 107 126
158 121 154
158 121 154
135 116 132
109 115 121
109 114 121
107 113 120
101 108 114
69 90 96
76 94 100
110 116 123
85 83 97
76 72 88
101 74 107
116 71 123
114 70 121
96 91 106
105 110 116
105 113 118
57 135 42
46 138 11
65 131 56
104 109 117
101 105 109
66 62 37
89 91 89
147 150 152
160 166 170
123 125 123
99 105 109
114 119 125
113 119 126
52 95 69
53 94 70
114 121 127
110 116 121
58 81 96
88 99 109
78 73 68
86 109 113
128 146 171
132 150 174
129 146 172
131 150 175
130 148 171
131 146 168
113 102 112
114 100 108
115 100 108
119 105 113
121 106 115
112 99 106
115 100 109
114 99 108
114 100 110
114 99 105
112 95 102
110 96 104
111 97 102
103 99 109
75 90 98
47 67 66
42 66 62
36 62 58
61 82 84
70 89 95
98 116 130
115 132 150
122 140 162
121 139 160
127 145 169
126 145 167
124 143 164
126 145 167
136 121 157
129 85 132
140 90 140
135 88 138
135 86 136
125 81 127
143 95 154
163 117 199
162 115 196
162 116 197
163 117 199
162 115 198
165 118 200
161 115 197
161 116 198
158 114 194
161 115 196
157 113 192
154 113 190
142 127 179
124 132 157
124 137 160
129 145 169
125 143 163
126 143 165
127 144 167
131 149 173
128 147 169
130 147 171
129 148 171
132 149 173
131 147 172
132 148 172
110 122 138
41 59 40
29 52 22
29 51 22
31 53 23
29 51 23
30 54 23
31 54 23
31 55 24
31 54 23
29 53 23
31 55 23
29 51 22
75 64 49
108 85 90
70 76 108
34 66 113
26 91 123
24 108 131
23 120 140
23 122 140
23 121 140
33 119 140
60 123 142
94 130 149
121 142 164
124 142 165
115 131 155
121 138 160
122 137 160
127 145 169
122 138 160
124 140 163
129 146 170
114 120 145
73 34 77
70 13 70
73 13 73
74 13 75
69 13 71
74 13 75
77 14 78
77 26 80
126 115 159
183 180 234
180 180 237
177 179 237
174 177 237
172 176 237
171 176 237
172 176 237
162 158 231
130 94 213
121 69 207
119 68 204
122 70 211
119 68 205
119 68 205
120 68 205
119 67 204
122 69 210
121 68 206
134 114 212
169 198 216
170 207 219
167 207 219
164 205 217
163 204 218
185 214 231
203 223 242
206 223 244
208 224 246
204 220 241
207 222 244
211 227 249
215 230 252
214 229 251
208 222 241
184 192 206
129 123 125
112 94 83
98 84 79
101 83 82
99 82 83
106 88 89
109 94 90
106 90 82
109 95 88
98 93 87
94 99 106
88 99 102
59 86 82
108 116 123
108 115 121
92 109 103
2 81 23
87 97 94
94 99 104
53 48 48
50 44 43
83 84 89
110 117 123
110 116 123
107 113 120
103 108 116
62 66 84
60 65 83
90 108 60
98 122 41
99 123 42
97 117 68
106 112 120
105 111 118
99 106 112
102 109 114
101 108 114
102 110 113
84 110 77
66 104 39
75 107 58
103 114 110
108 114 121
107 111 119
108 109 117
101 61 90
102 24 81
100 30 79
108 105 115
107 110 117
84 85 92
53 48 53
58 57 63
92 94 100
95 99 106
83 88 91
64 66 66
90 94 98
106 112 119
105 111 118
104 112 115
54 103 58
39 103 40
38 103 39
37 76 35
40 29 35
63 61 67
92 94 104
102 106 114
106 111 118
105 85 102
122 92 112
114 87 107
113 100 115
107 114 120
111 117 124
109 116 122
59 84 90
16 65 70
17 67 72
67 86 92
96 100 106
86 85 95
100 63 106
101 62 106
107 66 113
108 109 118
109 115 122
93 115 100
40 115 15
43 128 10
72 124 70
105 111 116
94 98 100
86 89 91
94 98 102
116 127 121
122 124 123
102 108 110
106 111 117
109 114 120
103 112 116
39 86 57
79 99 91
109 116 122
105 112 118
41 68 56
96 102 107
61 64 54
94 114 121
128 145 169
123 142 167
131 150 174
129 148 171
128 145 169
131 143 165
113 108 121
113 97 106
115 99 107
113 99 107
113 98 106
115 100 108
118 102 110
114 99 107
113 100 106
110 96 104
113 96 103
113 97 105
106 91 96
109 104 115
94 109 124
86 103 120
71 92 113
66 95 122
72 102 132
91 114 139
100 117 136
114 130 148
115 132 152
117 134 155
118 135 156
123 142 164
130 143 170
134 128 171
136 98 161
138 81 153
138 83 154
135 82 149
136 86 143
123 78 125
149 105 176
166 119 200
156 112 190
165 118 199
164 117 199
162 116 197
161 115 195
160 115 197
153 110 188
155 112 190
161 115 197
157 114 193
153 111 187
151 115 184
131 127 163
124 138 164
125 140 163
121 137 158
130 147 168
131 147 170
140 157 180
138 155 179
131 147 170
137 155 178
133 150 173
141 158 182
137 155 179
129 144 168
61 78 75
29 51 22
28 49 21
30 53 23
30 52 22
29 50 22
27 48 21
27 48 21
29 51 22
26 47 20
29 52 22
33 51 27
78 85 89
93 98 115
71 94 122
26 101 125
23 119 137
22 123 139
22 122 140
22 122 138
22 121 138
22 120 137
22 120 136
30 122 140
52 119 138
106 132 154
119 135 158
118 134 156
121 137 161
124 141 165
125 141 165
126 142 166
129 147 172
121 135 158
95 80 111
68 12 68
70 13 70
72 13 72
72 13 73
69 12 71
73 13 74
71 26 77
121 117 154
172 167 217
182 178 233
182 180 236
179 179 235
180 180 237
179 179 237
165 161 227
127 96 204
120 68 208
119 68 205
123 70 209
120 68 206
118 67 203
118 68 206
118 67 203
117 66 200
113 64 195
121 68 204
117 67 200
129 121 196
148 169 202
169 205 218
168 207 219
168 207 219
164 203 214
178 211 225
191 211 227
204 221 242
206 222 244
206 222 243
213 229 251
212 228 251
214 230 252
212 227 249
213 229 250
206 220 240
180 189 204
129 124 125
101 88 85
112 98 101
97 74 74
96 75 88
106 80 93
114 94 102
116 103 111
92 98 101
111 115 120
74 82 78
100 108 113
108 114 120
101 109 113
47 72 52
79 90 88
100 107 112
52 46 46
48 42 41
62 59 60
105 110 117
109 115 121
106 112 119
104 110 116
80 84 91
67 70 76
85 99 69
88 109 36
88 107 36
88 110 45
108 115 119
112 118 125
110 116 122
108 114 120
110 115 121
100 112 107
64 98 39
60 92 33
64 100 36
71 100 55
109 115 121
107 111 118
102 101 110
94 88 97
81 62 76
86 77 87
98 96 106
95 99 106
38 34 39
31 24 31
31 25 31
44 42 48
100 105 111
100 105 111
98 103 108
107 113 120
102 109 114
108 114 121
85 102 95
32 87 33
34 93 34
33 91 34
39 93 39
70 72 74
94 98 104
100 105 112
100 104 112
107 108 116
100 91 103
96 70 90
100 79 97
106 106 115
109 113 121
109 116 122
99 107 114
19 62 66
15 61 64
16 62 66
60 81 86
109 115 122
105 110 117
87 60 94
92 57 98
96 76 104
104 109 117
103 110 115
96 111 105
40 108 26
49 115 37
97 111 106
107 115 118
109 116 122
107 113 118
104 110 114
105 111 113
108 113 116
108 115 120
110 116 122
106 113 118
93 105 104
33 74 49
97 108 109
105 111 117
78 91 90
39 65 49
102 108 112
87 93 81
99 121 141
129 147 172
126 143 168
128 147 171
130 148 172
131 149 174
129 147 171
114 118 135
106 91 99
106 93 100
113 98 105
114 99 108
112 98 107
103 90 98
107 93 101
104 91 97
115 100 107
105 89 97
100 87 92
102 89 97
115 125 146
100 146 196
74 149 220
55 148 228
57 149 228
51 153 237
63 150 228
72 145 216
103 143 188
118 143 172
124 141 163
127 145 168
123 141 164
148 94 180
147 81 179
146 80 176
149 82 179
147 81 178
149 82 178
147 81 174
139 82 157
158 110 188
155 110 186
157 112 192
156 111 188
156 111 189
150 108 184
153 110 189
153 109 185
157 112 190
159 113 192
147 106 179
151 109 186
152 108 184
150 109 181
134 119 169
127 141 169
126 143 167
126 142 165
133 150 173
136 151 175
139 157 181
141 159 183
133 150 174
136 152 176
138 153 176
141 158 183
130 145 170
127 144 167
80 93 100
27 49 21
27 48 20
29 49 21
29 50 22
26 45 20
27 48 21
27 48 21
26 47 20
29 51 22
26 47 20
59 74 74
107 123 144
105 126 150
51 118 134
22 118 133
21 118 135
22 120 136
22 117 133
22 120 137
22 118 134
21 117 133
22 119 135
21 116 134
21 115 130
51 121 139
105 130 153
127 145 170
118 135 159
128 145 169
124 141 164
128 144 167
131 148 171
124 140 163
109 115 140
74 42 81
68 12 68
69 13 70
66 12 68
64 11 65
67 12 68
71 33 78
87 83 117
131 124 168
151 144 195
150 144 193
137 145 188
159 161 207
162 158 209
141 121 206
113 65 196
117 66 199
115 66 197
113 65 196
115 66 199
111 64 190
115 66 197
112 64 194
116 66 198
114 67 195
112 69 190
107 80 172
100 84 152
102 101 146
140 161 182
170 204 212
174 211 219
173 209 216
164 198 206
169 202 211
191 211 229
207 225 246
201 218 239
208 224 246
207 223 246
209 226 248
211 226 249
213 229 251
212 228 249
212 227 249
200 212 230
156 156 163
118 108 106
107 91 84
103 84 76
107 86 87
111 90 90
114 87 111
93 96 98
115 116 122
133 120 123
104 110 116
109 116 121
107 114 119
87 96 96
95 102 106
104 110 115
68 68 70
45 39 39
44 39 38
87 90 95
108 114 121
108 114 120
105 111 118
100 106 113
99 105 110
100 108 107
83 100 47
82 101 33
82 98 52
104 111 115
105 112 117
109 116 121
110 117 122
112 118 124
105 115 115
59 90 37
58 90 32
58 91 32
57 88 32
94 105 99
111 115 123
106 110 117
110 114 122
105 108 116
105 106 115
106 110 118
83 83 90
28 22 28
28 22 28
28 22 28
28 23 29
89 93 99
108 113 119
108 113 119
108 114 121
106 113 119
106 113 118
91 105 101
28 77 28
30 83 30
31 85 31
68 95 75
94 101 105
104 110 117
103 109 116
106 110 116
106 109 117
98 98 106
93 87 96
98 94 103
104 105 112
105 110 117
108 111 118
99 106 113
17 53 56
14 54 58
13 55 57
81 91 97
108 114 121
95 95 105
86 83 94
79 65 84
88 88 97
98 102 108
97 106 109
89 102 98
60 106 91
68 136 128
84 137 136
104 114 116
111 117 123
107 114 119
99 104 106
84 88 88
104 109 113
110 116 121
112 118 125
100 108 112
79 86 87
62 81 70
111 116 122
109 115 120
37 60 46
58 74 68
108 116 121
85 97 90
115 134 158
132 151 176
125 143 169
128 145 170
130 148 173
131 150 175
131 150 174
124 136 155
108 98 108
104 91 99
105 92 100
108 93 101
104 90 98
94 82 89
101 88 96
102 89 96
99 88 95
105 89 96
105 90 98
100 105 132
80 143 205
55 151 232
49 151 234
51 157 242
50 153 238
50 155 242
48 150 233
50 157 244
52 156 240
83 147 209
119 151 189
129 149 174
129 147 172
147 80 174
145 79 174
144 79 171
146 80 175
149 81 176
150 81 176
147 80 175
145 79 173
148 87 178
153 105 186
153 109 185
147 107 182
146 101 176
152 107 183
151 110 185
146 104 179
145 105 178
144 105 178
147 106 178
143 102 176
153 108 185
151 108 184
139 122 170
134 149 173
132 147 172
123 138 160
125 140 161
132 148 169
135 152 176
141 158 181
136 155 178
128 146 169
134 153 177
134 152 175
134 150 176
133 150 174
113 128 147
58 75 73
26 46 20
26 47 20
27 48 20
25 44 19
25 45 19
25 45 19
24 44 18
26 47 20
49 64 59
111 127 148
124 141 165
94 133 154
28 116 132
21 114 131
21 116 131
22 117 134
21 118 134
21 115 130
21 115 131
21 113 127
21 114 129
20 112 128
21 111 128
20 112 128
76 127 146
128 146 169
127 144 168
128 145 169
125 142 166
131 149 173
128 146 170
123 140 163
126 143 166
103 108 133
70 50 80
57 10 58
55 10 56
60 11 61
65 12 66
67 33 75
95 94 130
115 114 159
118 116 159
105 109 150
76 96 129
103 111 148
117 117 163
115 79 190
118 67 202
111 63 189
110 62 188
109 63 189
111 62 187
109 62 187
115 65 194
113 65 193
105 74 170
89 91 121
86 98 104
83 99 97
83 99 95
82 98 95
89 107 105
101 121 120
142 169 171
163 192 193
156 184 186
157 189 191
170 202 207
189 212 227
196 214 234
200 218 239
199 215 236
205 220 242
204 221 243
212 229 251
210 227 249
214 230 252
212 228 250
206 220 241
185 194 211
138 134 139
107 94 89
106 88 78
102 88 82
110 98 95
95 93 90
114 117 123
138 125 131
119 118 123
107 114 119
111 117 125
105 112 117
105 111 117
103 110 115
92 97 102
41 36 35
41 36 35
82 86 89
104 110 117
106 112 118
110 116 123
107 113 119
103 110 113
101 108 110
77 86 74
66 77 50
70 79 63
94 102 102
104 111 113
107 113 117
107 114 118
107 114 118
101 110 111
68 90 63
53 81 29
54 84 29
57 86 35
93 102 98
106 112 117
104 110 116
106 112 117
103 108 115
109 114 121
105 110 117
96 98 104
33 31 35
27 21 27
26 20 25
35 33 38
96 102 107
102 110 114
102 111 116
107 113 119
107 113 120
106 112 119
92 100 103
56 79 60
30 66 30
52 78 55
91 98 99
96 104 106
102 110 114
107 113 121
106 112 118
106 109 117
109 113 120
107 111 118
108 111 118
109 113 120
107 112 119
99 104 110
94 100 106
66 74 78
42 53 56
67 76 80
94 100 106
104 109 116
101 105 113
98 101 110
95 99 105
97 102 109
105 113 118
105 111 118
89 130 131
71 139 138
71 140 139
71 140 138
95 125 128
108 115 120
108 114 120
108 115 120
107 113 117
108 113 118
111 117 123
110 116 122
105 112 118
102 106 107
137 131 128
127 124 123
101 108 113
7 47 23
86 95 97
109 114 119
77 95 96
129 146 170
132 150 173
130 149 172
131 148 172
131 150 174
132 150 175
131 148 172
132 148 171
120 127 145
96 85 93
99 86 93
100 87 95
102 89 95
95 83 90
93 80 89
95 82 90
98 83 90
93 79 86
83 89 115
57 136 207
47 145 226
48 150 234
48 148 229
47 146 225
48 149 231
48 147 226
49 151 231
48 150 232
48 149 229
48 148 228
65 148 218
114 144 182
128 146 170
142 78 170
143 79 172
145 79 173
147 80 175
145 79 172
140 77 168
145 79 174
141 77 168
143 78 173
142 82 170
149 103 178
145 103 174
142 100 172
142 101 173
148 106 181
143 101 174
143 101 173
148 105 178
145 104 176
141 100 173
143 103 175
140 100 171
124 106 153
129 145 169
117 126 146
114 112 124
91 62 55
118 101 106
136 143 157
128 145 162
122 131 152
84 89 113
93 96 119
103 115 136
127 145 168
121 140 160
119 135 156
108 125 144
64 79 83
30 46 31
24 43 18
23 41 18
20 37 16
24 42 18
29 44 30
62 75 78
86 100 113
122 138 158
116 134 156
55 122 138
21 113 127
21 117 133
20 108 123
21 115 130
21 113 128
21 114 128
20 110 125
21 113 128
21 115 130
20 111 126
21 113 129
20 106 122
45 115 131
108 131 152
130 147 172
121 138 162
125 142 166
122 138 161
125 141 165
126 142 165
122 139 163
113 127 149
98 105 127
68 60 80
53 29 56
48 8 49
45 8 46
47 19 51
101 100 138
115 118 161
113 117 158
113 115 158
109 113 154
109 112 158
105 100 156
108 67 180
109 63 188
109 61 186
107 61 185
109 62 186
109 62 186
106 60 180
106 61 180
96 78 147
85 99 100
82 97 93
84 99 95
82 98 94
81 96 92
82 97 93
81 96 92
80 94 91
81 96 92
108 123 123
121 144 144
137 169 168
153 187 188
175 206 208
188 211 222
197 215 236
198 215 237
200 217 239
206 223 245
209 226 249
211 227 249
210 226 249
214 230 252
209 225 247
207 224 245
211 226 247
182 191 206
133 126 128
119 106 101
113 94 82
102 89 80
101 107 111
134 122 127
118 112 115
111 117 123
109 115 120
112 118 123
106 112 116
107 113 119
102 107 113
56 56 58
36 31 30
76 78 82
96 101 106
107 112 119
110 116 122
104 110 116
109 116 121
104 109 112
99 105 106
93 99 98
94 100 99
102 108 110
105 112 117
104 110 114
107 114 119
101 108 112
101 107 110
94 101 101
60 75 54
48 71 34
74 86 72
91 97 97
100 106 110
106 112 118
107 113 119
108 114 120
104 110 117
98 102 109
94 98 104
70 73 76
41 41 43
43 42 43
66 77 76
90 113 108
85 114 107
88 117 108
92 118 112
102 114 117
100 107 112
97 105 109
89 96 97
79 87 86
80 89 88
94 101 104
103 109 115
101 108 112
105 113 117
111 116 122
109 114 120
106 113 119
107 114 120
111 116 123
109 115 121
110 116 123
101 108 114
97 105 110
90 96 102
88 93 99
93 99 104
97 103 110
103 110 116
105 111 117
106 112 119
109 116 122
107 113 119
109 117 122
102 119 122
72 139 137
70 138 137
68 133 131
69 136 132
95 125 127
107 116 120
110 116 121
108 114 120
112 119 125
108 115 121
112 118 124
113 119 126
106 112 118
136 130 127
135 133 135
128 126 126
78 88 89
21 50 31
105 113 118
99 106 108
93 113 128
132 150 174
133 151 176
129 146 170
129 146 171
131 149 173
129 147 170
126 143 166
130 146 169
126 139 161
110 114 130
92 84 94
86 75 82
89 76 82
88 75 82
84 72 79
89 76 82
83 70 75
93 94 110
66 125 186
47 143 221
44 135 209
46 143 220
47 145 223
48 149 228
46 142 218
47 146 225
49 150 230
47 146 224
45 141 218
47 145 222
48 151 233
77 144 209
120 140 168
140 77 164
136 74 160
138 75 164
144 79 171
142 77 168
140 77 167
139 76 164
137 76 164
138 76 163
141 77 168
144 87 170
139 97 167
141 99 169
139 98 168
135 94 163
142 100 172
138 99 168
143 102 174
138 98 168
139 98 169
131 95 161
137 98 165
114 96 138
94 97 111
106 102 115
120 85 82
125 83 70
128 90 81
176 168 175
165 177 175
145 143 158
99 95 125
67 51 90
98 103 128
115 133 150
94 125 125
111 128 147
106 120 138
97 109 125
67 77 83
40 49 49
47 54 55
35 45 43
31 42 34
55 63 67
75 84 93
100 114 130
100 117 132
80 118 130
28 117 120
29 121 125
28 118 121
25 113 121
21 110 125
20 110 124
20 110 124
21 114 129
20 108 121
19 106 120
21 113 127
19 101 115
20 107 122
21 112 127
94 131 152
125 141 164
123 138 162
120 134 156
124 139 163
118 132 154
106 116 137
111 122 143
97 105 123
96 104 122
81 86 101
67 67 83
65 67 82
66 66 82
71 75 91
93 98 123
114 117 160
113 116 161
105 107 151
111 113 158
111 112 157
103 97 154
105 63 181
105 60 181
104 59 177
106 60 180
107 60 180
107 60 179
102 58 173
95 78 146
83 97 99
80 94 90
82 97 92
82 97 93
81 95 90
81 96 92
81 96 92
80 94 90
80 95 91
81 96 92
79 94 90
91 111 109
114 146 146
119 150 152
153 182 185
169 197 200
175 199 209
183 201 220
194 211 233
199 216 238
200 217 241
205 221 245
206 223 246
206 223 246
207 224 246
210 227 249
213 229 251
209 226 249
202 217 238
170 176 189
143 139 143
123 109 105
84 88 89
125 116 118
127 110 109
110 115 122
110 115 122
110 116 122
108 115 120
109 115 121
102 106 112
81 84 89
64 66 69
86 90 95
98 103 109
103 108 114
107 113 119
109 115 121
107 113 118
106 112 117
109 115 121
107 113 117
111 117 122
108 114 119
108 113 119
108 115 120
106 112 117
109 115 119
101 107 111
97 104 105
85 91 92
81 89 88
84 90 89
95 99 102
122 109 126
131 115 137
121 108 127
109 111 119
102 107 112
103 109 115
99 103 109
89 94 99
85 88 91
80 87 88
80 104 98
79 108 100
83 113 103
78 109 99
82 113 103
83 113 104
97 108 110
107 113 119
102 109 113
104 112 117
101 108 113
106 112 117
105 111 117
108 114 119
108 114 120
109 115 122
111 117 123
108 114 120
110 117 122
108 115 120
107 113 119
109 115 121
107 113 119
111 117 124
106 112 119
108 113 119
107 112 118
107 113 119
105 111 118
107 113 120
108 114 120
107 116 121
109 117 123
108 116 122
84 127 127
65 128 123
64 127 121
65 131 124
67 129 125
103 118 123
110 117 123
110 118 123
111 117 122
111 117 123
109 115 120
110 116 121
111 116 123
110 113 113
144 137 134
136 133 133
128 124 123
56 68 64
67 78 75
106 112 118
86 93 86
115 131 152
128 144 167
125 141 165
129 145 168
126 142 164
124 139 162
119 132 153
118 131 150
115 128 147
108 119 138
109 122 142
94 95 107
75 71 80
69 61 67
77 66 72
73 63 68
72 64 71
88 88 100
88 122 163
48 144 220
43 133 206
45 141 217
45 138 213
45 141 216
47 144 219
45 139 213
45 140 216
46 142 216
45 140 215
44 138 209
46 140 214
48 140 214
68 137 188
109 138 122
139 77 164
140 77 165
134 74 159
134 73 158
136 75 161
135 74 160
128 71 153
136 75 161
134 73 159
132 72 156
139 78 165
141 96 168
136 97 167
130 91 157
130 91 158
129 90 157
138 96 166
127 90 156
132 95 162
131 93 160
136 97 166
141 104 170
119 126 153
91 89 104
114 109 124
121 102 108
128 84 71
165 152 159
214 226 245
211 226 248
215 230 252
166 176 199
92 90 119
107 116 141
129 146 162
126 149 161
117 133 153
104 118 136
105 120 137
99 112 127
86 97 111
83 93 107
79 89 100
93 105 120
94 108 123
102 116 132
85 125 131
50 123 117
35 124 116
35 124 115
35 123 114
35 124 116
35 123 114
34 122 115
29 113 114
22 111 123
20 108 121
19 105 119
20 106 120
20 109 122
18 100 114
18 99 114
19 104 120
76 115 134
124 141 166
125 141 163
127 143 167
118 131 153
121 136 159
124 142 165
123 138 162
113 127 149
115 129 152
115 128 152
110 122 144
113 126 147
103 112 134
104 115 136
113 126 148
112 118 154
112 115 157
105 105 150
106 106 151
102 104 145
105 104 154
96 62 162
101 58 175
100 57 172
101 58 173
99 56 169
101 57 173
93 67 150
80 93 95
76 90 86
78 93 89
80 95 90
79 93 89
77 92 87
80 95 91
80 96 92
80 93 89
77 91 87
78 92 87
79 94 90
76 90 86
95 117 119
113 140 147
120 147 153
139 167 170
148 173 181
158 176 195
175 191 214
195 212 235
194 211 234
206 224 247
200 218 241
209 226 250
207 224 247
206 224 246
212 229 252
210 227 250
210 227 250
212 229 252
204 221 243
184 194 211
106 115 120
111 108 114
111 94 93
103 103 107
110 115 120
112 117 123
111 116 122
111 117 123
105 110 117
96 101 106
96 100 105
98 102 109
105 111 117
106 112 118
109 115 121
108 114 120
110 115 121
110 116 121
109 114 121
108 114 120
110 116 121
110 116 123
107 113 118
109 115 121
107 113 118
108 114 121
106 113 118
105 111 115
99 106 111
99 106 112
98 102 107
144 116 146
155 123 166
152 121 167
154 122 167
155 120 157
101 98 109
107 113 119
105 111 117
101 107 113
102 108 114
96 108 109
79 106 99
78 105 97
75 103 93
76 103 94
76 104 95
79 108 97
93 111 108
104 110 116
109 116 122
106 112 117
109 115 121
109 115 121
105 112 116
109 115 122
109 116 122
111 117 123
109 116 122
110 115 121
109 116 123
109 115 121
109 115 121
108 113 120
111 116 122
109 114 121
108 113 120
107 114 119
107 113 120
109 115 122
105 114 119
109 115 122
109 117 123
107 115 121
105 112 118
104 113 117
79 118 117
60 118 112
57 113 108
60 120 113
72 118 115
109 117 124
110 117 122
110 117 124
109 115 121
107 114 120
111 117 123
113 119 126
111 117 123
109 108 105
139 129 123
131 121 115
96 98 99
27 43 33
96 103 107
107 112 118
70 73 78
117 124 151
129 147 169
131 148 171
125 142 165
128 145 168
124 140 164
122 137 158
117 130 151
117 131 152
107 118 135
113 126 144
105 115 132
97 106 121
87 93 106
80 86 98
73 77 89
89 95 108
95 104 120
64 121 178
44 134 208
44 134 206
43 131 202
45 138 212
43 131 197
43 134 206
44 138 209
46 142 217
41 128 193
45 139 213
44 137 208
50 139 205
87 135 155
106 130 86
111 133 79
136 74 157
138 75 160
132 72 158
135 74 159
133 73 156
138 74 162
134 74 158
135 74 160
131 71 156
126 69 149
131 71 154
127 81 152
138 97 166
125 89 153
130 91 158
125 88 154
131 92 159
131 93 159
124 88 150
129 93 160
121 87 149
126 114 159
127 138 164
114 125 143
130 114 121
129 117 125
125 105 108
180 180 194
211 226 248
205 221 240
205 218 238
161 164 181
127 135 161
137 145 171
163 179 200
135 152 175
121 138 160
124 141 162
125 141 163
127 144 167
120 137 157
120 137 160
125 142 164
124 140 163
116 136 156
64 124 123
35 124 115
35 123 114
34 121 112
36 124 115
35 123 115
35 122 114
35 122 114
35 122 112
34 119 111
32 117 113
24 107 114
19 106 119
20 108 121
18 98 110
19 103 115
18 100 114
18 96 108
68 116 134
131 149 173
129 145 170
129 146 169
129 147 172
126 142 165
127 145 169
133 151 175
132 148 172
126 142 166
128 146 170
130 147 171
125 142 166
129 146 170
127 144 170
125 141 165
123 138 165
113 121 158
99 100 140
92 91 132
99 99 141
91 89 133
93 69 154
97 56 168
94 54 164
95 54 163
99 56 170
99 57 169
86 79 125
77 92 87
74 88 84
78 91 87
78 92 87
75 88 85
78 91 87
79 94 89
75 88 84
75 88 84
76 89 85
74 87 84
76 89 85
75 89 85
79 95 92
107 132 137
111 137 143
122 149 154
120 143 154
127 143 167
143 160 184
157 174 199
181 198 222
193 210 234
194 211 235
199 217 241
196 214 238
199 217 241
205 222 245
208 225 248
203 220 243
206 223 247
205 222 245
199 217 237
127 154 164
96 101 107
93 83 87
102 95 99
109 113 119
110 115 122
108 114 120
106 112 117
106 112 117
107 112 118
102 108 114
103 108 114
111 117 124
110 116 122
105 110 116
107 112 119
107 113 119
111 116 121
107 112 119
108 114 120
108 113 120
110 116 121
109 114 120
109 114 120
109 115 121
107 112 118
108 114 120
104 109 115
108 113 119
106 112 120
121 102 125
162 125 167
150 120 167
145 119 167
147 120 167
155 123 167
150 115 150
100 100 111
106 111 118
107 112 119
101 106 112
94 104 107
69 90 85
72 97 89
70 95 86
72 99 89
72 98 90
74 101 90
80 101 96
105 113 118
104 110 115
108 114 120
105 112 117
108 113 120
106 112 117
108 114 120
108 116 121
111 117 123
108 114 120
107 113 119
110 116 122
111 117 123
111 116 122
109 115 121
112 118 125
111 117 122
111 117 123
108 114 120
110 116 122
107 114 120
108 115 120
108 114 120
105 113 118
104 112 119
106 113 120
95 105 108
80 103 105
52 104 99
53 108 98
63 106 103
96 110 114
107 115 120
110 116 121
109 116 122
108 115 120
109 114 119
107 112 117
110 115 120
104 109 113
93 91 89
94 88 77
109 103 101
94 99 101
76 80 83
104 110 116
95 101 106
81 67 94
105 107 136
130 148 171
132 150 174
128 146 169
130 144 170
120 124 154
111 99 138
113 104 144
112 111 143
123 132 158
128 145 170
127 142 163
118 133 154
120 136 157
116 131 151
121 134 155
124 138 160
116 134 160
62 130 192
40 124 193
43 131 201
41 127 198
41 125 191
42 132 201
43 132 202
43 135 206
43 133 201
44 136 208
43 133 201
47 133 200
89 131 138
107 126 74
107 128 75
108 129 76
127 70 152
135 74 160
135 75 160
131 73 155
134 73 157
127 70 149
125 70 150
132 72 155
130 71 154
128 70 149
120 66 142
125 75 148
123 85 148
124 85 150
124 88 150
127 88 153
119 83 145
119 84 145
123 86 149
126 89 153
123 105 155
131 138 169
133 149 174
134 150 175
165 175 198
175 178 195
165 161 173
165 164 178
170 186 204
159 180 191
163 176 191
174 180 196
191 204 226
173 189 211
145 162 185
131 149 173
132 150 175
128 145 169
129 146 170
128 145 169
129 146 170
131 149 173
130 148 173
129 147 171
73 130 132
34 120 111
34 119 110
34 120 110
34 120 110
35 121 112
35 123 114
34 121 113
34 120 111
34 120 112
34 117 109
33 117 107
31 112 106
20 100 109
18 100 112
18 99 112
18 99 112
18 96 110
17 93 106
88 122 141
131 148 173
134 151 176
130 148 173
131 147 172
133 151 176
131 149 173
132 148 174
132 150 175
131 148 174
130 148 173
128 143 168
129 145 171
126 140 166
128 144 169
126 141 167
123 139 164
122 135 161
100 107 137
87 87 122
77 73 110
83 82 118
82 68 130
86 49 152
91 51 157
94 53 160
91 52 159
88 55 149
78 88 95
73 87 82
77 91 86
79 93 89
79 92 88
78 91 87
74 88 85
74 87 84
74 87 84
74 87 84
74 86 83
79 93 88
74 88 83
74 87 83
72 87 83
98 120 122
109 134 141
105 131 139
120 138 159
124 141 166
128 144 169
125 143 168
129 145 171
148 166 190
168 186 210
186 203 227
190 208 232
193 211 235
196 214 238
200 217 241
204 221 245
203 220 244
202 219 244
188 204 229
123 138 181
103 109 120
103 103 109
94 83 86
101 104 108
106 111 117
108 113 120
111 116 123
110 116 123
106 112 118
102 108 115
107 112 118
106 112 118
109 114 121
106 110 116
110 115 121
109 115 121
109 115 121
108 115 121
111 116 124
111 115 123
110 116 123
103 108 129
71 74 145
62 66 144
66 69 139
86 90 134
104 110 121
109 114 120
107 113 120
121 95 119
160 123 165
150 118 160
141 110 147
145 115 156
158 124 167
146 114 149
86 81 97
104 109 115
104 108 116
104 110 116
97 103 108
71 87 83
65 86 79
66 87 79
69 92 83
69 94 84
70 94 84
82 99 96
99 106 109
103 110 114
103 109 115
107 113 119
109 115 121
108 113 118
111 117 122
109 115 121
110 116 123
110 115 122
108 113 118
107 112 117
111 116 122
108 113 118
110 117 123
110 115 121
109 115 121
111 117 124
111 118 124
111 116 121
108 114 121
107 114 120
104 112 117
104 113 118
102 111 117
103 110 115
86 98 100
70 84 85
65 88 86
62 87 84
92 103 107
95 105 108
103 110 115
107 113 119
109 116 122
108 115 121
108 114 120
110 115 120
104 108 112
99 99 101
90 86 84
94 88 85
101 102 105
97 103 108
94 99 104
109 114 120
102 106 112
75 47 92
98 98 131
132 151 175
126 135 165
103 76 125
94 39 110
94 32 110
95 33 111
94 32 110
95 33 111
95 36 113
105 76 128
116 120 150
130 148 171
129 146 169
130 146 169
129 146 169
131 149 172
122 142 169
59 132 197
41 126 194
42 126 194
41 123 188
41 125 193
42 131 200
41 128 196
42 128 196
42 128 195
40 125 185
42 130 197
78 126 148
105 125 73
105 125 73
104 124 73
104 123 72
135 74 158
123 66 143
126 69 150
124 68 146
134 74 158
133 72 156
122 67 144
121 67 144
120 66 141
120 66 142
118 64 139
118 72 142
115 78 139
120 83 145
116 80 140
117 81 143
114 79 138
116 80 140
114 83 140
110 90 136
124 131 160
126 137 164
127 142 168
129 144 170
129 143 170
147 163 187
175 191 213
192 208 230
199 216 239
197 214 237
194 211 234
185 203 227
157 174 198
134 151 175
133 150 174
132 149 172
132 151 176
135 152 175
134 152 176
135 153 177
135 153 177
134 151 175
131 148 171
92 130 139
33 116 105
34 118 108
33 116 105
34 119 110
33 118 109
33 115 105
33 116 107
32 113 103
33 114 105
34 117 107
32 112 104
34 117 108
32 111 103
30 112 107
18 93 104
18 96 109
16 89 102
16 89 101
18 98 111
100 129 150
133 151 175
135 153 178
131 149 174
127 144 169
132 150 175
131 149 174
131 148 174
125 142 168
130 147 171
132 148 174
132 149 175
128 143 169
126 141 167
122 137 163
116 129 155
115 127 152
112 119 146
98 102 131
86 88 113
73 74 98
66 69 92
55 55 80
83 56 141
88 49 153
88 50 152
86 49 150
82 58 137
75 88 84
75 89 84
75 89 85
76 90 86
73 86 82
76 90 86
75 89 85
73 86 82
71 84 80
74 87 84
72 84 81
74 85 81
73 86 83
72 86 81
73 87 82
86 105 105
103 126 134
115 135 154
121 138 162
120 139 162
124 142 166
125 143 167
124 142 168
125 143 168
131 149 174
144 163 186
155 174 199
161 180 204
177 194 218
183 201 226
182 191 231
172 168 233
160 136 232
147 105 228
141 100 218
122 102 169
112 118 125
97 88 91
88 88 88
108 118 117
110 116 122
107 112 119
110 115 121
109 115 120
111 117 123
111 116 122
108 113 118
111 117 123
110 115 121
108 113 118
107 113 118
109 114 121
106 112 119
106 111 119
109 115 120
97 102 122
44 45 147
31 31 149
30 30 144
31 31 148
32 31 151
54 56 143
100 104 126
108 112 120
100 88 114
82 62 138
121 89 131
100 70 89
119 86 106
162 124 163
128 101 133
78 67 86
103 108 116
102 107 113
95 99 105
90 95 100
77 84 86
57 74 70
61 80 73
66 89 79
63 86 77
68 84 80
87 95 97
102 108 113
105 110 114
106 112 118
104 111 116
108 114 120
109 115 120
106 112 119
112 118 124
105 110 116
108 114 119
107 114 120
109 115 122
109 114 120
107 113 120
109 114 119
107 112 118
112 118 124
112 117 123
110 116 122
107 114 118
108 115 121
108 114 119
110 117 123
106 114 120
107 115 120
105 114 117
93 102 106
92 101 104
88 99 101
85 99 99
102 110 114
101 108 113
105 113 118
107 114 120
110 115 121
107 114 119
108 114 121
107 112 118
98 101 104
86 83 82
89 84 81
92 92 93
108 113 120
98 104 109
105 111 117
106 112 118
90 84 100
79 54 100
98 94 125
110 104 141
94 46 111
90 30 104
90 31 105
92 31 108
93 32 109
93 32 108
93 32 108
94 32 110
92 32 108
94 36 110
113 103 143
130 145 169
131 149 172
127 145 168
130 147 171
125 144 169
70 125 181
38 116 180
42 129 201
39 121 185
42 130 198
40 122 187
40 124 187
40 123 187
40 125 190
39 119 180
49 116 167
94 119 94
103 122 72
102 120 71
101 119 70
103 123 72
120 66 143
128 69 150
119 65 141
121 66 143
125 69 147
126 69 147
121 67 143
123 66 143
118 64 141
121 67 143
118 64 139
112 89 139
106 84 129
97 65 116
98 67 119
98 68 120
94 65 114
94 67 115
93 79 116
107 108 136
117 123 150
121 130 156
120 131 157
120 127 154
128 143 168
120 136 160
126 139 166
141 157 183
151 170 194
149 167 191
139 157 182
135 153 177
133 152 177
131 149 172
132 149 174
135 152 177
132 151 175
132 149 173
134 151 176
133 151 176
132 151 176
128 146 169
128 149 171
51 122 115
32 114 104
32 114 104
32 113 102
31 110 101
32 115 105
32 115 105
33 114 105
33 115 106
32 112 103
31 108 100
31 109 99
32 114 105
31 108 100
32 113 104
22 95 99
16 87 98
16 91 103
17 94 107
51 103 118
118 138 161
130 147 172
131 149 174
129 146 172
132 150 174
129 146 171
130 148 173
130 148 173
130 147 173
128 144 171
132 149 175
130 147 173
128 144 171
123 139 165
119 133 161
124 139 164
122 135 162
119 131 159
115 128 154
114 124 152
109 120 147
106 117 144
104 113 141
103 109 145
84 66 140
84 47 147
80 45 140
79 58 131
74 88 84
71 83 79
74 87 82
71 83 79
72 84 81
71 84 80
71 83 79
71 83 79
73 85 81
68 80 77
71 84 80
73 86 82
70 82 78
69 83 78
69 81 78
84 99 102
107 126 142
115 132 153
117 135 159
116 134 157
120 140 165
121 139 163
123 142 166
126 145 170
124 143 169
126 145 171
126 145 172
128 148 173
132 151 177
151 147 212
146 106 226
144 102 220
146 103 222
140 99 214
144 103 224
132 95 198
108 111 121
103 105 111
95 116 102
106 135 117
106 127 117
110 117 122
110 115 121
110 115 121
106 111 117
108 114 120
111 116 122
110 115 120
109 114 121
108 113 119
111 117 124
108 114 119
105 111 117
108 113 119
109 113 120
63 66 135
29 29 137
29 29 138
29 29 141
29 29 142
30 30 141
30 29 140
52 54 141
93 96 120
100 97 113
48 38 106
45 34 112
70 51 67
79 59 73
106 84 104
98 78 104
84 68 90
100 102 111
97 99 106
94 97 103
88 93 97
91 95 99
72 78 79
59 69 66
63 71 68
61 70 69
77 83 85
88 95 97
96 103 106
99 104 107
104 110 115
105 111 116
108 114 120
107 113 119
108 114 120
109 115 121
108 114 120
109 114 119
107 112 117
108 113 119
110 115 121
109 114 120
108 114 119
110 116 122
108 114 120
109 114 119
111 117 123
106 114 118
111 117 122
108 115 120
109 115 121
109 115 120
110 116 122
104 112 117
106 113 117
98 107 110
98 107 109
99 108 112
106 114 119
104 110 115
110 117 122
109 115 122
109 114 120
105 112 118
105 110 115
103 108 113
91 93 95
74 71 70
86 82 81
105 109 114
108 113 119
103 109 114
111 117 123
104 109 116
79 58 89
72 50 91
89 63 110
91 31 108
87 30 102
91 31 105
91 31 105
92 31 107
91 31 106
89 30 102
93 31 107
91 31 105
90 31 105
94 32 108
94 32 108
107 88 132
130 148 172
132 149 172
136 154 178
132 152 178
77 129 183
35 107 169
39 121 186
39 120 183
37 115 178
38 119 181
38 118 180
37 114 174
38 118 179
40 124 188
64 112 141
94 110 65
101 119 70
95 111 65
100 119 70
101 117 69
119 66 140
115 65 139
120 65 141
122 66 143
119 65 140
117 65 140
118 65 141
119 64 140
114 63 137
120 66 141
121 67 141
103 88 128
92 87 114
89 81 107
77 69 94
77 68 94
87 86 111
94 91 117
100 102 126
115 119 146
112 117 143
116 123 149
124 137 163
119 128 154
127 139 165
130 141 169
128 142 168
132 146 171
129 146 171
126 141 166
132 149 175
128 144 169
133 150 173
131 148 173
133 151 176
135 153 178
134 151 175
134 152 176
134 152 177
134 152 177
134 153 178
135 154 179
102 136 149
32 110 101
31 112 101
33 115 106
32 113 103
33 116 106
32 113 103
31 109 99
33 114 104
32 111 102
32 114 106
31 108 99
31 109 102
32 110 101
31 109 101
32 112 103
27 102 100
15 86 96
16 86 99
30 87 100
91 118 137
131 149 173
132 150 176
130 149 174
131 149 174
131 149 174
129 148 172
132 150 175
134 152 177
124 140 166
131 149 174
127 144 170
124 141 167
128 144 169
127 144 170
129 146 172
122 138 165
124 138 168
125 141 168
125 139 168
120 135 162
120 134 161
117 121 146
147 144 166
146 145 166
140 131 159
119 102 145
89 65 133
73 50 125
75 88 85
70 83 78
70 83 78
70 83 79
73 86 82
72 84 80
72 83 80
69 81 78
68 79 76
69 80 76
69 81 77
71 83 79
68 80 76
64 76 73
68 80 77
80 95 98
101 117 130
116 134 152
114 133 150
118 137 157
117 136 159
122 141 163
120 138 160
127 146 171
126 145 170
128 146 171
128 148 173
125 143 167
136 118 201
145 103 223
139 98 211
142 101 217
138 98 211
137 97 209
139 98 213
134 95 205
118 100 161
108 111 119
98 113 105
101 128 110
102 130 112
103 124 114
107 113 118
109 114 120
109 114 120
107 113 119
109 115 121
110 116 121
109 115 121
108 113 118
110 116 123
108 114 120
108 113 120
108 113 122
106 111 119
57 59 127
28 27 130
28 27 131
28 27 129
29 28 135
29 28 134
29 29 137
29 28 135
64 66 128
99 99 111
79 67 90
59 45 85
86 66 93
92 71 96
97 75 102
89 68 95
80 69 86
92 92 99
97 98 106
92 94 102
96 99 105
93 97 102
88 91 96
77 82 84
77 82 84
88 93 97
97 102 106
94 100 104
104 109 114
100 105 110
107 113 119
105 111 117
107 112 118
106 112 117
106 112 116
109 115 121
108 113 119
106 112 116
108 114 120
108 113 118
107 113 119
109 115 121
107 113 116
107 112 117
109 115 120
111 117 122
111 116 121
111 116 122
111 118 122
105 111 115
111 117 121
106 113 119
104 112 117
106 114 118
103 119 108
105 138 94
100 149 69
99 149 61
100 137 83
106 117 115
106 113 118
108 114 118
107 114 119
103 110 115
106 112 116
105 109 114
101 103 106
79 78 79
92 94 98
106 110 115
109 114 119
103 109 115
107 112 118
97 95 114
81 68 123
76 46 97
87 31 101
87 29 100
85 29 99
85 29 98
83 28 97
86 29 99
88 30 101
89 30 103
84 29 99
91 31 105
90 31 103
89 30 103
92 31 106
93 32 107
110 101 139
127 145 169
130 148 171
132 151 173
99 128 162
34 104 164
36 110 171
37 115 174
36 113 175
37 116 177
36 113 175
35 112 171
37 116 173
36 112 167
79 114 117
97 114 67
97 114 67
95 111 65
101 119 70
100 118 69
116 62 134
121 65 140
116 63 138
117 63 137
118 65 139
111 60 131
119 65 140
113 61 134
114 62 134
114 63 135
113 74 136
117 119 150
124 134 160
123 135 159
115 124 149
119 129 154
119 130 155
125 137 161
124 135 161
123 133 160
125 135 162
129 142 169
131 145 170
129 142 169
130 146 172
130 144 170
132 147 172
131 147 174
130 146 170
130 147 172
131 148 173
135 153 177
132 150 174
131 148 172
132 150 175
132 150 174
130 150 174
132 151 175
134 151 175
132 149 173
132 149 174
132 150 174
86 127 135
32 112 101
32 111 101
33 113 104
31 111 100
32 113 102
31 109 100
31 107 97
30 106 97
32 111 101
31 107 98
32 112 103
29 103 96
32 110 101
31 106 97
31 110 102
29 102 96
16 85 96
21 77 89
79 107 125
124 144 166
127 145 169
126 144 169
128 144 170
130 148 173
131 150 175
129 148 172
131 148 173
128 145 169
129 146 173
130 149 175
129 147 173
129 146 173
130 146 172
124 138 166
123 139 166
128 144 171
122 137 164
122 137 165
119 133 160
134 137 160
167 158 177
174 165 184
174 166 188
171 165 188
172 165 188
174 166 188
176 166 186
164 152 170
106 105 112
70 83 78
69 81 77
68 80 75
69 80 76
70 81 78
68 80 76
69 80 76
64 75 71
69 81 78
67 78 75
68 79 75
65 77 74
64 75 72
68 80 76
102 118 133
112 129 147
127 146 168
124 142 162
120 140 160
120 139 160
128 147 170
126 145 169
129 148 172
127 146 170
127 146 169
126 145 171
136 129 196
141 100 215
141 100 215
142 100 215
134 96 209
133 95 201
134 95 201
134 94 201
133 93 200
124 87 185
110 111 125
102 111 111
93 118 101
100 127 110
99 125 108
104 120 113
109 114 120
111 116 121
108 114 119
106 111 116
107 112 118
105 110 117
107 113 119
107 112 117
110 115 122
106 112 117
105 110 115
101 105 112
65 67 125
26 25 120
27 27 128
27 26 125
27 26 126
27 26 127
28 27 129
28 28 131
27 26 128
82 81 107
87 85 100
80 71 93
72 55 79
86 64 91
84 64 88
84 70 87
92 88 98
92 91 99
99 101 108
92 93 102
94 97 104
96 101 107
97 101 107
96 101 108
93 98 103
93 98 101
98 103 107
100 106 111
101 107 113
106 111 116
103 108 114
105 111 116
106 112 117
106 112 118
110 116 122
108 113 120
108 113 119
109 115 120
108 113 118
107 114 118
109 115 120
105 111 114
108 113 118
107 113 117
104 110 114
111 117 122
108 114 119
108 116 118
108 115 119
108 115 119
106 114 118
109 115 119
108 116 118
102 129 97
97 150 51
98 155 41
97 153 41
97 153 41
96 151 40
99 147 65
107 115 115
107 112 117
109 115 120
105 111 117
104 109 114
104 109 113
100 104 108
95 98 102
101 105 110
109 113 119
103 108 114
108 113 120
105 110 117
89 80 135
92 85 152
93 83 150
88 55 120
85 29 100
87 29 99
83 28 97
82 28 96
87 29 99
86 29 100
85 29 99
86 29 99
85 28 97
86 29 99
86 30 101
90 31 104
89 30 103
92 43 108
128 146 171
129 148 171
132 150 174
125 146 172
64 113 164
36 112 171
33 104 164
35 107 165
34 108 166
33 103 158
36 111 174
33 103 156
32 102 153
79 104 95
94 111 65
98 115 68
91 107 62
92 108 64
97 116 67
110 60 128
109 60 129
104 57 123
108 59 127
114 62 135
106 57 125
115 62 135
112 62 133
105 56 124
110 67 132
123 125 157
132 148 173
128 143 167
128 142 168
129 144 171
127 138 165
131 146 171
128 142 167
130 146 171
124 151 165
89 152 122
77 154 110
59 156 91
64 153 94
72 153 103
85 152 118
124 145 164
129 146 171
133 151 175
134 151 176
132 150 175
133 151 175
127 144 168
133 151 176
131 149 172
134 151 175
133 151 176
135 154 178
133 150 176
131 149 173
134 151 175
129 145 169
62 117 117
31 108 99
31 110 100
31 108 99
30 107 96
30 104 96
31 108 99
31 108 99
31 108 99
30 104 96
30 106 98
31 107 98
30 104 97
30 103 94
30 104 96
29 104 95
28 99 93
40 87 96
79 102 119
106 125 147
113 130 154
119 137 160
114 133 156
123 142 167
122 140 164
122 139 162
124 142 167
127 145 168
124 143 167
131 149 174
127 144 169
127 145 171
127 144 170
130 148 174
125 141 167
131 148 173
128 144 171
125 142 169
127 143 170
162 157 176
179 168 188
172 165 188
167 163 188
164 162 188
163 161 188
163 161 188
164 162 188
167 163 188
172 165 188
177 166 184
148 139 149
66 75 72
65 77 73
60 72 68
67 79 75
68 80 76
63 73 71
62 74 70
65 76 73
61 71 68
61 72 70
64 75 72
61 72 69
68 79 82
118 136 157
126 142 166
123 141 163
129 147 171
129 148 172
129 149 173
124 141 167
125 144 167
129 148 172
128 145 171
130 149 172
132 140 184
137 100 208
134 95 204
138 98 210
136 96 205
135 94 201
132 94 200
135 96 204
127 89 191
124 87 185
119 84 179
120 100 160
108 114 120
94 116 101
94 116 99
92 114 97
98 123 107
108 118 120
105 111 115
106 112 118
108 113 117
106 112 117
104 110 115
106 111 116
105 109 115
106 111 117
106 111 117
105 109 115
108 113 118
79 84 113
28 28 117
26 25 120
25 24 114
25 24 113
26 25 118
25 25 116
25 25 119
26 25 122
70 70 103
80 79 90
80 78 93
67 63 75
75 70 79
64 60 71
84 78 88
90 88 97
88 87 96
96 97 106
98 102 110
97 101 107
100 105 111
99 104 110
97 100 106
99 105 110
101 107 111
100 106 110
102 108 113
103 108 112
104 109 114
105 110 115
104 109 114
103 108 113
109 113 118
109 115 121
108 114 120
105 111 116
108 114 118
109 114 121
109 115 120
108 114 118
104 110 115
108 113 118
106 112 116
106 111 116
105 112 116
107 113 116
107 113 117
109 115 119
108 114 119
105 114 117
105 114 115
101 136 82
92 145 41
95 149 40
92 146 39
92 144 38
93 146 39
92 144 38
91 143 38
107 122 111
106 114 118
104 110 114
105 109 114
106 112 118
104 110 113
105 109 113
104 108 113
106 110 115
109 113 119
108 113 118
107 112 119
88 85 108
88 80 141
89 82 146
94 86 153
92 85 151
82 55 116
84 29 98
81 27 95
80 27 94
80 27 94
89 30 101
83 28 96
86 29 96
89 30 103
84 28 96
86 29 97
88 30 102
89 30 103
86 29 100
113 113 145
132 150 174
125 146 172
125 145 171
111 137 168
54 107 161
32 100 158
36 109 170
32 100 156
32 100 159
32 103 158
33 104 158
34 102 156
80 108 105
84 99 58
91 106 62
85 101 59
94 110 64
90 105 63
111 59 128
106 57 124
112 59 130
102 56 121
100 54 120
98 53 117
96 52 115
105 56 122
106 64 124
122 121 156
129 142 170
127 141 166
129 144 169
130 145 172
127 143 168
130 146 171
131 148 174
124 148 164
74 152 106
20 155 56
4 151 49
4 156 50
4 152 49
4 157 51
4 153 50
4 153 49
18 152 54
74 150 105
119 150 157
130 147 171
133 151 175
133 151 176
129 146 169
133 151 175
131 148 174
132 151 176
129 148 171
131 149 172
128 147 170
133 152 177
129 148 172
131 149 173
72 120 122
30 105 96
30 108 98
32 111 101
31 108 98
28 102 92
30 105 95
28 98 89
29 101 92
30 104 95
31 109 99
29 100 91
27 96 89
30 102 95
30 103 95
30 104 96
35 102 95
70 90 102
81 97 112
90 108 124
103 121 139
109 127 148
115 133 155
115 133 155
118 137 159
123 140 165
119 138 162
126 143 166
126 143 169
127 145 169
127 146 171
131 148 172
127 145 170
131 148 174
126 144 168
129 147 172
129 147 172
131 148 173
168 161 177
178 168 187
172 165 188
167 163 188
163 161 188
162 161 188
160 160 188
160 160 188
162 161 188
164 162 188
168 163 188
173 166 188
181 169 188
156 146 158
59 69 66
63 73 69
62 72 68
58 68 65
64 75 73
62 72 69
65 76 72
60 70 68
64 75 71
61 72 68
60 72 68
93 106 119
130 149 173
128 145 168
130 148 172
128 146 171
130 147 172
127 145 169
129 147 171
129 147 171
128 147 171
132 152 175
132 150 174
135 125 192
135 96 208
139 98 211
137 97 206
130 92 199
134 94 201
134 94 200
121 85 183
121 86 183
123 87 188
111 77 165
116 80 164
108 108 125
98 108 105
86 107 92
91 114 99
93 117 102
88 110 99
103 109 113
101 108 112
104 109 114
106 111 117
105 111 116
104 109 115
106 111 117
104 109 116
107 112 117
104 109 117
102 105 111
97 102 110
53 55 109
25 24 113
23 21 101
22 21 101
24 24 111
25 24 115
24 23 111
25 25 116
68 68 100
77 77 89
83 84 97
87 86 97
81 79 90
85 82 92
83 83 92
96 96 105
98 100 107
98 100 107
101 104 112
100 103 108
103 106 113
99 105 112
101 106 112
103 109 115
96 102 108
100 104 109
105 109 114
102 106 113
107 113 118
106 113 117
104 109 115
107 113 117
105 111 117
107 111 117
107 112 116
106 112 116
105 109 114
107 112 116
108 114 119
108 114 119
106 111 113
106 112 116
109 116 122
107 112 117
105 113 117
104 110 113
106 112 117
106 113 116
103 111 112
107 114 117
98 124 92
87 138 37
93 146 39
89 140 37
93 146 39
84 132 34
84 133 35
88 139 36
88 137 36
103 120 106
107 113 117
108 113 119
107 113 118
107 111 115
108 114 120
105 109 114
109 114 119
106 111 117
108 114 120
109 115 121
103 106 113
81 71 119
86 79 139
90 82 145
89 81 144
90 82 146
90 82 146
81 46 106
76 26 88
81 28 96
77 26 89
78 26 91
82 28 95
80 27 94
82 28 95
85 29 99
85 29 98
89 31 104
86 29 99
88 30 100
100 88 126
127 146 171
120 142 169
123 144 168
124 144 169
109 135 164
59 105 154
30 96 154
28 89 143
30 95 151
30 95 151
30 97 152
32 100 155
58 94 117
90 106 62
83 97 57
95 111 65
92 109 64
86 102 59
96 50 112
96 50 113
94 50 111
94 48 109
100 53 117
94 51 111
91 49 107
99 72 120
108 103 138
123 136 161
127 142 166
124 135 162
123 136 161
128 142 168
130 146 171
124 136 161
108 147 145
36 153 68
4 153 49
4 155 50
4 154 50
4 158 51
4 156 50
4 151 49
4 151 49
4 152 49
4 147 47
4 149 48
29 147 60
105 151 142
132 150 174
136 154 179
130 149 174
131 150 174
131 150 175
128 147 170
128 147 171
129 146 170
130 149 173
129 147 171
129 148 172
125 143 165
76 118 123
28 101 91
30 105 95
29 102 92
29 105 94
30 105 95
29 101 92
29 102 93
29 103 94
29 99 91
30 103 95
27 96 88
30 103 94
29 100 93
29 100 92
28 97 89
61 106 107
86 103 118
99 118 135
107 126 147
110 131 152
114 133 153
117 136 158
123 143 166
119 137 161
125 143 166
125 143 166
127 144 170
125 143 166
125 144 169
126 145 169
126 143 168
129 147 172
128 146 171
129 147 171
130 148 172
128 146 170
151 149 166
182 170 187
176 167 188
171 165 188
167 163 188
164 162 188
162 161 188
161 161 188
161 160 188
163 161 188
165 162 187
167 163 187
171 165 188
177 167 188
182 169 185
129 124 131
56 66 63
60 71 69
62 72 70
57 68 65
60 70 66
61 71 67
57 67 64
54 63 61
57 68 65
71 83 90
125 143 165
128 147 169
130 148 173
126 145 169
129 148 172
126 146 167
129 148 172
124 142 166
131 150 173
129 147 172
127 146 169
131 149 173
135 106 202
130 92 200
131 92 197
128 91 195
130 91 196
124 87 183
124 87 188
128 89 190
125 88 186
122 86 181
119 83 176
119 83 177
113 87 158
104 108 117
89 107 93
85 104 87
85 107 92
87 108 93
97 114 106
101 107 111
101 107 111
101 108 112
101 107 113
103 108 114
106 111 116
105 110 115
101 106 113
100 104 109
102 106 115
94 99 107
91 95 111
47 48 101
22 21 98
21 21 98
21 20 96
24 23 107
22 22 101
25 26 103
61 62 88
76 76 90
84 85 98
93 94 103
90 90 98
88 89 100
92 93 104
94 94 103
99 101 109
103 106 114
95 98 104
101 104 111
99 103 108
104 108 116
100 104 109
105 109 115
99 104 109
103 107 112
105 110 116
105 110 116
105 109 114
102 106 111
107 111 117
106 111 115
105 110 114
107 111 116
106 111 117
103 109 113
108 114 118
109 113 118
106 112 116
105 111 116
106 111 116
106 113 117
108 114 120
107 112 116
103 110 111
105 111 114
100 106 109
103 111 110
98 108 107
95 112 95
90 137 49
92 144 38
89 139 36
88 138 36
84 132 35
87 134 35
84 132 35
85 133 34
86 132 38
104 118 109
107 112 117
107 114 117
107 113 118
106 110 115
107 112 117
102 106 109
104 109 114
109 114 118
108 112 117
106 111 117
84 80 112
83 75 132
89 81 141
88 81 143
87 79 139
90 83 147
92 85 152
87 78 141
77 28 89
78 26 88
76 26 88
76 25 88
86 29 97
81 27 93
77 26 89
83 28 95
83 28 96
84 29 97
84 28 96
86 29 99
91 67 112
118 137 162
108 128 153
112 133 161
107 126 150
101 123 149
72 95 124
55 87 126
27 77 124
33 87 137
23 77 127
29 85 135
25 81 132
52 86 117
83 98 60
82 96 56
81 96 57
85 102 59
91 107 62
97 87 118
77 46 90
74 39 85
77 39 89
80 41 93
77 50 91
82 66 99
88 85 111
105 109 133
107 113 138
110 116 142
119 128 153
124 133 160
122 134 158
128 143 167
111 142 146
20 150 54
4 149 48
4 151 48
4 149 48
4 152 49
4 147 47
3 144 46
4 150 48
4 149 48
3 144 46
4 149 48
3 143 46
3 143 46
19 145 53
111 149 149
133 150 175
133 151 176
133 151 176
131 147 170
130 149 172
131 151 174
130 148 173
131 150 173
127 146 168
132 151 174
129 147 170
114 137 155
28 99 90
28 99 89
28 101 91
29 103 93
29 100 90
28 98 89
27 97 88
27 95 87
29 102 93
27 96 86
27 94 86
27 93 85
28 98 90
27 94 86
26 91 84
85 117 126
121 140 162
122 139 161
120 138 159
123 142 165
125 144 168
124 143 165
121 141 164
123 142 165
126 145 170
125 145 169
131 152 176
129 148 171
129 146 170
126 144 166
134 152 176
129 148 171
125 143 167
131 150 173
133 151 176
128 144 165
177 165 179
181 169 188
176 167 188
172 165 188
169 164 188
167 163 188
166 162 188
165 162 188
165 162 188
166 162 187
161 156 178
161 154 173
166 157 175
176 167 187
183 170 188
172 158 173
73 77 77
53 63 59
53 62 59
51 62 58
59 69 65
55 66 62
50 59 57
55 63 62
81 93 103
123 140 163
115 133 154
121 139 160
121 140 160
124 142 165
122 139 162
128 147 170
127 144 166
122 139 161
126 145 167
123 141 165
122 142 163
129 144 174
126 90 188
131 92 196
127 89 191
127 89 189
123 86 185
128 90 196
127 90 194
121 85 182
122 85 179
114 80 171
117 81 172
109 75 161
116 81 169
97 88 120
99 108 106
77 95 78
77 97 83
90 113 97
86 107 94
93 101 102
97 104 106
98 104 108
101 107 111
102 107 114
102 107 113
107 112 117
100 104 109
100 105 112
103 107 114
98 103 109
95 97 106
90 93 104
58 59 99
26 26 94
21 20 94
19 18 88
32 31 98
47 45 85
71 71 85
73 74 88
78 80 94
89 91 101
91 93 99
88 90 101
93 95 103
93 95 103
99 103 110
100 104 109
94 98 105
97 100 107
102 107 112
100 104 109
103 107 114
100 105 110
105 110 115
106 110 117
100 105 110
103 109 113
106 111 116
103 107 112
104 108 113
104 110 115
103 107 111
108 113 118
106 111 116
103 108 113
103 108 112
104 109 114
106 111 114
110 116 121
104 108 113
98 104 107
106 112 115
102 108 110
104 111 111
101 108 109
104 112 114
101 110 109
98 108 108
84 116 67
86 133 35
84 130 34
87 136 36
82 128 34
79 122 32
80 123 31
81 125 32
82 127 32
86 119 63
102 108 112
105 110 113
104 110 116
108 114 118
109 114 120
106 111 116
107 111 116
106 111 115
107 111 117
107 113 119
98 102 112
78 71 123
83 75 134
84 77 136
84 77 135
87 80 140
86 78 139
88 81 142
93 85 149
78 48 106
72 24 86
76 25 87
77 26 88
72 24 83
75 25 88
78 26 90
75 25 88
82 27 92
82 28 93
82 28 95
82 28 96
90 64 110
118 139 167
118 136 160
98 118 146
103 124 151
104 123 146
79 99 125
69 88 114
56 72 97
54 71 93
46 60 80
42 62 86
48 67 91
65 85 108
80 96 83
80 94 55
82 97 56
82 97 57
85 100 59
94 96 117
90 88 111
85 85 104
78 75 97
81 80 101
88 90 110
90 90 113
99 103 124
115 123 147
114 124 148
114 122 148
121 132 158
121 132 157
123 136 162
125 145 164
26 142 57
4 148 48
4 144 46
4 145 46
3 142 45
4 147 47
4 145 46
4 142 45
3 141 45
3 144 46
4 145 47
4 146 47
4 143 46
3 141 45
3 137 44
33 141 62
130 152 171
133 151 175
130 149 172
135 154 179
128 146 170
129 148 171
133 152 175
130 149 173
127 147 170
132 150 175
134 152 176
130 149 172
49 104 99
28 99 90
28 98 89
27 93 85
27 97 87
27 97 88
27 96 87
27 94 87
27 96 88
27 94 87
28 97 88
27 95 87
26 90 83
26 90 82
40 94 90
116 138 158
129 150 174
129 148 171
125 144 168
132 151 175
125 143 168
128 147 170
128 147 170
129 148 172
131 148 172
134 152 176
130 148 172
132 151 174
130 149 174
128 145 169
129 146 169
127 144 167
130 148 171
130 149 173
132 151 175
139 143 161
181 167 182
183 170 188
179 168 188
176 167 188
173 166 188
171 165 188
171 165 188
170 164 188
170 164 188
165 159 180
154 142 155
146 132 139
152 136 144
169 156 171
184 170 187
174 158 178
122 119 128
46 54 51
45 53 50
44 51 50
49 57 54
44 53 49
60 70 72
77 88 98
98 112 127
104 119 136
109 124 143
110 125 144
121 138 160
117 134 154
120 136 157
123 141 162
123 141 164
126 143 166
129 149 171
123 142 164
126 145 167
126 137 170
125 88 190
126 88 188
130 92 196
119 84 180
122 85 180
126 88 190
113 80 167
126 88 187
122 85 182
117 82 173
123 86 183
120 84 177
109 76 161
114 84 159
101 102 114
89 101 94
77 94 79
79 98 83
83 104 88
80 95 88
91 98 100
93 100 102
100 105 109
99 104 108
107 112 116
99 103 108
99 104 109
100 104 110
100 102 108
95 100 109
89 93 104
93 96 103
84 85 91
75 76 87
58 58 79
52 53 79
55 56 74
69 68 79
73 73 90
79 79 89
86 88 100
86 85 96
86 89 98
95 97 105
99 101 107
98 101 108
98 101 108
97 99 107
101 103 110
102 106 111
102 106 113
102 106 112
105 108 113
103 108 115
105 110 115
100 104 109
107 111 117
103 108 114
107 111 116
104 108 113
105 110 116
105 110 115
103 108 112
107 111 117
102 106 111
104 109 114
104 110 114
102 107 109
101 106 109
104 109 111
101 106 110
107 113 117
104 108 111
104 110 113
101 108 108
99 107 107
97 105 103
89 98 91
88 102 91
75 114 44
81 128 34
79 122 32
84 130 34
77 119 31
77 119 30
72 111 28
76 118 30
77 117 35
94 109 93
104 108 112
105 110 113
105 110 115
107 111 115
103 108 112
106 112 117
106 111 116
106 111 117
107 112 117
102 106 114
78 72 112
77 70 122
81 73 127
81 73 126
83 76 132
85 78 136
84 77 134
89 82 145
87 81 142
79 67 123
68 23 79
67 22 80
72 24 83
80 27 91
74 25 85
73 25 85
75 25 87
78 27 91
84 28 96
81 27 93
79 27 91
94 79 117
120 137 162
120 137 159
121 142 169
113 134 160
115 135 160
107 128 154
102 123 149
107 127 153
102 122 147
104 124 147
97 117 139
99 117 140
98 116 139
96 117 136
76 89 56
83 97 56
80 94 55
80 95 55
120 131 157
118 130 155
121 134 157
118 127 153
120 130 155
120 131 156
122 132 156
118 126 149
108 104 124
107 99 120
104 96 116
114 117 138
126 138 162
129 146 170
87 141 119
3 140 44
3 140 44
4 144 46
3 139 45
3 140 45
4 143 45
4 145 47
3 136 44
3 140 45
3 141 45
3 140 45
3 136 44
4 146 47
3 141 46
3 143 46
3 137 44
93 148 128
132 151 174
134 153 177
132 150 174
134 154 178
134 152 176
135 153 177
133 151 176
130 149 173
133 151 175
134 152 177
128 148 170
112 135 153
31 92 85
25 91 82
26 90 83
25 89 81
24 86 78
26 91 83
26 92 83
26 92 83
26 92 83
25 87 79
24 86 79
27 94 85
27 86 79
94 123 136
127 146 169
129 147 170
124 143 165
128 146 171
126 145 167
128 147 169
130 149 172
131 149 173
132 151 175
130 149 172
132 151 176
132 150 173
128 147 171
128 147 170
127 146 169
135 154 178
129 147 171
129 148 171
133 152 176
133 152 176
136 134 147
177 163 177
182 170 185
182 170 187
180 169 188
178 168 188
177 168 188
177 167 188
177 167 188
177 167 188
172 162 179
147 130 135
132 114 114
119 101 103
152 137 147
179 164 180
160 139 168
116 113 127
61 69 75
51 59 65
53 60 63
60 70 76
57 64 71
75 83 93
82 93 104
90 101 114
100 113 127
103 117 135
115 130 150
116 132 151
123 141 162
114 131 151
119 141 157
127 155 168
124 155 162
125 159 163
123 149 163
124 148 165
127 141 170
124 88 185
120 85 182
122 86 185
125 87 185
123 85 181
112 78 169
114 80 169
110 78 164
116 81 174
110 76 160
115 80 167
109 76 159
106 74 157
108 74 156
96 81 123
106 111 116
84 97 86
69 85 72
73 90 76
82 99 88
80 87 86
89 94 97
92 97 99
100 104 108
101 105 110
99 103 108
102 108 113
102 106 110
103 106 112
97 101 108
95 99 107
88 91 98
95 98 104
86 88 97
71 73 85
82 83 91
74 75 86
72 73 84
83 84 96
81 83 93
90 93 101
93 97 105
87 88 97
96 99 106
98 102 108
101 104 110
96 98 105
104 108 114
100 103 108
103 108 114
102 106 111
103 107 113
100 104 110
104 108 113
99 103 109
104 108 114
105 110 115
104 109 114
105 110 115
105 109 113
105 110 115
103 108 112
107 112 118
105 109 114
105 109 114
105 110 113
103 108 113
103 108 112
106 111 115
100 106 109
103 107 111
102 106 109
96 102 102
102 108 110
97 105 101
101 108 106
93 101 97
86 97 88
83 98 82
75 116 34
80 125 33
71 109 28
75 116 31
69 105 26
73 114 28
70 107 27
71 108 27
84 104 79
101 106 108
105 111 114
101 105 107
105 109 112
104 110 114
106 111 115
107 111 117
105 109 114
111 115 120
105 110 115
90 91 107
76 69 120
77 70 122
81 74 129
77 71 124
88 79 138
79 73 126
83 76 133
81 75 130
83 77 136
81 68 124
70 23 81
68 23 79
70 23 79
71 24 81
71 24 80
74 25 84
74 25 85
77 26 88
75 25 86
79 27 90
78 26 90
105 103 135
131 150 174
127 146 171
125 143 166
123 142 165
126 144 166
123 143 168
123 142 167
116 135 159
124 144 168
117 138 162
118 139 164
119 139 161
112 135 161
117 136 157
103 122 133
80 95 67
69 80 47
74 87 51
132 148 173
127 143 168
130 145 172
131 148 172
122 131 155
102 90 110
86 40 59
83 19 42
82 18 41
83 18 42
82 18 41
81 18 40
80 18 40
90 57 73
46 117 46
3 142 45
3 140 45
3 140 44
3 138 44
4 142 45
3 132 42
3 139 44
3 136 43
3 139 45
3 136 44
3 137 44
3 138 44
3 142 45
3 140 45
3 136 43
3 136 44
25 137 54
129 150 172
131 150 173
132 151 176
129 149 171
130 149 173
130 148 172
132 152 176
132 149 174
130 149 173
135 152 176
131 149 173
129 148 172
102 128 143
27 85 79
25 89 79
25 90 82
24 85 76
27 94 86
24 86 77
23 82 74
24 83 77
22 80 73
23 83 75
23 82 75
66 100 106
118 138 160
127 145 168
125 145 167
127 146 169
128 146 168
127 146 170
126 144 168
131 150 173
130 149 174
127 145 168
125 144 167
130 148 171
130 148 173
135 153 177
132 149 172
130 149 172
128 147 170
131 150 174
127 145 168
130 148 171
125 142 163
116 110 124
152 147 154
156 153 157
179 165 179
181 167 182
184 170 187
181 168 184
183 171 188
183 170 188
183 170 188
175 161 175
132 117 121
98 88 87
88 75 77
111 98 104
164 150 163
133 112 149
119 111 133
106 120 136
101 114 130
103 118 134
106 120 136
104 117 134
113 128 147
114 130 149
110 125 143
114 130 149
116 132 153
119 136 157
122 139 161
128 156 167
130 173 171
131 181 173
126 173 164
127 174 164
126 171 161
123 167 158
119 162 151
120 156 152
114 115 163
120 89 178
120 84 180
119 83 177
115 81 172
122 84 180
112 78 167
109 76 163
104 73 156
109 76 159
112 78 165
103 72 151
109 75 158
100 70 149
102 70 147
97 90 116
100 105 110
83 95 88
67 82 69
68 84 71
62 72 66
81 87 86
92 97 100
97 101 105
103 107 112
99 103 106
104 109 115
97 101 107
98 102 109
98 101 106
92 95 101
95 99 108
86 89 98
89 93 99
84 88 96
78 81 91
83 85 93
86 86 93
85 87 97
90 92 101
90 92 100
95 96 101
96 99 107
93 97 104
100 102 109
100 102 109
98 100 105
97 100 107
99 104 109
98 101 107
100 105 109
102 105 111
101 105 110
106 110 115
101 105 111
105 109 113
107 111 115
102 108 113
99 103 109
105 109 114
102 106 111
99 103 107
102 105 108
103 108 113
101 105 108
100 105 108
105 109 112
105 109 115
103 107 110
101 106 109
98 104 106
102 108 110
100 107 105
100 105 107
98 106 105
95 101 98
96 103 100
87 95 91
76 90 75
74 106 44
66 104 27
69 108 29
76 116 30
71 109 27
69 106 27
66 100 27
85 108 73
102 109 108
102 107 109
105 110 113
100 105 108
105 111 115
103 109 112
106 110 114
106 111 117
109 114 120
106 110 114
92 95 105
76 70 114
78 70 121
76 69 118
79 71 124
75 67 117
77 71 123
78 70 124
82 75 132
81 75 130
86 78 139
79 71 127
66 22 76
70 23 80
69 23 80
67 23 80
63 21 74
75 25 86
72 24 84
72 25 84
70 24 81
77 26 88
75 33 88
120 133 156
128 146 170
124 143 167
125 144 168
123 141 163
123 141 164
124 142 164
127 145 167
120 140 162
125 144 167
122 142 164
126 145 167
115 132 150
116 135 156
114 133 154
110 127 144
98 113 121
77 92 81
61 75 43
131 149 173
132 150 174
132 150 174
116 118 141
83 28 48
82 18 41
83 18 41
81 18 41
80 18 40
84 19 42
82 18 41
81 18 41
79 18 39
78 17 39
81 18 41
66 75 40
28 126 42
3 133 42
3 127 41
3 134 43
3 126 40
3 133 42
3 137 44
3 137 43
3 132 42
3 138 44
3 126 40
3 125 39
3 133 42
3 133 42
3 136 43
3 130 41
116 147 154
130 148 171
132 151 174
130 149 173
127 146 169
129 147 170
127 147 170
121 140 162
123 143 165
125 145 168
122 141 163
119 137 157
109 127 146
86 107 119
46 82 79
24 78 72
21 78 70
22 80 72
22 78 70
22 80 72
21 76 69
20 72 65
37 79 77
76 101 109
110 130 148
124 143 164
119 138 160
124 143 165
124 144 166
124 141 163
123 141 165
123 142 163
126 144 166
125 145 167
131 149 172
125 144 166
126 145 168
130 148 172
128 145 166
131 151 174
129 148 171
129 148 170
126 144 166
134 153 178
129 147 171
128 146 169
99 97 110
113 119 120
106 121 110
137 126 134
157 141 154
159 145 158
153 141 152
167 154 166
173 160 172
172 159 172
153 144 157
108 111 112
82 80 78
79 69 71
90 81 87
112 105 116
95 77 114
112 99 128
121 138 158
127 144 166
125 142 165
120 136 158
122 138 159
125 143 165
125 143 166
130 147 171
121 138 159
128 145 167
124 142 164
127 166 167
129 178 171
129 179 170
128 175 165
125 172 162
123 168 160
123 167 158
118 159 151
124 168 157
115 156 144
107 146 138
111 143 143
109 98 160
108 75 163
115 81 173
112 78 166
108 75 161
108 75 158
101 71 150
110 76 163
108 75 157
103 71 150
100 70 153
105 73 156
100 69 147
98 71 144
98 100 110
100 105 109
74 82 78
63 77 68
51 59 52
76 81 79
94 99 102
97 102 105
100 104 107
99 103 107
99 103 107
101 104 108
97 102 107
96 100 106
98 102 108
101 104 110
90 93 101
88 92 102
92 94 101
89 91 100
97 99 104
83 85 93
90 91 98
97 99 108
91 92 100
89 92 101
93 94 100
95 98 106
97 101 106
99 102 109
99 103 109
96 99 105
101 104 110
98 102 108
97 99 104
103 106 112
103 107 111
106 109 114
107 110 114
104 108 111
106 110 114
101 104 109
103 108 112
100 103 108
104 108 113
105 110 115
104 110 114
104 108 112
101 106 108
103 106 110
101 105 109
104 109 112
105 110 113
104 108 110
102 107 110
97 101 103
100 104 105
96 103 100
101 106 106
94 99 98
86 95 89
84 93 85
73 84 73
61 79 50
62 97 28
66 100 27
63 94 24
62 94 23
67 94 41
85 98 84
99 105 105
98 104 103
99 103 104
99 104 106
107 112 116
106 111 116
105 109 113
104 109 113
108 113 118
105 110 116
102 106 114
72 68 103
75 67 117
76 68 118
75 67 117
78 70 121
72 65 113
74 68 118
80 73 128
78 72 126
83 76 134
81 74 131
79 69 124
65 22 75
64 21 72
69 23 80
60 20 71
70 23 80
70 24 81
62 21 72
71 24 82
71 24 81
70 23 80
102 102 130
127 144 168
132 150 173
125 143 166
128 147 170
126 145 166
122 141 163
126 144 166
124 142 164
123 141 161
117 135 155
119 136 154
122 138 158
111 129 146
106 122 138
99 116 132
100 114 127
94 108 118
89 101 110
68 79 79
133 151 176
130 148 171
104 98 116
82 18 41
82 18 41
81 18 40
79 18 40
81 18 40
81 18 40
78 17 39
82 18 41
80 18 39
79 18 40
81 18 40
81 18 39
78 17 39
72 47 38
26 118 40
3 126 40
3 131 41
3 130 41
3 124 39
3 133 42
3 131 42
3 135 43
3 132 42
3 130 41
3 125 40
3 131 41
3 122 39
3 126 40
3 130 41
98 143 134
133 152 176
129 148 171
128 148 171
126 145 166
132 150 173
126 146 168
126 145 167
109 125 143
96 105 120
71 72 80
64 62 68
64 62 68
64 62 68
63 61 67
62 60 65
55 65 66
38 69 66
19 58 52
19 67 61
20 58 55
48 72 73
72 92 99
84 100 113
104 121 136
99 117 133
112 129 147
113 131 151
109 126 143
120 139 160
119 138 158
122 141 162
126 144 167
122 141 162
122 141 163
129 147 171
123 142 164
129 148 172
134 152 175
134 153 177
130 149 172
130 150 173
129 147 171
130 148 171
135 153 176
127 144 167
107 105 118
106 110 119
91 104 100
105 98 107
108 99 111
91 85 95
99 94 99
129 123 129
133 126 137
127 121 135
110 110 119
97 105 103
88 86 90
87 80 88
94 87 95
105 100 115
94 84 105
109 105 124
129 146 169
128 145 169
131 149 173
131 149 173
125 142 164
132 150 175
127 143 167
128 145 168
131 149 173
130 149 172
133 176 172
129 178 168
126 174 163
130 178 169
127 174 166
127 173 165
122 167 158
117 160 152
120 163 153
114 155 145
109 148 138
113 154 145
107 144 134
105 137 131
107 100 150
112 77 167
104 73 160
113 81 172
104 73 157
102 71 154
96 67 142
95 67 141
100 69 149
101 71 152
97 69 146
97 68 146
96 67 145
104 106 139
100 103 109
99 104 107
80 85 85
63 67 64
64 69 66
77 82 81
93 98 100
97 101 104
97 101 106
101 105 109
96 100 106
98 101 106
100 103 109
97 100 103
95 98 103
102 106 110
97 100 106
93 97 102
96 98 102
96 100 107
92 93 99
93 96 102
93 95 103
94 95 102
93 95 104
98 100 105
93 96 104
95 99 104
94 96 104
99 102 108
99 102 107
97 99 108
99 103 107
100 103 108
103 107 112
103 107 111
100 104 108
98 102 106
101 104 109
105 108 112
97 100 105
105 109 113
103 107 109
103 107 112
105 110 114
101 105 108
102 106 109
104 107 111
106 110 115
103 107 110
103 109 113
102 104 108
100 105 107
102 107 110
99 104 105
98 104 104
100 105 107
95 103 99
91 96 93
91 97 93
86 92 86
74 82 71
76 84 75
68 80 62
64 84 50
72 88 64
82 90 79
87 96 88
92 98 94
97 103 103
100 106 107
98 103 105
101 106 108
105 108 112
104 107 110
106 111 115
105 110 114
106 109 112
101 105 110
76 74 98
69 62 106
68 62 107
68 61 106
70 63 110
73 66 117
77 70 121
74 68 117
80 74 128
79 72 126
80 73 129
73 68 119
70 59 108
61 20 72
68 22 78
63 21 73
67 22 77
64 21 74
66 22 76
69 23 79
71 24 81
67 22 77
89 84 113
125 142 164
129 146 169
128 146 168
129 147 171
127 144 166
126 144 167
129 147 169
126 143 166
126 144 166
122 139 158
123 140 160
123 140 161
117 134 153
121 138 158
116 131 150
111 127 141
100 115 128
102 115 126
93 105 116
86 97 104
133 153 177
113 116 135
80 18 39
81 18 40
78 17 38
80 18 40
81 18 40
79 17 39
81 18 40
82 18 41
80 18 40
79 17 39
79 18 39
78 17 39
78 17 39
77 17 38
77 17 38
70 45 37
22 113 38
3 127 40
3 130 41
3 118 38
3 125 40
3 124 40
3 119 38
3 119 38
3 129 41
3 130 41
3 123 39
3 122 39
3 127 40
3 128 41
88 132 120
131 149 172
128 148 171
131 150 173
130 149 172
126 146 169
121 140 161
92 105 118
64 61 67
65 62 68
65 62 66
64 62 67
64 62 67
63 60 65
62 60 65
63 60 65
62 59 64
61 59 64
56 57 62
54 65 70
64 78 86
76 90 99
94 110 123
92 109 122
107 124 141
106 125 142
115 132 150
112 131 150
119 137 157
118 137 158
119 137 158
118 138 158
125 144 165
124 143 163
125 145 167
127 147 170
128 148 171
131 149 172
132 150 173
128 147 170
131 150 173
131 149 173
131 148 171
129 149 172
130 148 173
132 150 173
118 118 135
113 110 125
110 108 119
117 113 129
110 105 119
108 104 117
107 103 117
114 109 123
115 111 124
115 109 124
107 104 118
101 101 109
99 94 106
106 100 111
107 102 115
109 103 118
104 97 116
117 118 136
131 149 174
134 152 175
130 148 172
131 148 171
132 150 174
132 150 174
128 145 170
132 150 174
135 152 176
125 160 164
129 177 168
124 170 161
130 178 170
123 170 161
121 167 160
127 174 165
126 173 162
120 165 156
119 162 152
116 157 148
118 159 149
113 152 141
106 143 133
102 136 126
96 124 121
104 78 157
107 74 161
103 73 158
94 66 143
102 71 152
103 72 155
101 68 148
98 69 148
97 68 148
98 66 143
92 64 139
98 83 143
129 147 171
113 125 144
102 107 112
94 97 100
87 89 90
74 78 76
86 88 89
87 91 93
95 99 103
98 101 104
98 102 107
97 100 104
103 106 110
97 100 104
99 102 105
96 100 105
96 99 104
92 95 102
99 102 107
92 94 100
91 94 100
91 93 99
86 88 93
94 97 103
95 97 103
95 97 101
95 97 101
96 97 103
99 100 105
93 95 101
98 100 107
102 105 110
97 99 103
99 102 108
99 102 108
103 106 111
100 104 109
102 105 109
102 104 109
101 104 109
100 102 107
98 100 102
102 106 111
102 105 110
101 105 109
103 105 109
102 105 107
102 106 109
99 104 105
104 109 113
103 108 111
102 107 110
103 107 109
99 104 106
102 106 108
96 101 100
98 103 104
102 107 109
94 99 98
91 95 96
86 93 87
82 89 80
84 90 82
78 86 75
79 84 76
74 83 71
79 84 80
91 97 95
96 102 101
96 101 102
94 101 99
102 105 108
98 103 103
104 108 112
104 109 111
102 106 109
102 106 109
101 106 110
102 106 110
76 75 91
69 61 107
63 57 101
66 58 100
68 62 108
66 59 102
66 60 105
71 65 114
72 66 114
71 65 114
77 70 123
75 69 120
74 69 122
69 50 100
57 19 66
58 19 68
58 19 67
59 20 68
60 20 70
60 20 70
64 21 73
64 21 73
83 72 103
124 140 164
128 145 169
124 140 164
127 145 168
128 146 171
126 143 166
126 144 167
128 147 170
127 144 167
126 144 167
127 144 167
130 149 174
123 141 163
124 141 164
127 144 165
124 141 162
122 140 159
124 141 161
118 134 153
119 137 156
117 133 151
128 145 166
81 32 49
81 18 40
79 17 39
82 18 40
78 17 39
80 18 40
79 17 39
76 17 38
79 18 39
78 17 38
77 17 38
77 17 37
78 17 39
76 17 37
77 17 37
79 17 39
76 17 37
52 79 36
3 121 38
3 119 38
3 120 38
3 119 38
3 124 40
3 112 36
3 121 39
3 121 39
3 129 41
3 127 40
3 112 35
3 120 38
3 124 40
104 142 139
129 147 170
125 145 165
129 147 170
129 149 171
116 132 151
84 89 101
63 60 66
62 60 65
63 60 66
65 62 67
61 59 64
64 62 67
62 59 64
61 59 63
61 59 64
61 59 64
60 57 62
62 59 64
65 63 69
104 118 134
113 132 151
110 130 147
114 133 153
121 140 161
122 141 162
122 142 162
122 140 161
125 145 166
126 146 169
127 145 168
124 143 165
130 149 173
127 146 168
128 147 171
130 149 173
129 148 171
131 149 172
132 151 175
131 149 172
133 153 177
133 152 176
135 153 177
133 152 175
132 150 173
131 149 173
121 127 147
114 110 124
116 111 126
114 109 124
115 110 124
118 113 127
113 107 121
116 112 127
112 108 121
115 110 125
114 109 123
111 107 122
112 106 121
112 107 121
112 107 121
113 107 123
109 102 118
118 124 143
136 154 179
132 150 175
131 149 173
127 145 168
133 152 176
130 149 173
131 148 172
132 150 174
128 157 167
125 172 161
129 177 167
122 168 159
129 179 169
125 173 163
121 167 159
126 174 165
120 165 158
122 166 156
114 156 148
111 151 142
111 149 140
112 148 138
113 151 140
101 134 124
99 130 118
95 116 122
101 71 155
95 65 141
98 68 148
98 67 149
87 59 129
96 66 142
92 63 138
85 59 130
90 62 138
97 80 144
123 137 166
124 139 165
122 137 163
113 121 135
105 110 116
95 99 102
80 84 83
85 88 88
89 92 93
91 93 96
96 101 103
93 96 100
100 103 109
99 101 105
101 104 108
101 104 109
96 99 103
98 101 105
101 104 108
95 98 104
95 98 105
94 97 102
96 98 102
102 105 109
93 97 102
93 95 100
96 97 102
99 102 108
99 102 107
99 102 107
98 101 107
94 97 102
98 101 106
101 104 111
99 102 106
103 106 110
100 103 106
100 104 109
101 105 109
103 106 110
101 105 107
98 100 104
102 105 108
99 102 106
105 108 111
102 105 108
104 108 110
102 105 108
99 104 106
101 104 109
96 101 102
97 101 104
99 102 105
99 103 104
96 99 101
95 99 99
99 102 104
98 101 104
91 97 98
97 102 102
88 94 92
87 92 88
96 101 99
84 90 85
85 90 84
84 90 86
84 90 84
83 89 84
93 99 99
90 95 94
90 94 91
98 103 103
98 102 105
101 105 108
101 105 107
102 105 108
105 109 110
101 105 108
103 106 110
87 88 101
63 55 96
64 57 99
64 58 101
63 57 99
70 63 110
69 63 107
72 65 113
73 67 115
69 63 111
72 66 116
66 60 107
74 67 120
75 69 119
63 53 84
53 23 62
50 16 58
52 17 59
56 19 64
54 18 62
49 16 57
54 31 63
96 101 124
110 122 144
118 132 154
116 129 153
123 138 162
120 135 159
125 142 164
124 140 162
126 143 168
128 146 169
127 144 167
130 146 170
125 143 164
129 147 171
127 144 166
126 144 167
126 143 166
125 142 164
125 141 162
126 142 166
131 149 173
125 141 161
124 142 163
98 93 109
79 17 39
77 17 38
79 17 39
79 17 39
77 17 37
75 17 37
77 17 38
78 17 38
80 18 39
76 17 37
78 17 38
77 17 38
76 17 38
75 16 37
76 17 37
74 16 37
74 16 36
72 22 36
26 111 37
3 114 36
3 110 35
3 117 37
3 119 38
3 113 36
3 116 37
3 115 36
3 123 39
3 118 38
3 125 40
3 123 39
3 115 36
113 143 151
129 150 173
130 148 170
132 151 173
125 144 166
81 87 98
60 58 62
64 61 66
62 59 65
64 60 65
62 59 64
62 59 64
62 59 64
60 57 61
61 58 62
61 58 64
61 58 62
60 58 62
60 57 62
62 59 64
64 63 69
112 127 147
127 146 168
126 145 167
126 146 168
128 147 170
126 144 166
127 146 169
129 148 172
130 149 172
132 150 173
130 148 170
127 146 168
132 151 175
131 150 174
133 152 175
134 153 177
131 150 175
129 148 171
132 150 173
130 147 170
135 153 176
131 149 173
131 149 174
132 148 172
132 151 175
127 143 166
115 110 125
114 109 123
113 107 121
112 106 121
111 106 120
110 105 118
112 106 121
114 108 123
113 109 123
111 106 120
110 105 119
109 104 116
108 101 116
108 102 115
110 104 118
113 110 126
129 146 171
133 150 174
132 148 172
130 147 170
129 146 170
128 144 168
129 146 170
133 150 174
130 148 171
123 166 159
119 166 157
121 167 158
125 171 163
118 162 154
118 162 154
122 168 159
119 163 155
117 160 155
115 157 147
113 154 146
107 145 136
107 145 135
109 145 134
109 147 138
102 136 129
97 129 118
90 119 109
85 81 121
84 57 130
89 61 135
87 60 133
89 61 137
81 55 125
84 58 132
89 62 134
96 85 141
116 127 154
120 132 159
126 141 167
124 138 163
127 142 169
110 117 129
102 107 111
95 99 100
90 93 94
92 95 96
95 98 100
96 99 103
95 97 100
98 103 106
96 98 101
93 97 100
96 99 102
93 96 98
94 97 102
94 96 102
97 101 105
93 95 100
98 100 104
94 96 100
87 90 96
98 101 104
94 96 100
92 94 99
94 96 100
100 103 107
97 99 104
100 102 107
91 94 97
100 104 107
101 104 108
101 104 107
96 99 105
100 103 106
99 102 106
96 98 103
101 104 108
100 104 107
101 104 108
103 106 111
98 100 103
95 98 101
103 106 110
99 102 104
98 103 106
98 101 103
101 105 107
95 99 100
98 101 104
99 104 107
100 105 107
96 100 102
96 99 99
99 103 103
96 100 100
92 96 95
94 99 99
92 98 96
92 95 94
93 97 96
86 90 87
83 88 84
85 90 86
89 94 93
92 99 96
98 103 102
94 99 97
101 105 105
101 105 108
94 98 99
102 105 106
102 106 108
101 104 107
100 102 104
104 107 112
84 85 99
61 54 96
66 59 103
57 51 90
63 58 101
63 56 99
67 60 105
60 55 96
69 62 109
71 65 115
67 61 107
70 63 112
72 65 116
70 64 114
77 75 110
61 63 75
60 61 73
43 31 49
40 32 48
44 38 51
53 45 63
64 65 79
84 88 105
83 86 105
100 110 129
101 109 129
103 115 135
117 130 153
115 128 150
117 131 153
119 133 157
126 142 165
127 143 166
123 139 162
121 138 161
124 140 163
127 145 168
127 144 167
128 146 169
129 147 170
128 145 168
127 145 168
127 145 169
128 146 168
128 146 169
127 145 168
79 28 45
76 17 38
77 17 38
78 17 38
79 18 39
77 17 38
78 17 38
77 17 38
76 17 37
74 16 37
73 16 36
73 16 36
75 17 37
75 16 36
72 16 35
72 16 35
71 16 35
72 16 35
68 15 33
50 77 34
3 112 35
3 110 35
3 107 34
3 110 35
3 118 38
2 105 33
3 109 34
3 115 37
3 126 40
3 116 37
3 117 37
45 124 70
128 149 169
132 151 173
132 150 173
129 148 171
99 109 125
62 59 64
60 58 62
63 60 65
63 60 65
61 58 63
62 60 64
61 58 63
62 59 64
62 59 64
59 56 61
63 60 65
59 56 61
59 56 61
59 57 61
60 57 61
59 56 61
72 77 86
128 146 167
129 147 170
128 147 169
130 148 171
129 148 171
135 153 177
131 151 175
130 148 171
130 150 172
132 149 173
133 152 176
132 149 173
133 152 175
130 148 171
133 152 176
130 149 172
132 151 175
134 152 176
131 150 172
133 151 175
131 148 171
135 153 177
130 147 169
131 149 173
131 149 172
118 122 140
111 105 118
109 103 116
110 104 116
114 108 122
106 101 114
110 104 117
103 97 109
110 103 117
110 104 117
109 102 116
107 101 116
104 98 111
105 99 113
103 95 107
121 128 149
133 151 175
129 146 170
130 147 170
130 146 169
130 145 169
126 142 168
129 146 169
129 146 170
127 153 167
117 162 152
122 168 159
121 166 157
119 165 157
123 168 158
116 160 151
123 168 158
121 166 159
117 159 151
116 158 153
113 155 149
106 145 136
107 144 133
101 137 128
99 134 126
103 136 127
89 117 107
82 107 99
92 105 122
72 50 114
73 48 116
81 54 123
66 44 104
73 49 110
68 51 103
86 86 122
101 107 136
102 108 136
107 114 142
103 111 139
116 128 153
117 130 158
118 132 157
107 111 125
98 100 103
90 93 95
91 94 95
91 95 97
92 94 96
91 94 96
95 97 100
94 97 100
94 97 100
94 96 99
96 99 103
98 100 103
89 90 94
95 97 101
94 96 101
89 93 99
99 102 109
95 97 102
95 96 101
95 97 102
96 100 105
93 95 100
93 95 99
95 97 102
93 95 99
97 99 103
93 96 100
98 100 104
99 101 105
95 97 100
98 100 104
97 99 102
100 103 108
95 97 101
95 98 102
102 105 108
94 96 100
98 102 105
96 99 102
95 98 101
95 99 101
97 99 103
99 102 105
99 101 105
101 104 106
96 99 101
98 101 100
99 102 103
92 96 97
100 104 105
96 101 102
95 98 97
93 96 94
95 98 98
86 92 86
90 92 93
89 94 91
93 95 95
89 92 91
88 92 93
95 98 98
92 96 95
93 96 96
96 100 101
94 97 98
98 101 104
97 100 102
98 100 102
100 104 108
101 105 108
106 109 113
107 113 123
62 61 92
57 51 91
60 55 95
58 53 91
58 52 91
59 53 93
65 58 102
58 53 94
65 59 104
69 63 109
67 60 106
69 63 112
62 57 102
78 79 114
94 104 124
91 97 117
95 103 122
84 90 107
84 88 107
82 88 104
77 81 97
90 96 115
83 86 101
88 94 113
99 108 127
101 109 130
101 111 131
111 123 143
118 132 154
119 133 155
113 127 149
119 134 156
120 133 155
120 135 159
125 140 163
127 143 167
126 142 163
128 145 168
130 147 171
131 149 173
129 148 173
128 145 168
130 148 171
129 147 170
130 147 169
126 143 166
75 16 37
71 15 35
74 16 36
76 17 38
74 16 36
75 17 37
77 17 38
75 16 37
76 17 37
74 16 36
74 16 36
74 16 36
71 16 35
73 16 36
71 16 35
73 16 35
68 15 33
69 15 33
69 15 33
55 66 34
3 110 35
2 104 33
2 105 33
3 107 34
2 102 32
3 108 35
3 118 37
3 110 35
3 115 36
3 116 37
3 112 35
90 132 120
131 149 171
129 149 171
132 152 173
120 137 158
62 60 65
59 56 61
64 61 65
60 57 62
62 59 63
60 58 61
61 58 63
61 58 63
61 58 62
60 57 62
60 57 61
60 57 61
58 55 60
59 56 61
59 56 60
57 54 59
59 56 60
56 53 59
101 113 129
135 153 176
129 148 170
134 152 174
134 151 174
132 151 173
133 152 175
133 151 176
133 152 176
128 146 169
135 153 176
134 152 176
131 150 172
133 151 174
133 151 175
130 147 170
129 147 171
131 150 173
134 152 175
134 151 175
133 151 174
133 150 173
133 149 171
131 147 170
132 147 171
130 146 170
112 115 130
108 101 113
102 95 107
105 97 109
105 98 110
108 100 113
105 97 109
98 92 103
103 95 106
101 93 104
101 94 105
101 91 101
98 88 99
115 119 136
130 146 169
128 144 167
127 143 166
127 144 165
128 143 167
128 143 166
126 140 162
127 143 166
129 143 167
126 160 164
120 164 155
117 161 151
121 166 157
115 156 150
124 171 163
121 166 157
115 156 150
114 155 148
120 162 153
113 151 144
113 152 144
112 152 142
110 149 139
106 143 135
107 144 136
98 130 123
98 130 121
88 118 109
82 108 99
61 58 82
67 68 90
47 37 67
48 44 67
50 46 69
71 70 96
88 90 117
76 75 105
97 102 128
100 108 134
108 117 142
112 122 149
112 122 149
119 133 159
116 128 151
105 111 122
91 94 96
94 97 99
88 90 92
89 91 92
92 97 99
93 96 98
95 98 102
94 96 99
96 99 102
93 95 99
95 98 101
96 99 102
96 99 103
95 97 100
89 91 94
94 96 101
92 94 98
96 99 102
93 96 101
96 98 104
97 98 102
95 97 101
95 97 100
94 95 98
100 102 105
99 101 105
95 96 100
92 93 97
95 98 100
99 102 106
98 101 102
98 101 105
95 97 101
97 99 103
98 101 104
96 97 100
94 97 100
97 99 101
94 96 98
94 96 99
97 100 104
100 102 104
99 101 104
96 100 100
96 98 98
95 96 98
92 95 96
94 98 100
95 98 97
91 95 96
93 96 96
90 92 93
94 97 97
94 98 97
90 93 95
88 94 89
94 96 95
93 98 99
91 95 93
90 96 95
94 97 97
97 100 102
92 97 96
99 103 105
100 102 103
104 107 110
101 105 108
98 101 105
103 106 109
105 112 124
115 127 149
109 121 142
71 73 105
53 47 86
55 49 88
58 53 95
59 53 94
61 55 97
56 50 89
58 53 93
57 52 92
65 59 107
58 53 94
90 96 128
115 128 152
112 125 149
114 127 150
111 125 147
112 125 147
107 118 141
113 125 147
116 129 152
116 130 153
107 119 142
118 133 156
118 131 154
123 139 163
119 134 158
117 132 155
119 134 157
121 136 160
121 136 159
124 139 162
128 145 169
122 138 162
127 143 166
125 143 166
127 144 168
127 143 167
129 145 167
132 150 174
126 143 165
130 146 169
130 147 169
129 146 169
129 146 169
130 148 171
74 16 36
77 17 37
74 16 36
76 17 37
74 16 37
74 16 37
76 17 37
77 17 38
74 16 36
73 16 36
68 15 34
70 15 35
70 15 34
69 15 34
67 15 33
67 15 33
71 15 34
69 15 34
68 15 33
59 42 31
2 95 30
2 99 31
2 99 31
2 96 30
2 104 33
2 102 31
2 106 33
2 105 33
2 105 33
2 98 31
47 112 70
126 147 168
128 148 169
130 150 172
129 149 171
91 100 115
59 56 60
60 57 61
59 57 61
60 57 61
59 56 61
59 56 61
61 58 62
61 58 62
60 57 61
59 57 61
59 56 61
59 56 61
59 56 60
61 58 63
57 54 58
59 56 60
53 50 54
57 54 59
70 73 82
132 152 174
132 151 174
134 152 175
134 153 176
130 148 171
134 152 176
133 152 175
134 152 176
133 152 176
135 152 176
132 151 175
133 151 175
133 151 174
132 150 174
133 150 173
131 150 174
135 152 176
132 149 173
132 150 173
133 150 172
131 149 172
133 150 175
130 146 170
128 145 169
129 144 166
125 142 163
109 113 130
100 91 102
98 88 98
99 90 100
92 84 94
97 88 97
91 82 92
95 85 95
92 81 91
88 80 88
94 86 96
108 112 128
127 140 162
124 138 160
127 142 162
125 140 162
129 145 169
126 141 163
128 143 166
127 142 164
129 145 169
128 143 166
116 153 151
121 165 155
114 157 146
116 161 151
118 162 154
113 157 150
110 152 143
119 162 152
118 161 154
113 154 147
114 156 149
108 146 138
103 140 133
109 147 137
101 136 127
98 132 125
99 132 124
94 126 115
87 116 109
82 108 97
94 98 126
98 101 130
103 111 135
105 112 136
98 103 128
100 105 130
103 109 132
103 111 136
109 117 141
109 120 143
108 119 145
112 124 149
117 129 153
112 123 149
114 128 150
117 129 151
113 122 136
91 93 96
90 92 94
86 89 91
91 92 95
88 89 90
95 97 99
92 94 97
94 96 101
92 94 97
94 96 99
94 95 97
92 93 95
89 90 93
95 97 100
94 96 100
93 95 99
100 103 108
93 95 99
93 96 100
93 94 98
92 93 95
100 102 105
94 97 99
97 100 104
90 90 92
95 97 101
96 97 101
96 97 102
92 94 98
98 100 105
94 96 99
99 102 108
96 100 102
90 91 93
94 96 96
98 101 102
95 96 97
95 99 101
96 98 100
93 97 96
101 103 105
95 97 98
100 102 103
96 98 102
95 97 99
96 99 99
97 99 101
96 98 100
98 102 102
91 93 92
93 98 97
93 96 94
94 97 97
89 92 91
89 92 91
91 94 93
95 98 98
91 94 94
93 94 93
96 100 100
95 98 98
95 98 98
95 98 99
99 102 103
94 98 100
98 99 101
99 101 103
98 104 116
102 112 133
99 111 132
100 112 133
99 108 129
70 75 99
47 41 74
47 42 75
49 45 79
47 43 77
54 49 89
55 50 89
60 60 93
83 121 85
92 142 84
113 179 92
115 185 87
120 188 99
114 173 99
118 172 119
117 151 139
123 141 161
120 135 158
119 134 157
122 137 161
120 135 157
118 133 156
123 139 163
124 140 165
122 137 160
124 140 162
124 140 163
127 144 168
127 145 169
127 142 166
125 143 166
127 143 166
126 143 168
126 143 167
130 148 173
130 147 170
130 147 171
129 147 170
129 147 172
126 142 165
129 146 168
127 143 166
129 146 169
129 148 171
73 16 36
71 16 35
71 16 35
73 16 36
74 16 36
70 15 34
73 16 36
72 16 35
69 15 34
70 15 35
70 15 34
73 16 36
71 16 35
68 15 33
72 16 35
68 15 33
64 14 31
68 15 33
65 14 31
63 38 32
2 102 32
2 98 31
2 101 32
2 101 31
2 103 32
2 103 33
2 104 33
2 102 32
2 101 32
39 109 60
119 144 159
126 148 168
128 148 169
122 143 163
128 147 168
60 60 67
60 57 61
57 55 59
60 57 61
58 56 59
58 55 60
60 57 61
57 55 59
62 58 63
59 56 60
57 54 58
58 55 59
58 54 58
56 54 57
56 53 57
56 53 58
57 54 58
53 50 54
53 51 54
55 52 56
120 136 156
130 149 171
135 154 178
134 152 176
131 149 172
132 149 171
135 153 177
133 152 176
133 151 176
132 151 174
131 149 172
133 151 175
133 151 173
133 151 175
131 149 173
133 149 172
131 149 171
133 150 174
131 148 171
132 148 172
129 144 167
130 145 167
126 142 163
130 146 169
123 136 157
123 135 155
121 133 153
103 107 121
93 90 100
85 76 83
84 75 83
82 72 78
74 64 70
76 67 75
77 66 73
83 78 85
103 108 124
114 123 140
112 123 141
115 126 146
118 128 148
128 143 165
124 137 160
126 139 163
126 140 162
128 142 166
125 140 162
127 142 166
115 153 150
115 158 147
119 164 155
112 155 145
113 154 147
109 151 146
115 159 150
111 153 144
111 151 143
118 161 151
111 151 144
109 149 142
110 148 143
100 137 132
103 138 131
102 137 126
95 127 118
92 121 111
85 113 110
78 103 112
101 114 161
103 113 164
101 111 159
114 125 162
117 130 158
116 128 151
118 131 154
112 124 150
120 133 155
118 131 154
118 131 155
120 136 160
121 135 159
117 131 154
116 129 150
122 136 160
120 133 155
110 120 135
93 96 97
86 88 88
91 93 95
88 91 93
88 89 90
95 96 98
88 90 92
96 97 99
93 96 98
92 93 96
94 95 98
90 92 95
94 95 98
91 93 97
92 93 96
92 93 96
89 90 94
95 96 99
95 96 100
89 90 94
97 99 103
93 95 98
93 95 98
95 98 100
95 98 101
92 94 97
96 97 98
95 97 98
94 95 98
92 93 96
94 97 98
92 95 97
91 93 96
96 97 100
93 95 98
95 97 98
90 92 95
91 92 94
99 100 103
89 90 91
96 99 101
95 98 100
97 100 100
94 96 98
93 95 96
95 97 98
93 97 97
94 96 96
93 97 96
94 96 96
90 93 93
92 94 95
93 96 95
86 89 87
90 93 93
90 93 92
84 88 83
89 91 92
90 92 92
102 104 105
94 94 96
90 95 93
94 96 97
93 94 97
94 97 99
107 117 133
106 119 139
101 111 132
91 101 119
87 95 111
72 78 95
74 78 94
64 67 82
43 43 59
39 40 55
43 42 63
35 41 50
74 118 59
95 160 54
114 194 57
115 196 58
115 196 58
110 189 56
117 201 59
115 198 58
119 204 60
117 201 59
119 195 86
119 163 133
123 141 158
123 140 163
128 145 169
122 136 160
124 140 163
127 143 168
128 145 168
125 140 163
128 146 169
125 142 165
126 142 164
130 147 171
131 147 171
126 142 165
127 144 167
130 148 172
129 146 169
132 150 174
129 147 170
130 147 171
129 146 170
129 146 170
133 150 173
129 146 170
131 149 173
129 147 171
73 41 65
68 15 34
71 15 34
71 16 35
70 15 34
69 15 33
69 15 34
67 15 33
69 15 34
70 15 34
69 15 34
70 15 34
72 16 35
65 14 31
67 15 33
66 14 32
66 14 32
64 14 31
62 13 30
61 35 31
2 96 30
2 97 30
2 100 31
2 99 31
2 83 25
2 95 29
2 96 30
2 90 28
52 104 74
102 127 134
118 139 156
120 142 159
125 145 164
120 139 158
118 136 152
57 53 58
56 53 58
56 53 57
58 55 59
55 52 57
57 54 59
59 56 60
58 55 59
57 54 58
60 57 61
56 54 57
58 55 59
57 54 58
59 56 59
55 52 55
55 52 57
56 53 57
54 51 55
49 47 51
55 52 56
113 126 145
132 150 174
133 150 173
130 148 171
131 148 172
130 148 172
131 150 174
134 152 176
132 151 174
135 153 177
131 148 171
134 151 175
133 151 174
132 150 173
129 146 168
131 146 169
132 148 171
130 146 168
129 144 166
127 143 166
128 145 167
130 144 166
125 137 158
120 133 153
112 122 140
113 120 137
107 112 127
103 109 123
89 94 105
77 76 85
65 66 71
52 48 53
40 34 38
59 57 62
79 80 91
84 84 95
94 98 111
97 102 116
98 104 120
114 123 139
113 124 144
117 128 147
122 133 152
124 137 159
126 140 162
123 136 158
123 138 162
123 137 160
112 143 145
114 156 146
108 149 139
113 155 146
114 156 147
115 157 148
111 151 145
109 149 140
110 151 144
110 151 143
105 144 139
104 143 135
105 142 134
105 142 135
94 127 120
92 123 117
85 113 127
64 81 164
49 59 202
40 45 210
42 46 213
41 44 219
40 44 218
47 51 203
67 76 199
89 97 184
113 128 158
125 140 164
122 136 158
127 144 166
124 141 163
122 136 160
124 139 159
122 134 155
125 142 163
119 133 154
119 133 153
122 137 159
114 126 144
95 99 105
89 90 91
90 91 92
91 93 94
84 86 87
90 92 93
91 92 93
88 88 89
90 90 92
87 89 91
95 96 99
90 92 94
89 91 94
92 94 97
93 93 97
97 99 101
90 91 92
92 94 97
93 94 97
95 95 97
93 94 97
93 94 98
93 94 97
93 94 96
92 94 96
94 96 98
91 92 96
92 92 94
92 93 96
93 95 98
92 94 95
92 94 94
97 99 100
97 98 101
95 98 100
94 94 96
93 96 98
95 97 98
95 97 98
88 90 90
97 98 100
92 95 98
90 92 93
94 96 96
96 99 101
93 95 96
96 99 100
90 93 93
90 92 91
90 92 93
92 92 92
94 96 96
86 89 88
90 92 93
88 90 89
90 92 92
89 90 91
89 92 92
91 93 93
93 96 97
94 96 97
94 96 97
103 106 111
107 118 135
107 120 136
108 121 141
109 122 143
107 118 137
104 114 133
102 113 132
97 108 125
83 90 105
78 86 100
77 83 99
72 81 87
92 149 62
109 186 53
109 188 55
114 193 57
113 195 57
117 201 59
113 194 58
117 200 59
115 196 58
117 202 60
120 205 60
118 202 60
118 203 60
119 192 90
121 149 149
120 134 157
121 136 157
123 138 159
127 143 166
126 142 165
122 138 161
129 146 170
127 144 167
132 149 173
129 145 168
125 142 165
124 140 162
129 147 170
129 146 170
129 146 169
127 143 166
130 146 168
129 147 170
131 148 172
129 147 170
129 146 170
130 147 170
129 146 169
128 146 168
97 111 161
90 96 140
81 68 100
72 39 61
69 15 34
67 15 33
68 15 33
67 15 33
66 15 32
68 15 33
68 15 33
66 14 32
67 15 32
69 15 33
65 14 32
61 13 30
61 13 30
59 13 29
60 13 30
49 49 32
2 84 25
2 87 26
2 81 25
2 82 24
2 85 25
2 92 28
20 84 35
64 98 85
100 122 130
105 127 138
103 127 135
108 130 141
112 133 148
113 134 148
105 124 137
54 51 55
56 53 57
57 54 58
55 52 57
53 51 55
58 55 59
54 52 55
58 55 59
56 54 57
53 51 55
56 53 56
56 54 57
55 53 57
55 53 57
52 49 52
53 50 53
53 51 54
55 52 56
51 49 52
51 48 52
107 121 139
133 151 174
129 146 168
133 152 177
135 153 176
133 152 175
131 150 172
131 149 173
128 146 168
130 149 171
133 151 174
132 150 173
131 149 172
132 151 175
131 147 169
127 143 166
130 146 168
126 143 165
129 145 167
127 143 164
124 138 159
124 137 157
124 136 158
123 136 156
117 129 147
114 121 139
112 122 139
108 117 133
111 118 133
103 112 127
97 103 118
94 100 112
91 95 104
105 110 123
104 110 125
108 116 134
107 113 129
105 112 129
118 128 147
121 133 151
120 132 152
119 133 152
126 141 163
124 138 158
121 134 154
119 132 152
123 137 158
127 144 167
115 145 153
105 144 137
100 139 131
110 151 143
107 147 138
109 149 142
111 152 143
110 150 142
104 142 134
105 144 139
104 142 135
100 137 130
104 141 133
103 140 132
95 128 136
60 77 180
50 59 212
38 41 219
39 42 220
38 41 215
38 41 220
39 42 223
38 41 219
38 41 214
37 40 211
38 41 216
47 51 199
87 96 173
122 136 161
124 139 160
125 141 162
125 140 159
123 138 158
126 140 162
121 135 154
122 136 157
125 139 160
124 137 157
126 141 161
120 133 152
99 106 113
89 89 90
88 90 92
87 88 89
88 90 91
87 88 90
86 88 91
86 87 87
88 90 92
88 90 93
79 79 80
88 89 90
91 93 95
88 89 92
89 90 92
85 87 90
86 88 90
85 86 89
92 92 96
91 93 96
92 93 95
85 86 87
89 91 93
93 94 97
92 94 98
90 92 95
96 97 100
90 91 93
89 91 93
95 97 99
86 86 88
94 97 98
86 87 88
92 93 94
90 92 93
95 96 98
87 89 89
86 88 88
89 91 91
90 90 91
92 94 96
92 93 95
90 92 93
85 87 85
90 93 94
88 90 90
88 88 88
85 87 87
85 87 86
94 97 96
88 89 88
83 87 86
92 93 93
91 93 94
81 82 81
94 96 96
95 98 99
92 94 95
95 97 98
94 96 98
97 101 106
117 132 150
120 135 155
116 128 148
117 129 149
116 129 149
110 122 141
114 126 145
111 125 145
111 123 142
114 127 146
107 120 141
108 128 133
94 152 63
100 170 49
108 183 54
113 192 56
113 191 56
113 191 56
113 193 57
116 198 58
117 200 59
117 201 59
120 206 61
119 204 60
119 206 61
116 202 60
116 201 59
119 195 82
121 152 150
123 138 160
127 144 168
127 144 167
124 140 164
128 146 169
123 140 163
128 145 168
127 143 166
128 145 167
125 142 164
126 143 166
128 145 166
127 144 167
131 148 172
125 141 164
128 145 166
131 148 170
126 143 165
133 151 175
130 148 172
125 142 164
128 146 170
132 150 173
101 118 171
99 116 165
99 115 166
96 110 158
84 80 120
64 18 35
68 15 33
66 14 32
68 15 33
64 14 31
67 15 32
66 15 32
67 14 32
62 14 30
61 13 30
59 13 29
61 13 29
62 13 30
56 12 27
69 75 76
43 69 54
27 63 37
23 65 31
15 54 23
42 69 53
45 73 58
64 83 80
73 93 92
78 98 102
84 105 108
94 116 122
104 125 136
105 128 137
111 133 146
103 121 135
56 56 55
63 65 59
59 60 56
62 64 57
54 51 55
54 51 55
57 54 58
55 53 57
55 52 56
57 54 58
54 52 55
54 52 56
53 51 55
56 53 57
56 54 57
56 52 56
52 50 53
52 49 52
50 48 51
53 50 54
101 115 132
132 151 173
129 147 169
129 148 172
130 149 172
132 149 173
130 148 170
129 146 168
133 149 171
130 149 172
131 150 174
131 148 171
132 150 174
130 146 170
130 148 171
130 145 167
130 146 169
129 145 169
128 145 167
128 144 166
127 143 165
126 140 161
124 139 160
128 142 163
125 139 159
122 135 154
121 133 152
119 134 153
120 132 151
114 126 144
119 132 151
122 136 155
117 127 144
117 130 148
118 130 149
124 138 160
123 137 156
120 132 151
124 139 161
125 140 162
121 135 154
121 137 158
124 139 164
123 137 159
126 140 161
127 144 166
125 141 163
126 142 164
121 144 157
104 143 136
107 149 140
101 139 132
105 145 137
106 145 138
104 142 136
111 151 144
107 147 138
103 141 136
107 144 136
106 143 135
100 136 129
90 123 135
57 73 197
38 41 215
38 41 215
38 41 215
38 41 213
39 42 220
39 42 220
39 41 219
38 41 219
38 41 217
38 41 218
37 40 210
37 40 209
38 41 205
64 70 190
113 128 162
124 138 157
119 132 150
116 130 148
121 134 152
121 135 155
121 135 153
117 131 149
122 137 156
116 130 148
121 135 154
123 137 156
108 116 128
94 96 101
88 89 91
82 82 82
83 83 84
78 77 80
82 83 84
86 87 89
92 92 96
85 85 86
86 86 88
87 88 89
92 93 95
87 88 89
84 85 88
86 87 88
88 88 89
86 86 87
88 89 90
87 88 90
86 87 88
92 92 94
93 94 97
84 84 86
90 91 92
88 90 91
90 91 93
86 87 88
81 82 83
83 83 86
92 93 95
87 87 89
86 86 86
90 92 93
84 84 85
92 93 92
87 89 90
92 94 95
86 88 88
89 91 92
89 91 92
87 89 89
87 88 88
89 91 92
85 87 86
83 84 82
86 88 87
88 90 92
88 90 90
88 89 91
82 84 81
93 94 96
84 85 85
83 83 82
87 87 86
83 85 84
88 88 88
91 93 94
110 118 131
114 126 145
118 132 151
120 134 154
120 134 152
117 131 150
114 126 144
114 127 145
119 132 151
123 138 158
122 137 159
115 128 149
119 138 151
100 154 82
105 176 51
107 183 52
109 185 54
110 186 55
112 191 56
117 200 59
112 192 56
116 199 59
117 203 60
115 198 58
115 199 59
114 197 59
116 200 58
114 199 59
118 204 60
117 204 60
119 198 78
128 150 166
122 138 160
127 144 166
124 140 163
127 144 166
128 144 167
125 142 165
126 142 164
130 147 171
122 139 162
126 143 164
127 143 165
133 151 174
130 147 169
128 145 168
130 148 170
129 147 171
125 141 164
127 143 166
127 143 166
131 149 173
130 148 171
128 145 167
97 113 162
99 115 166
98 113 162
98 113 163
101 116 168
82 82 118
64 22 39
68 15 33
66 14 32
60 13 30
61 13 30
60 13 29
66 14 32
66 14 32
60 13 29
63 14 31
61 13 29
59 13 29
56 35 40
66 86 83
73 88 93
67 84 83
64 81 80
70 86 88
61 81 78
69 91 90
85 104 106
96 117 125
91 113 118
105 125 135
112 132 145
110 131 142
111 134 136
121 152 129
118 155 94
110 148 61
112 150 61
113 151 62
108 144 60
98 128 58
81 100 59
61 66 56
56 53 58
52 49 53
53 51 54
51 49 52
51 49 53
49 46 50
50 47 50
51 48 52
51 49 51
50 48 52
51 49 53
49 46 49
53 50 54
114 129 148
130 148 172
129 147 169
132 150 173
133 151 174
132 151 174
129 147 169
130 149 173
131 148 171
129 147 170
132 150 174
130 148 171
131 148 171
130 148 170
129 145 167
129 146 169
126 142 164
126 142 164
131 149 172
127 145 166
127 143 164
130 148 171
130 147 169
125 141 163
129 146 168
127 143 164
125 142 164
129 144 167
130 145 168
123 136 158
129 146 167
122 138 159
130 146 169
124 139 160
124 138 158
131 148 171
128 143 166
127 142 164
129 145 167
128 142 165
129 147 170
124 138 159
127 143 164
125 141 162
129 145 167
128 145 168
128 144 165
128 144 165
124 141 162
105 139 136
99 136 128
100 138 130
100 138 131
104 143 136
103 142 135
109 150 143
93 128 123
99 134 127
97 132 125
97 131 124
86 118 129
53 67 187
37 40 208
38 41 213
38 41 215
38 41 214
37 40 210
38 41 220
38 40 217
38 41 218
38 41 216
38 40 215
38 40 211
37 39 211
37 40 211
36 38 199
35 37 195
63 69 181
112 124 158
120 133 150
122 137 156
123 137 155
114 126 143
120 134 152
119 133 152
120 133 151
121 134 151
122 135 154
115 126 143
118 131 149
110 121 137
100 107 115
88 89 90
86 87 88
80 80 80
87 88 88
80 80 81
86 86 86
83 85 87
84 85 87
83 83 85
87 86 86
84 85 86
85 84 85
77 77 78
90 92 94
87 87 89
80 79 80
84 85 86
89 90 91
88 88 90
88 89 90
90 91 94
91 93 95
88 89 90
90 91 92
86 87 88
83 84 85
84 85 86
86 87 87
87 88 90
87 88 90
86 86 86
90 91 92
86 89 91
88 90 91
91 93 94
89 90 91
80 80 80
84 85 86
87 87 87
85 86 87
84 85 85
91 93 92
89 90 90
90 92 92
86 88 88
85 87 86
88 89 88
82 84 84
87 88 88
81 81 80
92 93 93
83 83 81
87 89 90
100 105 111
112 122 135
119 132 151
115 127 145
117 131 150
120 133 151
115 128 146
119 133 153
117 130 149
123 137 156
118 132 152
125 141 163
121 135 153
116 131 149
111 146 121
102 171 49
102 172 51
108 184 54
105 177 52
112 192 56
113 193 57
117 199 59
112 191 56
115 196 57
112 193 57
117 199 59
119 202 59
115 198 58
119 204 60
113 195 58
119 204 60
112 194 57
118 204 60
118 185 98
127 145 164
130 147 170
123 139 160
126 143 164
124 141 164
128 145 166
129 146 169
126 144 166
126 143 166
128 146 168
126 141 163
130 148 170
131 149 171
130 146 169
132 149 173
131 147 169
131 148 172
130 149 172
131 148 171
127 144 166
127 145 168
126 144 167
98 113 162
99 114 165
95 110 159
98 114 162
95 111 158
96 110 157
82 84 121
61 20 36
60 13 30
60 13 30
58 13 29
64 14 31
57 12 28
59 13 29
57 12 28
55 12 27
56 12 27
56 12 27
101 112 127
103 123 135
102 122 136
100 117 129
102 122 133
99 118 128
105 125 137
105 125 138
104 124 137
103 125 136
108 127 140
111 133 147
113 138 141
120 157 106
125 167 82
128 173 69
128 173 65
126 171 64
126 171 64
128 172 64
124 169 63
123 167 63
121 164 63
115 154 62
89 114 57
60 69 52
53 50 54
50 48 51
53 51 54
52 49 54
52 50 53
50 47 51
50 47 51
49 46 50
49 47 50
50 48 51
52 51 55
127 144 167
132 152 175
130 148 171
131 149 173
134 151 174
132 151 174
130 148 172
130 147 170
132 150 173
132 149 172
129 146 168
132 151 175
130 149 172
131 148 171
133 151 174
129 147 170
132 150 173
129 147 169
131 149 172
131 148 172
129 145 167
128 146 167
133 150 173
129 146 168
128 146 167
131 149 172
130 147 171
127 143 165
129 147 169
130 147 169
127 143 165
128 146 168
128 146 166
127 144 166
130 148 171
129 145 167
126 141 163
129 146 168
130 146 168
127 144 167
128 145 166
131 147 170
127 144 165
131 148 171
128 143 166
128 145 168
129 145 166
126 143 165
125 140 160
113 134 145
100 138 129
100 136 127
103 142 134
99 137 128
99 136 130
99 136 129
102 140 133
88 122 112
100 135 127
93 127 125
58 76 186
37 40 208
38 41 217
38 40 214
37 40 214
37 40 211
38 41 214
38 41 219
38 40 213
39 42 222
38 40 214
37 40 213
37 40 213
38 40 214
38 39 206
56 50 200
73 63 201
73 60 172
98 99 155
118 125 145
118 132 149
119 133 150
115 127 145
118 129 146
114 126 142
115 128 142
110 121 134
111 123 139
115 127 142
118 132 148
111 122 136
112 122 136
101 108 119
89 92 96
75 75 76
76 76 76
81 81 82
79 79 82
79 80 81
75 75 76
80 80 81
79 78 80
87 87 89
86 86 86
78 77 79
81 81 83
83 84 86
81 81 81
85 85 87
87 87 88
87 88 88
84 84 83
88 87 88
90 90 92
90 91 93
84 84 86
84 83 84
82 82 82
80 80 80
77 77 76
83 84 83
82 82 82
81 81 82
86 87 85
77 76 77
83 83 83
82 82 81
85 86 87
87 88 88
86 86 86
80 80 81
85 86 87
72 73 72
86 87 87
87 90 89
87 87 87
84 84 84
77 76 74
80 82 79
79 79 77
82 83 83
83 84 84
86 87 88
87 87 91
100 107 118
109 120 135
118 131 149
116 126 141
115 125 142
111 121 136
120 133 152
117 130 149
122 134 152
118 131 150
117 132 151
120 133 153
123 137 157
121 135 153
115 136 141
97 155 62
101 171 50
102 171 49
108 182 53
109 186 54
109 186 55
112 189 55
115 196 57
111 187 55
114 194 57
118 201 59
116 199 59
112 193 56
120 206 61
113 195 58
116 198 58
105 184 54
112 194 57
112 194 57
117 201 63
125 162 143
126 143 166
127 144 166
130 147 169
131 148 171
129 145 167
130 146 168
128 144 166
128 145 169
126 143 165
130 147 170
127 143 164
129 145 167
129 146 168
129 147 171
124 140 161
127 144 166
132 150 172
127 144 165
131 149 172
131 148 169
128 145 167
98 112 161
98 113 161
94 109 154
96 111 158
94 109 156
90 105 147
91 106 151
77 72 104
57 12 28
57 12 28
59 13 29
60 13 29
55 12 27
52 11 25
53 12 26
56 12 28
48 10 23
82 83 96
119 137 157
109 129 144
111 129 146
119 138 157
115 135 153
110 129 143
119 138 157
118 137 155
115 134 153
118 136 155
121 141 158
124 153 136
125 166 85
125 170 66
128 173 64
127 172 64
125 170 64
124 168 62
126 171 64
125 169 63
126 170 63
125 169 63
125 167 63
121 165 62
119 162 61
107 141 58
70 85 54
52 49 52
51 49 52
50 48 51
52 49 52
47 45 48
52 49 52
47 44 48
49 46 49
48 46 49
77 83 95
132 151 174
126 143 165
130 148 170
128 144 166
131 150 174
132 150 174
130 148 172
128 146 170
130 149 171
130 148 171
130 146 169
131 148 170
128 146 168
133 152 176
131 149 173
131 148 172
126 142 163
133 151 175
131 148 172
129 146 168
129 146 169
130 147 170
134 150 175
130 147 170
131 148 170
131 149 172
131 147 168
131 147 169
131 150 172
130 147 169
129 146 168
131 148 170
127 144 165
127 145 166
127 143 167
131 148 171
126 142 163
130 147 170
128 144 164
131 148 172
130 147 168
128 146 167
129 145 167
126 143 163
127 144 166
128 145 166
127 145 166
125 143 163
129 145 166
128 146 167
105 133 137
95 132 123
96 133 127
98 136 128
89 123 116
95 131 124
94 130 124
98 133 125
91 126 121
77 105 148
36 39 204
37 40 209
37 40 208
38 40 214
37 39 206
38 40 212
37 39 209
36 38 206
37 39 210
37 39 213
38 40 214
38 40 217
67 59 207
127 105 218
158 131 220
173 141 212
166 134 193
155 123 173
143 111 158
132 103 137
123 103 130
115 109 132
110 116 137
112 123 138
120 133 149
111 124 140
111 123 139
113 124 141
110 121 137
114 125 141
114 124 138
112 124 139
103 112 124
106 115 127
97 104 113
80 82 85
72 71 71
77 76 79
77 76 77
73 71 70
75 74 75
79 78 78
77 77 77
78 77 79
75 75 76
81 79 80
76 74 74
80 80 82
76 77 78
82 83 83
87 88 88
78 78 78
80 79 81
79 78 78
76 76 76
86 86 87
80 80 79
85 85 85
78 78 78
87 86 86
79 81 79
85 86 86
80 80 79
82 82 81
75 75 73
81 82 82
78 80 79
74 74 74
82 83 82
81 81 81
81 81 80
74 74 70
87 88 88
77 76 75
80 81 79
79 80 78
77 77 76
82 83 82
79 81 79
81 81 81
77 77 76
90 92 96
98 103 111
110 121 135
110 121 135
116 127 144
115 127 143
111 122 137
117 129 145
109 118 133
112 123 138
116 128 144
121 134 152
119 131 148
119 132 151
117 129 146
119 133 152
122 135 153
109 141 120
98 164 48
102 172 49
104 175 51
106 181 53
113 193 56
112 189 56
111 189 55
111 189 55
108 187 55
114 195 57
109 189 56
112 193 57
114 195 57
112 193 57
111 192 57
110 192 56
111 192 57
112 193 57
107 190 56
110 190 56
119 175 119
128 144 165
119 135 157
129 145 167
125 142 163
129 147 170
127 144 166
129 145 167
129 147 170
131 149 171
131 148 172
126 142 164
130 148 171
129 146 168
129 147 171
127 144 166
128 145 167
124 142 164
129 147 170
129 146 169
131 148 169
128 145 166
95 110 156
95 109 157
93 109 153
95 110 157
93 109 153
93 107 153
92 107 151
87 99 141
61 40 58
58 13 29
54 12 26
57 13 28
55 12 27
52 11 26
52 11 26
51 11 25
77 80 92
112 128 147
116 132 153
110 128 145
117 132 152
120 138 157
112 131 147
119 138 157
117 136 156
122 139 160
122 141 162
117 133 151
123 154 123
123 165 70
123 167 62
122 165 61
123 168 63
123 166 62
124 168 63
125 169 63
126 169 63
123 167 62
124 168 62
125 168 63
123 166 62
122 165 61
120 163 61
123 165 62
113 153 59
71 84 53
50 47 51
52 49 52
48 46 48
49 46 50
49 46 50
49 46 50
46 43 47
45 42 46
112 126 146
131 150 174
127 144 168
130 148 172
131 149 171
130 148 171
130 149 173
130 149 173
132 149 172
132 150 174
131 148 172
132 149 173
127 145 168
132 150 172
131 148 172
128 146 170
133 150 172
133 151 174
128 147 170
130 148 171
132 150 173
129 145 168
130 148 171
133 150 172
132 150 173
131 149 172
131 149 171
128 144 167
131 148 171
133 150 173
132 150 174
131 149 172
129 145 167
129 147 168
129 145 167
129 146 168
132 150 172
131 148 169
131 149 171
129 148 170
133 151 174
126 143 164
123 140 161
125 143 164
128 147 169
126 144 165
126 144 165
123 141 161
123 141 161
127 144 165
127 143 163
118 136 153
94 120 122
87 120 112
87 121 113
90 125 118
93 128 120
93 128 120
89 122 118
81 113 120
53 67 185
36 39 202
37 40 208
37 39 207
36 39 202
37 39 207
36 38 207
36 38 203
39 41 216
35 37 200
36 37 206
50 46 204
121 100 215
164 136 226
193 161 235
188 159 236
184 157 235
181 155 233
178 153 230
171 145 215
160 132 188
156 124 171
149 116 156
122 97 130
91 82 109
103 109 127
105 115 127
111 122 138
105 116 129
111 123 137
104 114 126
110 120 134
113 122 136
101 110 122
102 111 124
103 112 125
101 110 121
95 101 110
78 78 83
69 69 69
70 68 66
74 74 74
78 76 77
77 76 77
75 74 74
75 74 75
78 78 80
78 77 78
75 74 75
75 75 76
75 75 75
81 80 82
74 73 72
72 72 71
79 79 80
76 75 75
77 76 76
81 81 80
82 82 83
72 71 69
74 73 74
80 81 81
76 76 76
78 78 76
79 79 78
74 74 74
73 73 73
71 71 70
83 83 82
78 78 76
76 76 76
78 78 75
75 76 74
78 77 76
73 73 71
75 74 72
74 74 73
68 68 64
85 85 84
77 76 74
75 76 76
88 93 99
102 111 124
107 116 127
105 114 127
107 117 131
112 121 134
112 122 137
113 123 137
110 121 137
108 119 133
117 129 144
113 123 139
117 130 148
117 130 147
121 133 149
120 133 151
120 132 149
119 132 150
99 146 84
98 165 47
102 171 50
105 178 52
103 175 51
110 189 55
107 182 54
115 196 57
112 190 56
113 192 56
112 189 56
111 190 56
111 191 56
110 188 55
113 193 57
109 187 55
108 189 55
111 192 56
111 193 57
113 193 57
104 183 53
115 190 78
127 155 156
129 146 168
124 141 159
126 143 164
127 144 167
127 144 165
132 150 174
126 142 163
127 142 164
129 146 168
130 147 170
127 144 167
125 141 161
129 146 168
130 147 169
130 147 169
128 144 166
127 144 167
129 147 169
131 148 169
127 145 166
93 107 151
95 109 155
94 109 155
92 106 152
91 106 150
87 102 140
91 106 147
88 102 140
77 83 118
54 11 26
51 11 24
49 11 24
51 11 25
48 10 23
56 34 44
87 94 107
105 119 137
110 125 143
103 117 133
113 129 148
116 130 151
117 133 152
115 129 148
119 136 155
114 130 149
119 136 157
119 136 155
115 143 118
122 164 68
126 170 63
126 170 63
126 169 63
126 169 62
127 171 63
126 169 63
124 166 62
123 167 62
124 167 62
121 163 60
124 168 63
127 170 63
118 160 60
118 160 59
122 165 61
122 164 60
107 141 56
54 60 49
48 46 49
46 43 46
43 41 45
44 43 45
47 44 48
42 40 44
75 83 95
125 142 164
132 150 172
128 145 166
130 149 172
128 145 168
126 144 167
131 149 172
130 148 171
129 147 171
128 145 168
131 148 171
134 152 177
127 145 168
131 149 172
129 148 171
133 151 175
130 147 169
131 149 172
133 150 172
131 147 170
131 149 172
133 150 173
127 145 167
128 146 169
131 148 171
132 148 172
132 149 172
133 150 173
130 148 169
132 150 173
133 151 172
127 146 168
126 143 165
128 146 167
128 146 167
128 145 167
132 149 171
133 151 174
126 143 164
130 149 172
128 146 167
129 147 169
127 144 164
128 146 167
128 146 168
126 144 167
125 143 163
122 139 160
120 138 157
123 141 162
118 137 153
120 138 157
113 131 146
97 121 124
80 110 106
81 113 106
86 120 111
82 114 106
83 113 105
70 95 131
37 39 205
35 38 198
35 38 198
36 38 201
36 38 199
36 38 201
36 38 202
35 38 200
36 38 205
37 39 208
67 59 206
142 117 221
188 156 232
190 160 236
185 158 236
181 156 236
178 155 236
176 155 236
175 154 236
176 154 236
174 153 232
167 143 213
159 132 189
158 125 172
145 109 146
99 75 105
104 103 121
113 123 139
105 114 126
105 114 125
103 113 126
104 113 126
105 115 127
99 108 121
96 103 113
94 101 110
91 98 109
92 100 109
94 100 107
81 85 90
77 80 84
70 69 68
63 63 63
59 58 56
75 74 74
70 68 68
71 70 70
68 68 68
69 67 64
74 72 73
69 68 67
74 74 73
73 72 73
69 68 68
73 72 73
76 75 76
75 75 76
72 73 71
69 68 69
73 73 72
73 72 71
69 67 65
71 72 70
71 71 68
75 75 75
76 76 76
68 68 67
79 78 77
73 73 71
74 75 73
73 74 72
70 70 68
76 76 75
61 60 56
75 74 73
76 75 74
72 72 71
68 68 67
69 69 70
89 93 100
89 95 103
107 116 128
101 110 121
107 116 127
113 124 139
105 117 130
111 124 140
107 116 127
109 118 131
116 127 140
110 121 135
117 129 145
115 127 142
114 126 140
114 125 140
119 133 151
116 128 144
116 130 148
120 134 146
99 154 75
103 172 50
99 168 49
103 174 50
110 186 54
108 183 54
108 184 54
105 181 53
113 191 56
109 185 54
108 183 53
112 191 56
113 191 56
114 193 57
105 182 53
116 197 57
109 189 55
107 185 54
109 187 55
107 183 54
103 180 53
104 181 53
125 154 149
126 142 163
127 143 163
129 146 169
127 144 166
128 143 165
131 148 170
127 144 166
130 146 167
124 139 160
129 145 167
129 146 168
128 144 165
129 146 167
132 150 171
131 149 173
131 147 170
129 146 169
126 142 162
127 144 167
123 138 159
91 106 152
92 107 152
90 104 149
88 103 145
90 104 147
92 104 149
83 96 130
89 102 143
83 96 134
46 13 25
41 9 20
40 8 19
41 18 25
47 39 45
79 85 96
82 90 103
90 99 112
90 98 111
105 117 136
102 115 132
104 116 136
111 125 144
112 125 146
109 122 139
114 129 148
112 127 147
123 144 150
124 165 76
119 161 60
122 165 61
124 166 62
124 168 62
123 166 61
122 164 62
124 166 62
120 162 60
123 166 62
121 164 61
122 163 60
124 165 61
120 162 60
121 164 61
118 159 59
122 164 60
121 163 60
116 153 57
93 122 52
51 55 45
46 44 47
43 41 44
42 40 43
47 44 47
63 68 77
124 141 163
125 143 166
122 139 161
124 140 161
122 139 160
127 145 168
127 145 169
129 147 170
126 143 163
128 144 167
130 148 171
127 145 168
124 141 163
131 148 171
129 144 166
131 148 170
129 147 169
130 148 172
132 148 171
132 150 173
133 150 173
128 144 167
132 149 171
129 146 168
133 150 174
128 146 167
131 149 172
132 149 171
132 150 172
133 151 174
130 148 171
133 150 172
130 147 170
134 152 175
131 149 171
131 149 172
131 148 170
132 151 174
135 152 175
129 146 168
132 149 171
128 145 166
124 143 164
126 146 166
129 147 169
121 140 160
126 144 164
124 143 162
125 145 165
119 139 156
115 133 151
108 127 142
112 131 147
106 123 136
97 115 125
97 117 124
72 97 93
71 101 95
75 105 96
69 98 91
52 71 147
37 40 208
35 38 195
37 39 205
35 37 195
34 37 192
37 38 205
35 37 202
35 37 200
35 36 198
57 50 197
139 114 219
195 161 236
190 160 236
185 158 236
180 156 236
177 155 236
175 154 236
173 153 236
172 153 236
173 153 236
174 154 236
175 154 236
175 152 229
168 142 209
164 132 186
144 110 146
95 76 99
101 100 117
99 107 117
102 111 123
104 114 128
104 112 122
94 101 111
102 110 120
100 109 121
96 103 114
73 78 82
86 91 100
86 90 94
89 94 102
90 96 103
69 72 76
81 83 89
69 69 68
64 63 63
62 61 60
61 60 60
63 63 62
60 58 58
71 71 70
64 62 61
60 58 58
65 63 61
67 66 65
62 61 59
65 64 64
69 68 68
66 64 63
76 74 72
70 69 68
67 67 64
62 61 61
69 69 68
67 67 66
70 70 70
69 68 68
74 74 72
70 69 69
63 63 63
72 71 70
57 57 55
70 70 68
72 70 70
64 63 61
66 66 62
66 68 67
79 82 86
83 89 95
87 92 99
91 96 104
101 108 119
97 104 114
92 99 108
95 103 114
94 101 111
97 105 115
109 120 133
106 116 130
104 113 123
111 121 134
110 120 134
113 125 139
109 120 133
108 116 129
111 123 137
112 123 139
113 125 138
114 125 139
116 134 139
94 158 49
98 165 47
95 161 47
99 170 50
101 172 50
108 183 53
103 176 52
107 183 53
105 180 52
107 180 53
109 189 55
110 188 55
108 186 54
106 181 53
108 187 55
107 183 54
112 189 55
110 190 56
104 181 53
106 184 54
109 190 55
101 175 52
120 155 142
129 147 167
127 143 164
126 143 164
128 145 168
127 143 163
126 142 163
128 144 164
129 145 167
133 149 171
125 142 162
131 147 168
129 146 167
124 140 161
129 147 169
128 145 166
126 141 162
130 146 168
124 140 159
125 142 162
125 142 163
95 109 153
89 103 145
88 102 143
87 101 141
91 105 149
87 101 142
86 100 141
85 99 137
86 100 137
59 65 84
36 34 39
43 48 50
68 75 83
59 61 70
69 73 83
88 97 109
89 98 111
100 111 127
96 109 123
106 118 137
110 123 142
117 132 152
116 131 153
115 130 151
113 127 148
119 137 153
116 150 93
118 159 59
121 163 61
122 165 61
119 160 60
119 160 59
124 167 62
122 166 61
121 165 61
121 164 60
118 158 59
120 162 59
118 158 59
120 162 60
121 163 60
121 162 60
118 158 59
121 163 60
118 158 58
115 153 57
110 147 55
66 81 46
42 40 42
40 38 40
38 36 39
67 72 81
118 134 155
117 134 155
121 137 159
124 141 163
121 137 157
123 139 160
118 132 152
124 140 162
125 141 163
127 144 167
129 146 169
127 144 167
128 145 167
127 144 167
128 146 168
128 145 167
130 147 169
132 149 171
129 145 166
130 147 168
131 149 172
131 149 172
130 148 171
131 149 173
130 149 171
129 145 167
130 148 171
128 146 168
132 150 174
130 147 169
130 147 169
130 148 170
132 151 174
129 147 171
131 148 170
130 148 170
128 146 169
128 144 165
130 148 169
129 148 171
128 146 168
129 148 170
129 148 169
127 144 165
125 145 165
126 145 167
129 147 169
129 148 170
120 140 158
121 140 157
120 139 157
116 134 153
105 123 137
106 123 136
98 115 125
95 113 122
96 111 123
73 89 93
61 75 78
51 63 63
45 59 57
40 45 159
34 36 189
32 35 182
34 37 192
35 37 194
35 37 195
34 37 195
34 35 190
33 35 191
40 39 197
142 116 218
192 158 234
192 161 236
187 159 236
182 157 236
179 156 236
176 155 236
174 154 236
173 153 236
172 153 236
172 153 236
173 154 236
175 154 236
177 155 236
180 156 235
178 151 224
171 137 192
128 100 130
96 76 101
98 96 111
94 101 110
92 101 112
101 111 121
95 103 112
95 102 113
94 102 112
74 79 84
84 89 97
77 83 90
84 89 97
79 83 87
76 81 88
77 80 87
68 69 73
67 70 76
61 65 70
67 75 78
71 88 89
66 85 85
71 87 87
74 100 101
71 91 91
62 67 66
62 62 61
58 57 55
57 56 55
62 60 58
60 59 58
57 55 54
59 56 54
58 57 55
59 57 55
59 57 56
62 61 60
63 62 60
62 60 58
60 59 58
62 60 59
65 62 61
60 58 56
59 59 57
59 59 56
54 54 52
65 67 68
74 77 80
73 77 83
82 87 93
79 82 88
81 87 95
84 91 97
92 99 108
83 87 92
95 101 111
99 109 117
97 104 115
96 104 113
103 112 123
106 116 127
102 111 121
104 114 126
103 111 123
108 119 131
101 110 120
107 117 129
112 124 139
111 121 135
108 121 136
118 131 149
115 125 140
112 127 132
90 150 51
91 153 44
101 171 50
95 162 47
107 180 53
105 177 51
102 176 51
106 181 53
104 177 52
102 173 51
101 174 51
107 185 54
111 189 55
102 176 52
104 180 52
108 186 54
103 178 52
102 178 52
106 182 53
97 168 50
104 181 53
104 180 52
118 155 133
126 141 160
126 140 160
127 143 164
127 144 165
129 145 168
127 143 164
127 144 164
129 144 163
120 137 157
126 143 163
128 143 165
127 143 164
124 140 160
128 144 165
123 140 161
127 143 164
123 138 159
125 141 162
128 144 165
124 141 162
89 102 144
90 104 148
93 106 150
85 98 136
86 99 138
85 98 135
89 103 145
85 99 138
88 102 141
73 81 102
91 98 113
88 95 108
85 90 104
90 99 113
89 98 113
90 98 113
107 120 138
104 115 131
111 125 145
105 116 134
111 125 145
117 132 154
124 140 162
122 138 159
118 134 155
118 139 140
116 157 64
120 162 60
114 155 58
123 165 61
122 164 61
120 162 60
117 157 58
112 153 56
120 162 60
118 159 59
123 164 61
118 159 59
121 163 60
117 157 58
120 158 58
117 157 58
115 155 58
114 152 56
115 155 58
118 158 59
109 146 54
95 126 51
41 40 40
41 40 44
72 79 89
104 116 133
103 116 132
108 122 140
109 124 143
116 132 151
113 129 147
115 131 151
121 137 159
120 136 158
123 138 161
120 136 157
118 134 156
125 141 162
127 143 165
129 147 170
128 145 167
125 142 164
130 147 170
129 147 171
126 143 165
129 148 169
127 145 168
130 147 170
130 147 171
131 149 171
127 146 167
126 148 163
130 149 168
133 150 173
130 148 172
129 147 169
132 150 172
132 149 171
128 145 167
128 145 167
129 147 170
130 148 172
130 148 170
124 141 161
126 145 166
128 145 165
131 150 172
129 148 171
126 145 166
124 141 162
131 148 170
122 140 161
125 143 162
125 145 164
127 145 166
120 138 158
119 138 154
115 133 149
119 137 154
120 137 155
113 131 144
105 121 135
99 117 128
97 113 125
84 100 106
78 93 96
84 98 104
51 58 167
33 35 182
33 35 182
33 35 183
32 33 178
35 37 196
34 35 190
33 34 183
33 34 183
102 85 202
191 156 229
196 163 236
191 160 236
186 159 236
182 157 236
180 156 236
177 155 236
175 154 236
174 154 236
174 154 236
174 154 236
175 154 236
176 155 236
178 155 236
181 156 236
184 158 236
185 156 230
172 137 192
124 96 129
94 78 100
96 102 114
99 107 117
88 95 104
94 101 110
95 102 113
79 83 90
86 92 102
78 83 89
87 94 103
77 82 89
78 83 90
75 79 85
76 80 87
79 89 95
78 97 99
89 121 123
97 139 140
97 143 145
102 151 152
98 144 146
100 148 149
96 141 142
91 136 137
84 116 115
70 96 96
54 60 59
58 57 56
53 53 51
49 48 46
50 49 48
53 51 50
52 50 47
45 43 40
56 54 53
57 56 54
47 46 43
43 43 40
47 46 44
47 47 45
46 46 47
59 62 64
58 60 63
61 65 65
77 81 86
62 67 67
72 75 80
74 78 84
78 82 90
84 90 98
86 92 99
84 89 94
87 94 102
94 102 112
87 93 98
96 104 115
95 101 109
102 111 121
104 114 126
97 107 117
108 118 131
103 111 120
106 116 129
108 120 131
111 122 137
106 116 128
115 126 141
112 123 138
111 123 134
118 130 146
111 126 133
91 148 56
90 152 45
92 156 45
98 165 49
97 166 49
99 171 50
102 176 51
101 174 51
102 175 51
100 174 51
108 184 54
107 183 54
102 174 52
101 175 51
105 179 53
102 176 51
102 176 51
108 185 54
101 172 50
104 178 53
99 172 50
101 175 51
120 154 136
124 138 157
126 143 163
128 143 163
125 140 159
130 146 167
127 143 164
127 143 164
127 143 163
126 141 162
128 144 164
125 142 163
127 143 164
128 144 164
127 144 165
129 146 167
124 140 159
127 144 165
127 143 163
122 137 156
126 142 162
90 104 148
90 104 146
85 99 139
88 102 144
86 99 138
83 95 131
82 95 134
81 94 129
81 93 131
100 112 137
103 114 134
115 128 148
114 127 148
110 123 143
109 122 142
117 131 151
119 135 156
123 138 161
125 140 162
121 137 159
120 136 158
122 138 159
119 134 156
124 142 164
122 139 160
121 150 113
115 155 58
121 162 60
120 162 60
114 153 56
117 157 58
116 157 58
117 157 58
118 157 58
119 160 59
120 161 59
114 155 57
122 162 60
115 155 57
118 159 58
117 157 57
116 155 57
115 157 57
113 153 56
110 147 54
114 152 56
116 155 57
100 134 53
63 72 66
76 83 93
84 94 106
90 99 112
99 111 124
101 112 128
105 118 134
105 119 135
114 128 147
112 127 145
116 132 152
119 134 153
115 131 152
124 141 162
126 144 166
124 141 162
125 140 161
127 144 166
127 145 167
124 141 163
127 144 165
129 147 169
127 144 165
130 149 170
124 144 160
122 149 152
111 146 132
105 143 121
103 143 113
105 146 118
107 143 121
107 144 123
118 147 145
119 142 152
128 148 167
129 147 169
130 148 169
129 147 169
126 143 164
125 143 166
131 149 171
127 144 166
130 149 173
126 144 164
128 146 169
127 144 165
128 146 167
128 146 166
124 141 162
128 147 168
125 144 165
124 142 163
124 142 162
124 142 163
120 137 154
117 135 152
118 137 156
114 131 148
119 137 156
113 129 146
106 123 136
109 127 142
107 124 138
112 128 144
103 119 131
63 71 163
31 34 176
34 36 189
33 35 181
33 35 186
34 36 190
32 33 177
33 35 189
32 34 172
157 126 203
202 165 236
196 163 236
191 161 236
187 159 236
184 158 236
182 157 236
179 156 236
178 155 236
177 155 236
177 155 236
177 155 236
177 155 236
179 156 236
180 156 236
182 157 236
185 158 236
189 160 236
191 159 232
163 131 185
96 77 101
91 91 107
95 104 115
97 105 117
90 97 107
96 105 119
88 94 102
91 97 107
93 101 110
90 96 107
88 95 105
80 84 92
82 88 96
75 91 99
90 127 128
102 150 151
105 155 156
104 155 155
102 153 154
104 156 157
105 156 157
104 155 155
103 153 154
103 153 154
103 152 152
94 139 141
80 120 121
61 84 85
30 33 34
27 25 28
31 30 33
29 29 27
27 25 28
38 38 39
25 26 23
39 39 40
39 41 43
47 49 50
42 42 44
48 51 53
49 51 54
57 61 63
61 64 66
61 63 67
58 60 61
62 64 69
77 82 86
74 78 83
73 78 85
78 82 87
79 82 89
85 93 102
88 95 101
84 91 98
89 95 104
98 107 116
96 106 114
95 102 111
96 103 112
107 116 127
103 113 124
103 113 125
105 116 128
113 123 134
106 116 128
118 130 146
114 126 139
107 117 130
109 119 131
109 121 134
121 135 149
89 138 69
94 158 45
92 156 45
95 161 47
100 171 50
94 159 46
102 174 50
99 169 49
102 174 50
102 176 51
102 176 52
106 180 52
101 173 51
102 175 51
103 178 52
102 177 51
103 175 52
105 181 53
97 168 49
100 170 50
100 174 51
95 167 57
122 142 157
124 140 159
127 144 165
126 141 160
127 144 163
121 137 155
124 141 162
126 142 163
125 141 162
125 142 162
126 143 162
126 143 165
124 141 160
130 146 167
123 141 159
121 137 158
128 145 167
124 141 162
124 140 162
124 140 159
124 139 160
87 101 142
86 99 139
82 96 135
82 96 135
84 97 135
82 96 134
81 94 133
81 94 130
78 91 125
95 107 131
120 136 159
115 129 151
120 135 157
127 143 165
117 133 154
116 131 153
124 140 163
121 137 160
121 138 161
126 141 164
121 138 161
128 144 167
123 139 162
124 140 162
123 141 161
113 149 78
113 152 56
118 159 59
114 154 57
111 151 56
122 162 60
114 154 57
116 156 57
115 154 57
117 156 58
117 158 58
116 155 57
115 154 57
119 159 58
118 159 59
114 152 57
116 156 57
116 155 57
116 156 57
114 151 56
109 146 53
113 153 56
112 149 55
90 108 86
69 77 86
74 82 93
85 94 107
92 103 117
99 111 127
101 114 130
118 133 153
118 134 155
112 128 147
122 139 160
115 131 151
121 138 159
125 142 165
123 138 159
125 142 164
127 145 166
123 140 163
129 147 170
129 146 169
128 146 170
127 144 167
128 150 167
117 143 144
101 144 109
88 143 74
86 143 63
84 143 59
83 141 56
84 144 57
84 142 56
83 140 55
86 143 64
91 140 82
109 145 125
120 147 152
129 147 169
125 142 164
126 144 167
131 149 171
129 147 168
130 147 169
132 149 171
126 143 164
130 148 169
128 144 164
127 144 164
127 143 166
126 145 166
124 143 162
124 141 163
128 146 167
127 143 162
124 142 161
118 134 153
119 136 155
125 142 161
119 138 157
114 132 149
119 136 158
114 130 149
123 141 160
116 132 151
124 141 161
114 130 147
73 83 163
31 33 171
32 35 183
32 34 181
32 34 181
33 34 183
32 33 180
31 32 175
75 61 181
172 139 205
202 165 236
197 163 236
193 161 236
190 160 236
187 159 236
185 158 236
183 157 236
182 157 236
181 157 236
181 156 236
181 157 236
181 157 236
182 157 236
184 158 236
186 158 236
188 159 236
191 161 236
194 162 236
194 160 229
130 107 138
90 77 95
100 108 120
95 104 114
97 105 116
99 106 117
88 96 107
90 95 107
92 98 107
90 95 105
85 91 100
88 98 106
85 109 114
98 143 144
103 152 151
101 149 150
101 152 153
102 152 153
104 155 156
102 152 153
104 154 156
103 154 155
103 153 152
102 151 152
102 151 151
102 152 154
99 149 149
95 140 140
78 109 109
52 59 59
55 58 63
42 45 46
43 46 48
43 46 44
54 55 57
43 44 48
49 50 53
48 51 52
60 63 67
54 57 61
59 64 67
54 57 58
63 67 68
69 73 77
76 82 85
77 81 87
76 80 84
90 97 105
71 76 78
85 91 98
83 91 97
91 98 104
83 90 95
88 95 103
94 102 110
89 96 103
91 99 106
96 104 114
103 112 121
97 107 116
102 110 122
103 112 122
104 114 124
108 119 130
103 111 121
107 118 128
107 117 129
109 121 133
112 124 138
109 121 133
110 123 136
101 134 110
88 150 43
89 151 43
89 155 44
96 164 48
96 164 48
95 161 47
94 160 47
103 175 51
103 176 51
95 162 47
99 170 49
95 164 48
100 172 51
99 171 50
103 176 51
96 166 48
97 169 49
100 172 50
95 168 49
98 175 50
105 167 84
125 141 160
126 142 161
130 145 165
127 144 165
127 144 165
130 146 167
128 145 166
124 140 159
125 141 160
123 138 157
130 145 166
123 139 159
129 146 167
127 144 165
125 141 160
130 146 167
124 140 159
127 144 164
126 143 164
127 143 164
126 143 163
83 96 135
81 93 133
80 92 131
82 95 132
79 93 131
79 91 127
78 90 122
83 96 131
81 94 130
108 123 148
128 145 168
125 142 165
127 143 167
125 142 164
124 141 165
129 146 170
129 146 168
127 145 169
123 139 162
129 147 171
125 142 165
127 144 166
125 143 167
119 135 158
123 144 155
112 147 79
113 152 56
111 149 55
108 147 54
119 160 59
110 150 55
114 152 56
113 153 56
113 152 56
115 156 58
113 150 55
116 156 57
112 153 56
113 151 56
110 149 54
111 150 55
113 151 55
110 147 55
108 147 53
107 143 53
110 147 54
103 138 51
106 143 54
99 119 102
87 97 111
106 119 137
101 114 131
105 119 136
112 126 146
114 129 148
116 131 152
115 129 150
117 132 152
124 141 163
123 139 160
125 142 163
129 146 168
124 141 162
121 138 160
123 140 162
124 141 163
129 146 170
132 150 174
129 146 168
115 142 141
102 144 111
89 142 76
84 143 56
84 142 56
84 143 56
83 142 56
83 142 56
84 143 57
83 142 56
83 141 56
83 142 56
83 141 55
84 142 56
88 138 78
108 143 127
128 148 165
133 150 172
125 142 165
126 142 165
127 145 167
131 150 172
132 149 171
127 144 165
129 146 167
128 145 168
130 147 168
131 148 171
124 142 162
129 146 167
125 144 166
127 145 166
124 142 162
124 141 160
123 140 162
126 142 164
126 143 165
124 141 162
118 132 151
123 140 160
121 137 155
119 135 153
118 135 153
117 134 152
93 106 164
32 34 181
31 33 177
32 34 177
31 33 174
30 32 170
31 32 174
32 34 184
88 73 159
182 146 210
203 165 236
200 164 236
197 163 236
193 162 236
191 161 236
189 160 236
188 159 236
186 159 236
185 158 236
186 158 236
185 158 236
186 159 236
187 159 236
188 159 236
190 160 236
192 161 236
194 162 236
197 163 236
201 164 236
182 148 207
102 84 110
98 102 116
95 102 114
98 106 117
104 112 125
93 100 112
95 102 113
97 105 116
95 102 114
91 100 110
94 113 119
100 143 145
100 148 149
104 154 156
103 153 153
104 153 153
103 154 156
102 152 154
103 154 153
106 156 156
102 152 152
103 153 153
102 152 153
103 152 152
102 151 152
102 151 152
101 150 150
96 141 141
74 99 101
65 73 76
53 56 56
60 61 65
69 73 80
48 49 50
56 61 60
66 70 74
66 70 74
76 81 88
74 77 81
71 76 77
74 80 85
72 76 81
82 88 93
79 83 90
84 90 96
91 100 106
89 95 103
91 99 105
86 93 100
88 96 103
87 92 97
93 101 109
94 101 108
94 102 109
95 103 109
98 107 117
93 103 108
100 110 120
104 115 124
102 112 122
111 122 135
111 122 135
102 114 125
110 122 135
112 122 135
106 117 129
115 127 141
117 129 143
104 116 129
114 127 139
114 137 135
90 146 58
84 143 41
87 150 43
92 156 46
96 164 48
98 167 48
100 169 49
98 169 48
97 169 49
90 157 45
95 161 48
100 173 50
99 169 49
91 161 46
98 169 49
100 173 50
96 167 49
91 159 46
91 158 46
97 168 49
110 151 121
124 138 157
124 140 158
127 145 164
126 141 159
121 136 154
128 144 165
127 144 163
127 144 164
124 142 158
124 139 159
126 142 162
127 143 163
129 146 168
129 146 168
128 145 166
123 142 160
128 146 165
127 144 165
128 144 165
125 140 159
128 145 166
84 98 136
82 94 131
83 97 137
80 94 129
79 92 128
80 94 129
79 91 127
75 88 120
82 95 130
118 134 159
129 147 171
125 142 166
130 147 172
128 145 169
125 142 166
130 147 171
125 142 165
128 146 170
126 144 168
124 141 162
126 143 166
128 145 168
128 146 168
130 149 173
127 147 160
114 152 65
106 144 53
108 145 54
112 151 56
109 147 54
116 155 57
116 156 57
115 154 57
111 148 55
109 147 54
109 147 54
116 156 57
114 153 56
112 153 56
111 149 54
110 147 54
113 151 55
105 141 52
105 142 52
112 148 55
104 139 51
111 145 54
104 139 51
110 134 122
111 126 145
113 128 148
116 131 150
114 130 149
116 131 151
111 126 146
118 133 155
123 139 161
122 139 161
125 143 167
125 142 164
131 148 170
123 141 162
128 146 168
125 142 165
130 148 171
129 147 170
126 144 165
126 143 167
115 147 139
94 142 89
82 139 55
81 137 54
82 140 55
83 141 55
83 140 55
83 141 55
83 142 56
82 139 55
83 141 55
83 139 55
83 140 55
84 141 55
83 141 55
81 137 54
81 132 61
98 141 103
121 143 155
128 146 167
128 145 166
129 146 168
128 144 166
129 147 167
128 146 168
127 143 165
130 146 167
124 142 162
128 144 164
130 148 170
125 143 164
126 143 164
123 140 161
122 139 159
124 140 161
126 142 163
128 146 168
126 143 165
127 144 164
123 139 159
123 141 159
122 138 158
123 140 160
124 140 158
121 136 156
113 128 161
27 30 157
28 30 158
30 31 166
31 33 171
30 31 166
30 31 167
35 35 175
94 81 152
149 118 166
202 164 232
201 165 234
200 164 236
198 163 236
195 162 236
194 162 236
193 161 236
191 161 236
192 161 236
191 160 236
191 160 236
191 161 236
192 161 236
193 161 236
193 161 235
193 160 233
197 163 236
201 165 236
204 166 236
186 157 211
120 101 134
98 102 116
105 115 130
103 114 129
95 103 116
96 105 114
100 109 123
97 105 116
103 114 127
105 130 139
99 145 146
96 142 142
98 145 146
98 146 147
100 149 149
101 149 150
99 148 149
101 150 151
103 152 152
100 149 149
101 150 151
102 151 152
103 153 153
101 150 149
99 149 150
101 151 150
99 147 147
99 148 148
99 145 144
86 115 118
78 85 87
67 72 77
74 78 84
76 82 87
69 74 78
84 90 98
83 88 95
77 83 89
81 86 90
86 91 98
85 91 99
71 75 78
81 88 93
87 94 101
92 100 106
85 90 98
92 100 107
83 90 95
86 93 100
95 104 113
91 99 107
95 103 113
97 105 115
102 110 120
103 114 123
100 109 117
105 116 124
106 115 126
106 117 129
104 117 125
110 120 134
114 126 141
104 116 125
107 121 130
109 121 129
110 121 134
112 124 138
108 120 129
107 120 131
118 131 146
109 122 136
97 140 92
85 144 41
89 152 44
87 151 43
92 157 45
94 160 46
98 167 49
94 161 47
96 166 48
89 155 45
93 161 47
95 163 47
96 166 48
91 160 46
95 165 48
92 160 46
92 163 47
96 167 48
88 156 44
98 162 68
116 140 143
123 140 158
122 137 153
122 138 156
122 138 156
126 143 162
127 143 161
126 141 161
122 138 155
125 142 159
122 138 156
130 147 168
126 142 163
122 138 158
126 144 164
129 144 165
129 146 168
125 143 163
126 144 165
125 141 161
125 142 163
127 144 163
76 89 124
78 90 126
79 90 129
75 86 123
75 87 122
78 90 128
71 84 116
69 81 108
88 101 130
130 148 172
125 142 166
129 148 172
125 143 166
132 151 174
130 147 171
129 146 170
126 144 166
128 145 167
128 146 170
130 148 171
126 144 167
128 146 170
129 147 171
127 145 168
125 143 160
105 140 68
106 142 52
106 142 52
111 149 55
109 146 54
109 144 53
107 145 53
114 153 56
113 152 55
115 154 57
109 147 54
108 145 54
108 146 53
107 144 53
113 152 56
111 151 55
103 140 51
106 142 52
99 134 48
106 141 52
107 142 52
104 139 51
95 127 46
112 138 116
123 139 161
126 144 166
127 144 166
116 130 150
119 135 156
125 142 164
121 137 159
128 145 169
126 144 167
129 148 171
128 145 166
126 144 165
128 145 167
127 144 165
129 146 170
130 148 171
130 147 170
129 148 169
111 142 136
92 140 84
83 140 55
83 141 55
80 136 53
83 141 55
81 138 54
81 139 55
84 141 56
83 140 55
81 138 54
81 137 54
82 138 54
83 139 55
83 139 55
80 134 52
80 135 53
78 132 52
79 131 55
101 138 114
124 144 160
129 145 168
127 143 166
128 144 167
129 147 168
128 146 166
124 140 162
128 145 167
126 143 163
131 148 172
125 141 161
130 146 169
124 140 158
124 140 162
126 142 163
127 144 166
128 144 167
127 143 166
128 144 167
128 144 166
124 141 164
127 144 164
121 137 158
125 140 162
123 138 160
123 137 157
124 138 160
73 84 157
30 32 169
32 34 178
29 31 166
30 32 171
30 32 170
33 32 157
100 85 145
121 92 136
169 138 186
192 157 217
191 158 222
189 156 220
200 164 236
199 164 236
198 163 236
197 163 236
197 163 236
197 163 236
197 163 236
197 163 236
197 163 236
196 162 234
166 143 204
140 127 178
143 128 178
197 161 229
194 161 227
151 135 165
110 98 126
94 95 113
114 126 143
107 117 129
97 107 121
108 115 127
102 108 121
101 110 123
98 116 124
96 134 137
101 150 151
96 143 142
99 146 146
99 148 148
99 148 149
99 147 147
101 149 148
96 142 143
102 151 151
103 151 150
98 146 146
98 146 146
103 153 153
101 149 149
99 147 147
101 150 148
101 150 150
100 147 147
100 147 147
97 137 138
87 99 106
85 91 99
82 85 92
89 96 107
82 87 93
88 96 103
85 93 100
96 102 111
91 98 105
80 88 91
100 107 117
89 96 102
99 109 118
88 94 102
101 110 121
92 100 109
94 103 111
97 105 113
104 113 124
102 112 124
101 109 119
97 107 116
104 114 124
99 108 117
104 115 126
111 123 133
102 111 120
105 117 130
106 117 130
109 122 133
111 124 135
108 119 129
104 119 129
109 118 130
114 127 141
108 121 132
109 121 134
112 127 140
111 126 137
108 121 133
121 135 150
111 127 136
84 131 68
85 145 42
83 143 41
89 152 44
87 151 44
86 149 43
94 161 47
91 155 45
93 159 46
93 159 47
92 159 46
89 156 44
92 159 46
91 157 45
88 154 44
92 162 47
87 154 44
89 154 48
109 141 125
123 142 160
119 134 151
124 140 160
123 140 157
127 143 163
125 142 160
130 147 169
130 147 166
124 142 159
128 144 164
123 139 158
126 143 162
124 141 160
124 142 158
127 144 164
128 144 165
124 142 162
126 143 164
126 144 164
126 143 164
128 144 165
130 146 168
75 86 121
80 93 132
75 85 120
76 89 125
76 89 125
70 82 112
72 84 118
68 80 111
110 126 152
128 145 169
130 148 172
129 146 169
127 145 167
125 143 165
132 151 174
130 147 171
134 152 176
129 147 170
128 147 171
127 144 167
130 148 172
129 147 169
126 144 167
128 145 168
123 142 158
109 143 83
110 147 54
109 146 54
111 151 55
112 151 55
112 151 56
109 145 53
107 145 53
111 148 55
104 139 51
109 146 53
108 145 53
109 146 54
107 145 54
107 143 52
104 141 51
108 144 52
105 140 51
103 138 51
107 141 52
102 137 50
95 128 46
98 133 48
120 141 147
128 146 170
125 142 165
127 144 166
131 149 171
130 147 170
124 143 166
127 143 164
134 152 177
129 146 169
126 143 166
128 145 168
130 148 172
128 145 167
130 148 171
129 147 169
131 148 170
130 148 171
122 146 155
91 139 84
82 138 54
80 135 53
79 134 53
81 136 54
82 139 55
82 139 55
81 137 54
82 138 54
80 136 53
83 141 55
81 137 53
81 135 53
82 139 54
79 134 53
82 137 53
76 128 50
77 129 51
77 130 51
84 131 73
104 139 119
130 148 170
131 148 170
128 145 169
130 147 168
128 145 168
131 149 171
127 143 164
128 144 165
127 142 164
130 146 168
128 145 168
122 139 159
128 144 166
129 145 167
127 143 166
124 141 162
127 143 164
130 146 171
126 142 162
124 139 159
126 142 164
124 141 163
121 136 159
120 135 156
123 137 156
122 138 159
112 126 165
33 35 156
28 30 157
29 31 161
28 30 162
29 31 164
44 41 163
111 94 155
112 92 139
110 103 100
159 131 180
142 124 163
110 107 115
183 152 209
201 163 232
201 162 233
203 165 236
197 161 231
180 147 211
191 157 225
202 165 235
198 163 231
174 148 205
117 112 153
86 92 122
95 97 129
128 121 155
120 117 164
106 104 130
103 89 121
101 97 122
107 119 136
112 124 140
103 111 127
112 124 140
109 119 133
107 117 132
104 131 139
97 141 142
96 141 140
98 145 145
97 143 143
96 142 141
102 150 150
97 143 143
99 146 145
96 143 142
101 149 149
99 148 148
100 148 148
101 149 148
101 149 149
100 147 147
101 150 149
101 150 150
100 148 148
99 147 146
99 147 146
101 147 146
100 128 131
104 116 127
86 92 102
100 108 118
100 108 119
91 98 107
95 102 114
98 105 115
100 108 117
100 109 119
101 110 118
103 113 122
96 106 113
95 103 112
101 110 121
94 103 111
99 109 117
101 112 121
103 112 123
107 118 130
101 110 119
106 117 129
108 120 130
99 109 120
109 120 132
109 119 132
107 118 131
105 116 126
103 113 121
113 125 135
107 118 126
102 114 122
108 120 132
109 125 136
106 119 124
105 117 126
113 125 140
113 128 140
112 127 138
104 118 125
112 128 138
112 127 137
98 120 112
78 127 55
84 146 41
84 143 41
84 147 41
83 145 40
93 160 46
83 145 41
89 155 44
90 156 44
88 153 44
87 151 43
84 147 41
91 156 45
83 146 42
90 158 45
84 148 45
105 148 108
117 134 148
124 141 158
123 141 161
124 140 156
122 140 157
117 135 151
126 143 162
126 143 159
125 141 159
127 144 162
123 141 161
124 144 160
130 147 168
127 145 166
128 146 166
123 141 162
125 143 161
128 144 164
129 147 166
128 145 168
126 144 162
129 147 168
130 147 169
74 84 120
78 89 126
73 84 119
74 86 120
73 85 119
71 83 115
68 80 111
74 86 116
124 142 165
127 145 169
129 145 168
125 143 167
130 148 169
129 147 171
127 146 170
131 149 173
128 145 169
129 147 170
126 144 168
128 145 168
129 147 169
128 146 169
129 147 171
125 143 164
125 144 159
111 141 99
101 135 50
105 142 52
108 145 53
107 143 53
105 142 51
99 133 49
105 140 52
107 143 53
104 139 51
107 142 53
102 138 51
109 146 53
103 138 50
109 144 53
110 147 54
104 139 51
106 141 52
99 132 49
101 137 50
101 135 49
99 132 47
101 133 67
120 140 147
131 150 173
131 149 173
128 146 169
128 145 167
131 148 172
127 144 166
129 147 170
132 150 174
129 146 168
128 146 170
130 148 170
130 148 171
126 143 166
132 151 174
129 146 168
131 149 171
130 151 170
98 137 108
81 135 57
81 137 53
81 137 53
80 134 53
81 135 53
81 136 54
78 131 52
82 137 53
79 134 53
82 139 55
80 136 54
77 130 51
80 135 53
79 134 53
80 135 53
79 133 52
81 137 53
79 133 52
79 133 52
79 133 52
82 130 68
114 140 142
127 144 166
131 148 170
128 146 171
131 148 169
129 147 168
128 144 166
131 149 173
124 142 165
124 140 161
129 147 170
129 146 169
131 148 169
122 137 158
125 142 165
124 140 161
125 141 165
124 141 163
120 137 163
125 142 165
126 144 168
123 139 160
122 139 160
121 138 160
123 139 160
119 135 157
117 131 153
92 104 162
30 33 155
26 27 147
28 29 156
27 29 158
42 38 153
112 96 152
121 104 155
107 95 129
124 106 155
93 91 104
66 83 45
126 108 138
142 111 168
160 103 172
170 120 182
152 114 165
79 60 89
108 87 125
185 151 213
153 132 175
100 104 123
82 89 113
83 88 118
75 78 106
98 93 132
112 102 147
110 98 134
112 95 135
107 103 132
113 125 143
115 126 142
111 122 136
114 124 140
114 127 143
111 128 140
93 131 135
95 138 139
95 142 140
92 136 135
95 140 139
97 143 143
101 149 148
97 145 145
97 144 144
93 138 137
97 144 144
101 150 150
99 147 147
97 145 145
97 144 145
99 147 147
97 145 144
96 143 143
96 142 142
99 148 148
98 145 145
97 144 144
98 140 141
101 119 128
109 120 131
105 114 127
100 109 120
106 117 130
100 108 119
104 114 128
103 112 122
105 117 130
106 116 127
100 107 116
108 120 133
106 117 132
106 118 126
107 119 131
107 117 128
109 120 133
101 110 121
105 116 126
106 117 129
106 118 129
104 116 126
108 120 131
108 120 133
105 115 129
106 117 126
108 120 131
115 128 140
108 120 132
108 121 132
114 127 138
105 118 127
108 121 130
109 122 132
108 121 131
106 118 129
106 120 130
108 121 131
104 117 124
114 129 139
113 128 139
105 119 124
101 124 115
78 125 63
68 122 32
79 139 38
80 142 39
82 143 40
81 139 40
82 143 41
78 139 38
81 144 40
80 143 39
89 154 44
81 144 41
80 143 41
77 139 42
97 141 102
116 136 143
117 137 148
117 135 150
119 137 152
122 140 156
115 135 142
123 141 160
126 143 160
124 141 159
120 139 154
127 144 164
129 147 166
129 147 165
123 143 159
127 146 164
127 146 167
128 146 168
129 148 168
127 145 165
126 144 165
132 151 171
128 146 165
129 148 169
127 147 166
76 87 125
70 81 114
71 82 116
66 78 108
69 80 113
69 80 112
70 82 112
114 130 153
122 139 163
130 148 173
128 146 171
128 145 168
127 143 165
127 144 168
125 143 165
131 148 172
128 145 169
127 145 168
127 144 168
128 145 168
130 149 174
122 141 163
127 145 167
124 141 164
129 147 171
109 134 116
104 140 51
101 137 50
103 139 51
106 143 52
98 133 49
106 144 52
103 140 50
105 142 52
101 135 49
104 140 51
99 135 49
100 132 48
104 139 50
104 139 51
99 134 49
99 132 48
103 139 51
102 138 50
106 142 52
99 133 48
97 128 48
103 134 84
129 146 168
130 148 171
131 149 171
128 146 168
128 145 167
126 144 165
128 145 167
128 145 169
126 144 165
130 148 171
128 146 170
128 146 169
131 149 173
130 148 171
130 148 171
132 149 172
129 147 171
116 143 144
84 134 71
82 140 54
79 132 52
82 139 54
80 132 52
80 134 53
81 136 53
78 131 52
81 134 53
80 133 52
80 133 52
80 135 53
81 136 53
75 125 49
78 132 52
80 134 52
79 131 51
79 135 53
78 128 51
79 132 51
77 130 51
73 123 51
96 132 107
124 143 162
127 144 167
128 146 169
129 146 171
133 150 173
124 140 165
130 148 171
131 148 172
122 139 162
127 143 167
129 146 167
125 141 163
122 138 163
124 141 164
124 141 165
121 137 162
129 145 168
126 142 166
127 144 168
120 136 158
124 140 164
124 140 164
119 134 159
119 133 156
112 125 152
119 134 157
116 133 157
73 82 151
25 27 148
27 28 157
26 27 145
36 34 140
107 90 150
124 106 159
125 106 157
119 102 152
97 88 120
68 72 69
110 96 132
115 97 146
111 74 130
126 94 146
97 69 107
36 27 44
63 52 78
120 102 148
108 95 136
84 85 110
76 81 106
69 75 100
73 74 102
103 93 134
120 102 151
118 100 149
113 96 141
108 107 133
110 121 138
115 127 145
110 122 141
116 127 144
109 120 138
107 130 141
91 131 133
91 135 133
92 137 136
96 142 142
93 137 137
96 142 140
93 139 138
93 137 138
95 140 141
95 141 140
91 135 135
95 142 141
96 143 144
90 135 135
95 142 141
97 144 144
96 142 142
97 144 142
97 142 142
96 143 141
96 141 141
97 143 143
93 139 137
99 127 131
109 120 135
112 122 136
109 121 134
112 123 137
107 118 131
106 116 130
108 118 130
109 119 132
105 116 128
107 119 134
105 116 129
115 126 138
109 121 131
107 117 129
120 133 149
110 121 134
109 121 135
113 125 138
108 121 133
114 126 139
114 126 140
114 127 139
111 123 136
112 124 137
111 124 137
113 127 140
102 116 122
119 134 147
111 123 134
114 126 139
113 125 135
117 132 144
109 123 134
97 112 116
106 120 126
103 117 126
102 119 120
107 123 129
101 115 117
100 117 119
102 117 119
97 111 113
89 105 102
82 121 71
67 119 35
71 129 34
71 127 33
79 141 38
76 135 38
74 134 36
76 135 37
77 135 38
77 138 37
80 142 40
83 135 67
105 133 124
108 128 133
103 124 126
116 137 147
114 132 142
121 141 155
111 132 138
121 141 156
122 141 156
124 141 159
121 139 156
121 138 155
122 143 160
127 146 165
127 146 163
122 141 157
124 143 159
131 149 170
127 145 163
125 145 164
127 145 167
125 142 162
127 144 165
131 149 171
129 146 168
128 148 167
66 77 112
72 84 120
69 79 113
68 80 109
63 74 102
65 75 104
103 118 144
125 143 167
128 146 169
126 143 167
124 142 165
126 143 167
120 137 159
123 141 165
122 140 163
124 141 162
127 144 166
126 143 166
127 145 166
126 143 166
125 143 165
130 148 172
124 141 163
128 147 170
128 145 168
124 144 156
99 130 68
97 131 48
104 139 51
102 138 51
100 133 49
100 135 49
106 142 52
102 138 50
99 132 49
101 136 50
100 133 49
97 130 48
104 140 51
97 132 48
96 131 47
99 134 48
98 133 48
95 127 47
94 127 46
97 129 48
90 120 47
114 136 133
129 147 168
126 144 167
127 145 167
131 148 172
132 150 173
130 147 170
129 148 170
129 148 171
130 148 170
129 147 170
131 148 171
128 145 167
129 147 169
130 148 170
130 147 170
130 148 170
123 141 160
100 135 111
78 127 54
77 127 50
80 133 52
81 134 52
78 132 52
78 132 52
78 131 52
80 134 52
77 130 51
81 134 53
78 131 51
77 129 51
78 132 51
78 129 51
76 126 49
75 126 49
78 130 51
79 134 52
78 129 51
80 134 53
81 135 53
76 127 50
81 128 64
119 141 154
125 143 166
127 143 167
128 145 170
130 148 170
129 147 169
124 141 167
124 140 163
127 143 167
124 141 165
126 141 163
123 140 164
128 145 168
121 137 161
124 141 164
123 139 163
125 142 165
120 135 159
122 138 165
123 139 163
122 137 163
117 133 157
110 125 150
114 127 152
113 128 152
106 119 145
108 122 148
104 119 147
79 89 153
25 26 134
24 26 146
27 27 143
88 75 145
122 104 157
121 103 154
119 103 153
113 97 145
100 87 126
103 89 129
101 87 128
81 70 103
73 62 92
59 50 75
49 41 60
55 48 69
77 66 97
89 77 114
94 84 123
77 76 102
62 62 85
76 71 101
104 89 132
116 99 149
118 101 150
117 99 146
113 120 144
114 127 145
111 123 142
109 120 138
120 133 151
118 133 152
99 128 136
97 141 141
92 136 136
94 138 138
89 131 130
94 139 138
93 138 137
88 131 131
93 138 137
93 138 138
90 134 133
93 139 138
92 136 136
93 137 137
92 138 138
96 141 141
95 142 141
90 134 133
96 142 142
93 139 140
89 133 132
95 141 139
96 141 141
90 135 132
100 137 142
113 126 140
116 128 144
114 126 140
118 130 148
119 130 146
111 124 138
110 122 135
115 127 142
113 126 144
115 128 143
110 123 138
112 125 140
112 122 135
111 125 138
114 127 141
120 134 151
107 120 131
113 126 138
117 131 145
115 128 144
111 125 137
110 122 135
112 126 142
113 126 139
112 126 139
116 129 143
111 125 137
114 128 140
117 131 145
112 127 137
112 125 137
108 124 131
109 124 130
109 125 132
102 118 123
109 123 131
101 115 119
102 115 122
103 118 123
90 107 103
91 108 103
81 100 89
80 97 88
79 98 87
73 97 78
64 101 54
58 103 35
63 113 35
65 116 35
65 121 32
62 117 29
72 122 49
63 109 49
85 120 89
95 118 115
97 120 118
101 121 123
105 128 130
106 129 131
117 137 149
113 136 140
121 140 155
123 142 157
118 137 151
118 138 152
122 143 160
120 141 155
124 144 161
123 142 159
127 147 166
124 144 162
126 143 163
126 145 163
127 146 165
128 146 167
125 144 163
125 144 164
131 150 170
125 144 163
126 145 164
131 151 171
68 78 111
63 73 104
63 74 103
63 72 102
65 76 103
96 109 134
118 135 157
113 129 151
121 137 158
118 134 156
121 138 162
118 135 156
124 141 162
122 139 161
118 135 156
127 144 167
121 138 161
128 146 169
122 138 161
120 136 159
127 145 167
125 142 163
126 143 166
129 147 170
127 146 169
131 149 171
109 133 116
101 137 50
98 133 49
94 128 47
98 133 48
97 131 47
103 137 51
96 130 47
100 134 48
96 130 47
101 134 49
98 132 48
96 128 47
94 125 46
93 127 45
94 128 46
89 123 44
91 124 45
93 127 45
93 126 46
97 123 89
128 145 164
131 149 172
128 146 167
126 144 165
127 144 164
130 149 170
129 146 168
129 147 168
129 147 168
127 145 163
131 150 173
134 152 175
126 145 168
130 147 170
129 148 171
127 144 164
129 147 169
125 146 160
86 132 80
77 130 50
79 133 52
77 127 50
78 130 51
76 128 50
77 130 51
77 129 51
77 127 50
78 130 51
78 130 51
77 128 50
82 136 53
78 131 51
76 128 50
77 124 50
80 135 53
74 124 49
76 126 50
73 124 49
76 129 50
73 122 47
75 126 49
74 125 49
105 137 120
129 147 173
132 150 176
131 148 171
129 146 169
132 149 172
127 144 169
128 145 168
125 142 165
126 142 166
120 136 161
129 146 169
127 144 169
127 143 166
124 141 166
121 138 163
123 139 163
120 135 163
118 133 159
121 135 162
121 135 160
119 134 162
116 131 156
116 131 157
114 130 156
106 121 150
111 126 152
105 118 143
102 115 141
78 88 138
39 42 133
26 29 137
69 60 136
114 97 152
121 103 158
117 100 151
102 88 130
87 74 109
62 51 77
51 44 64
45 39 55
42 36 52
40 34 48
42 36 51
40 34 48
44 38 54
48 42 60
58 50 72
57 51 72
54 48 67
90 76 113
110 94 140
115 98 145
115 98 148
114 102 142
118 129 149
120 132 151
116 130 147
116 129 151
118 131 152
104 117 136
94 126 133
88 129 129
88 131 131
93 136 135
89 131 129
92 136 136
95 141 140
92 135 133
85 127 125
92 136 135
91 135 134
91 136 135
93 139 136
94 138 139
95 141 140
94 140 138
97 143 142
95 140 139
96 141 140
90 135 132
97 143 142
95 141 140
88 133 132
92 137 136
98 138 138
112 130 143
114 125 141
120 133 149
117 130 147
115 128 145
115 127 146
114 127 145
114 128 144
120 133 147
115 128 143
119 133 150
118 132 147
116 127 142
115 127 141
116 130 144
119 133 150
118 132 148
120 134 151
118 132 148
115 128 143
116 131 146
119 133 148
117 134 147
113 129 143
111 125 137
111 127 136
115 129 143
120 135 152
112 127 137
116 130 145
110 126 133
110 128 138
112 128 138
108 127 132
111 127 138
104 121 124
98 115 117
102 118 121
97 114 115
96 112 110
89 106 103
90 106 104
77 96 85
72 89 82
58 79 63
59 79 62
55 75 61
55 80 53
60 83 62
51 77 52
73 97 81
64 84 73
77 98 89
80 103 94
88 113 101
92 116 109
99 123 119
104 127 128
109 132 134
111 131 138
111 134 140
111 133 140
123 145 158
120 141 153
120 141 155
124 146 160
122 141 158
122 141 154
120 141 154
124 144 161
128 147 165
127 145 164
127 148 166
125 145 163
124 143 163
130 150 170
127 146 166
129 147 168
127 146 165
129 148 168
129 148 168
63 74 105
62 73 104
59 69 99
68 78 101
100 114 134
108 123 144
113 127 147
110 126 148
111 126 148
117 134 156
111 127 147
115 130 153
116 133 155
119 137 158
119 136 158
121 139 161
123 140 164
123 140 164
125 143 163
126 143 166
127 146 168
124 141 163
123 141 164
126 144 166
125 143 165
126 144 167
118 139 145
96 127 67
95 127 46
92 124 46
93 126 46
96 129 47
94 127 46
96 129 47
93 126 46
95 128 46
89 121 43
93 126 45
93 127 46
90 124 45
93 125 45
91 122 44
99 132 48
90 120 44
92 124 45
92 122 60
116 137 144
128 145 166
124 142 161
130 148 170
124 143 164
129 148 172
127 144 165
129 146 167
131 150 173
132 151 173
128 146 168
128 146 167
130 148 171
127 144 165
129 147 166
128 146 169
131 149 170
128 146 168
112 139 139
79 128 63
76 128 49
71 119 47
75 128 50
75 127 49
76 127 50
78 131 51
77 130 50
76 128 50
77 126 50
77 129 51
76 126 50
76 126 50
75 128 50
78 127 50
76 127 50
78 130 51
77 127 50
78 132 52
75 126 49
77 129 50
71 122 48
73 121 48
71 120 47
93 128 106
127 145 166
128 145 169
127 144 169
129 145 171
127 145 169
124 140 164
123 139 164
127 143 166
128 145 167
128 145 170
125 143 169
120 136 157
127 143 167
125 142 168
122 138 163
119 136 162
119 136 163
117 134 160
121 137 164
122 139 166
116 132 159
115 130 156
102 116 146
109 122 149
100 113 146
98 109 140
103 116 148
98 108 137
89 100 127
82 91 123
59 65 119
54 54 116
110 94 147
108 92 140
95 80 122
57 48 72
46 40 58
40 34 48
40 34 48
40 34 48
40 34 48
39 34 48
39 34 47
39 34 48
39 34 48
39 34 48
39 34 48
39 34 47
46 40 56
67 58 85
93 79 118
105 89 136
115 97 147
109 109 147
111 123 144
113 126 147
110 125 147
118 130 151
115 126 147
113 127 145
93 127 133
83 123 120
87 128 128
80 120 120
88 131 130
87 129 128
90 132 130
90 134 133
88 130 129
91 135 134
91 136 134
92 135 134
91 135 134
90 133 132
93 139 138
90 133 132
87 130 128
89 131 131
95 141 140
90 133 132
92 137 134
90 133 131
96 141 140
94 139 137
97 137 138
113 130 144
112 126 141
123 136 152
118 131 150
121 135 155
115 128 145
120 133 149
120 134 151
116 131 147
122 135 153
121 133 149
121 137 156
113 127 143
120 133 149
114 127 142
121 136 152
119 133 151
119 135 151
122 137 155
117 129 144
117 135 149
116 131 146
116 132 147
116 132 146
121 134 151
117 132 146
125 141 158
118 132 147
116 133 146
120 137 152
110 129 136
113 130 140
107 123 130
108 126 133
119 136 149
109 125 133
109 127 132
105 122 128
99 118 120
105 123 126
107 125 130
90 110 107
93 114 110
89 110 103
84 106 100
89 109 106
86 106 101
74 97 83
65 92 71
82 103 96
74 97 85
72 99 79
82 104 97
86 114 103
95 119 115
98 125 121
108 131 137
108 132 133
106 131 134
114 138 146
114 137 146
118 141 152
114 136 147
121 142 158
126 147 163
123 144 159
124 145 162
124 147 164
125 146 163
129 148 167
125 146 165
126 148 166
131 150 169
125 146 164
126 147 165
131 151 172
125 146 164
124 144 161
124 142 162
126 144 164
125 144 165
51 59 85
68 78 100
74 84 102
90 100 117
87 99 114
102 115 134
99 112 131
106 121 140
105 118 139
111 126 148
114 130 151
115 130 151
117 134 155
116 132 154
123 140 162
116 133 157
121 138 160
125 143 165
125 143 165
127 145 169
122 139 160
123 140 162
121 138 158
121 139 159
118 136 153
126 145 166
125 144 165
120 142 147
88 118 62
88 120 44
95 129 47
94 127 46
93 126 46
93 126 46
92 124 45
95 128 47
91 123 44
85 116 41
93 127 45
91 124 44
88 120 44
88 118 43
88 118 43
84 115 41
86 114 58
112 133 133
126 144 163
125 142 161
127 145 165
126 145 165
129 147 169
125 142 164
124 141 160
124 142 161
128 146 168
129 149 170
129 146 165
125 142 163
129 148 171
131 148 172
132 150 172
127 144 167
128 145 167
131 150 171
111 139 134
77 123 61
72 121 47
76 126 50
78 130 51
75 126 50
79 130 51
75 125 49
75 126 49
78 127 50
78 131 51
76 127 50
77 128 50
76 126 49
76 127 50
75 125 49
74 125 49
75 125 49
74 123 48
73 123 48
75 125 49
75 124 48
71 118 46
73 122 48
68 114 45
88 127 88
118 138 151
130 148 172
129 146 170
128 145 167
130 146 169
130 147 170
130 147 170
127 145 169
128 146 171
126 144 170
127 145 171
126 142 166
125 142 166
122 138 164
121 137 166
122 139 163
119 134 160
120 134 159
121 137 164
109 124 153
123 140 167
119 135 161
107 121 150
109 123 152
106 120 152
94 105 141
95 108 142
82 92 124
72 80 113
74 82 114
68 76 105
57 63 92
77 72 106
77 66 100
55 47 68
40 34 47
39 33 47
39 34 47
40 34 48
39 34 47
39 33 47
39 33 47
39 34 48
39 34 48
40 34 48
39 34 48
39 34 47
39 33 47
39 33 47
43 37 53
55 47 69
85 71 109
115 103 144
117 126 152
108 119 142
117 131 155
115 128 151
111 124 146
116 129 151
120 134 153
94 125 130
85 124 124
88 129 129
84 123 124
85 126 125
90 133 131
82 123 122
81 120 119
89 132 131
87 128 129
91 134 133
88 131 129
94 139 137
85 127 125
89 132 130
89 132 130
89 131 130
87 130 129
90 134 133
87 130 129
92 137 136
87 131 128
92 137 136
89 133 131
92 132 131
114 131 145
118 133 152
123 138 159
116 131 146
118 132 149
122 135 152
118 131 149
118 132 150
118 132 150
118 131 149
118 131 148
117 130 146
120 135 152
120 135 153
116 130 145
120 136 151
120 135 152
120 135 151
122 136 156
119 136 151
125 140 160
121 137 155
116 132 146
120 136 153
119 133 149
122 138 152
118 135 148
118 133 150
119 134 150
123 138 155
123 137 156
113 131 142
115 131 141
115 131 144
111 130 139
117 134 148
117 135 146
114 131 144
112 130 137
112 132 137
109 127 136
116 137 142
115 134 142
107 128 132
101 125 124
107 128 130
112 134 140
102 125 126
105 127 131
107 130 133
103 126 127
104 127 129
101 126 124
107 131 131
103 128 128
109 133 137
108 132 136
108 132 137
119 142 152
118 142 152
118 140 154
117 143 153
125 146 158
124 146 160
125 146 160
121 144 155
124 145 162
124 143 159
123 146 164
129 149 171
125 147 162
128 147 168
126 146 166
131 149 169
124 146 165
128 148 166
126 145 167
126 146 164
127 143 163
130 150 171
126 145 165
55 61 74
64 71 84
77 84 99
76 85 100
98 109 126
93 106 125
107 122 140
98 112 131
112 127 147
105 118 137
112 128 148
112 128 150
112 128 148
118 135 156
119 135 157
123 141 162
118 136 156
123 139 161
123 142 163
122 139 160
119 137 157
123 141 161
121 138 158
118 136 151
122 140 161
123 141 160
123 141 159
116 134 149
111 133 137
89 116 73
89 120 45
82 112 40
83 113 41
87 119 43
86 118 42
92 125 45
86 119 43
83 113 41
86 116 41
84 115 41
91 122 44
82 111 39
84 113 40
85 113 63
111 131 129
116 133 147
122 141 159
121 140 160
122 139 156
121 138 155
120 137 154
127 146 166
125 144 164
121 139 159
128 146 166
122 140 159
128 145 165
126 144 163
128 146 167
129 147 168
131 149 171
128 147 168
126 144 164
130 149 170
106 138 125
71 118 49
73 123 48
75 124 49
75 127 49
73 122 47
74 122 48
76 128 50
73 124 48
78 129 51
75 124 49
74 122 48
72 119 47
75 124 48
75 125 49
75 123 48
76 126 49
72 121 47
71 117 46
75 125 49
75 124 48
72 121 47
70 117 46
71 119 46
71 119 47
81 122 79
125 144 163
128 146 169
131 148 172
127 145 169
130 146 170
126 144 167
129 146 171
127 144 170
130 148 172
130 148 173
128 145 169
123 140 164
120 135 160
126 142 168
127 144 171
125 140 168
118 132 161
123 139 165
119 135 165
118 133 162
120 135 163
109 124 159
107 121 154
112 125 154
109 124 154
104 116 149
96 109 142
97 107 139
90 101 133
86 96 128
75 82 117
68 74 105
48 48 75
48 42 59
39 34 47
40 34 47
39 34 47
39 34 47
40 34 48
39 33 47
39 34 47
39 34 47
39 34 47
39 33 47
39 33 46
39 34 47
39 34 47
39 34 47
38 33 46
38 33 46
40 35 49
65 56 83
95 94 122
111 125 148
112 123 145
115 128 150
113 126 149
115 131 154
110 124 144
111 127 152
99 128 135
83 122 121
84 122 121
89 132 132
89 132 129
91 134 134
82 123 122
86 127 125
88 130 129
83 123 122
88 131 129
86 127 126
88 130 128
88 131 129
86 127 125
88 131 129
88 130 130
89 131 130
87 130 129
88 131 131
90 134 133
90 132 130
94 138 137
86 130 127
96 134 136
119 137 153
116 130 148
121 135 152
123 138 157
125 140 163
123 137 156
124 137 158
121 136 156
122 139 157
126 142 161
124 140 159
126 142 160
124 140 157
118 133 151
122 136 154
124 138 158
124 140 157
121 136 155
123 139 158
125 142 160
121 137 153
118 134 149
124 141 157
122 139 155
123 138 155
123 138 156
120 135 155
121 136 154
122 139 155
116 132 144
122 140 156
122 141 158
114 131 144
120 137 153
124 142 159
115 133 143
116 134 145
120 139 152
116 135 145
114 133 144
116 134 145
116 135 148
119 138 154
121 142 152
115 136 144
112 132 143
109 132 134
115 136 146
109 129 137
117 139 149
124 144 159
112 135 140
116 138 149
117 140 150
115 139 146
120 141 155
120 141 153
120 142 155
121 143 156
124 147 160
126 147 165
121 141 156
124 146 160
129 150 166
126 148 166
125 146 165
125 146 166
126 147 164
121 142 159
125 145 163
127 149 165
126 148 163
129 150 170
125 144 164
125 145 162
121 142 159
123 145 161
127 147 167
126 146 168
126 147 166
128 149 169
75 84 98
74 84 97
75 86 100
94 105 124
96 109 126
99 113 132
107 121 141
104 119 139
115 131 150
110 126 147
117 134 156
120 136 157
111 127 148
124 142 165
118 135 158
121 139 161
121 140 161
121 139 159
121 140 158
121 139 157
119 137 154
125 143 167
116 134 149
122 139 156
121 139 158
122 141 160
115 132 149
116 133 148
113 131 144
114 135 140
97 121 97
88 117 60
81 111 39
88 119 43
86 116 42
82 112 40
84 112 41
76 103 36
79 108 38
79 108 38
77 106 37
81 111 39
80 104 73
99 117 118
108 125 134
118 135 150
112 129 143
118 135 150
121 138 154
123 141 157
123 142 160
123 141 158
125 142 162
124 142 160
124 142 160
126 144 163
127 146 165
123 142 159
125 144 164
127 146 167
129 147 168
126 145 166
128 146 166
128 148 168
105 135 127
72 120 49
71 119 47
70 117 46
76 127 50
70 117 46
73 123 48
71 118 47
73 121 48
73 121 47
69 115 46
73 119 47
73 120 47
73 122 48
75 123 48
71 119 47
69 114 45
72 119 47
73 121 48
72 119 46
71 117 46
72 121 48
72 121 47
72 121 47
69 115 45
86 121 89
123 142 163
128 146 172
131 148 172
130 147 170
132 149 176
126 143 168
129 146 171
127 143 169
126 144 168
129 146 171
127 144 167
132 150 174
131 148 174
124 141 167
122 139 167
122 139 165
122 139 168
126 143 172
119 136 165
122 139 167
121 138 167
117 131 161
113 127 160
112 126 159
120 133 163
104 116 148
107 121 154
107 121 154
100 114 149
107 119 149
98 109 140
70 74 96
44 41 55
39 33 46
39 33 46
39 34 47
39 33 46
40 33 47
38 32 45
39 33 47
39 33 46
39 33 47
38 33 46
40 34 47
39 33 47
39 33 47
38 33 46
38 33 46
39 33 47
38 33 46
39 33 46
40 34 48
67 73 89
95 106 127
115 129 150
109 122 146
118 131 153
116 130 153
115 128 152
117 132 153
98 125 136
85 125 125
80 117 118
80 119 118
81 119 118
83 123 121
80 117 118
79 118 118
82 121 120
84 123 124
88 130 128
85 127 126
86 127 126
89 132 131
86 128 127
85 125 125
84 126 123
84 125 122
83 123 122
83 123 122
88 131 128
89 133 131
82 123 122
88 130 130
103 135 141
122 139 156
124 138 158
127 142 164
121 137 157
117 131 149
125 140 160
127 143 162
125 142 160
124 141 160
127 144 164
126 142 163
127 142 164
122 135 153
122 137 157
126 140 159
124 141 159
122 140 157
119 144 154
106 137 135
100 134 127
114 142 142
102 140 127
99 135 128
113 144 146
113 136 143
115 138 146
120 138 153
122 139 155
127 143 163
124 140 158
125 140 156
118 135 150
118 135 147
123 140 157
120 138 153
116 134 148
128 145 164
122 140 158
119 137 150
120 138 155
121 141 153
120 138 152
120 139 151
122 141 157
122 141 157
123 144 158
125 142 158
120 141 155
119 140 155
124 145 158
115 137 148
122 144 154
123 143 159
125 145 162
124 145 160
122 143 158
129 149 168
125 145 160
121 144 159
127 147 166
129 149 169
126 147 163
124 146 163
124 145 160
129 150 167
128 149 169
127 145 166
125 147 163
129 148 169
127 148 164
129 148 169
124 145 161
133 151 174
127 146 164
131 150 172
129 149 168
126 146 165
122 142 161
122 141 159
128 147 169
123 144 163
102 116 136
92 104 122
107 122 141
100 114 133
109 124 145
107 121 140
117 133 152
117 133 154
117 134 154
120 135 154
116 132 153
120 136 157
121 138 160
125 144 165
119 137 157
120 138 161
122 139 159
121 139 160
123 141 159
121 140 160
122 140 159
122 140 160
120 138 156
116 134 151
119 138 151
114 132 142
110 127 141
111 128 141
105 121 130
106 123 131
103 120 127
97 116 111
82 105 73
76 102 47
75 103 36
70 96 37
75 102 36
82 110 43
74 99 38
69 95 37
69 89 60
75 93 72
86 101 101
94 110 112
105 122 128
98 115 118
103 121 129
114 131 144
116 133 146
114 133 144
118 136 150
118 136 149
126 144 164
122 140 156
126 145 164
122 140 158
120 138 155
125 144 162
124 143 161
126 144 165
134 153 176
129 147 168
127 146 167
127 146 166
114 140 137
68 113 44
72 120 47
71 120 47
70 116 46
73 121 47
71 118 46
72 117 46
70 117 46
72 119 47
77 129 50
69 115 45
73 123 48
70 116 46
74 122 48
71 116 46
72 119 47
72 119 47
68 115 45
68 113 45
67 112 44
69 115 45
72 120 47
65 107 42
65 111 43
85 120 91
125 145 165
131 149 172
128 146 171
125 143 165
129 146 172
129 146 173
129 147 170
129 146 169
130 147 172
127 144 168
130 147 172
129 145 171
124 139 166
123 139 164
126 143 169
127 145 172
129 146 173
125 140 170
121 136 165
126 142 170
124 140 167
122 137 168
118 133 164
117 130 161
118 134 163
118 132 162
122 136 161
113 127 159
108 119 152
105 115 146
88 97 120
48 47 64
42 37 50
38 32 46
39 33 46
38 33 46
38 32 45
38 33 46
38 32 45
39 33 47
38 32 46
38 33 46
39 33 46
39 34 47
38 33 46
38 33 46
38 33 46
38 32 45
38 32 45
38 33 46
38 33 45
38 33 45
40 36 48
76 82 99
107 117 141
105 117 140
117 129 153
116 129 149
119 133 156
111 124 144
109 128 145
82 116 116
78 115 116
78 115 113
78 117 115
83 122 122
77 113 113
82 121 121
76 113 113
82 122 121
80 119 118
79 118 117
85 126 124
88 130 128
86 126 127
86 127 125
87 129 129
82 123 121
86 128 126
85 127 124
85 126 125
83 121 120
81 120 120
85 126 124
102 128 137
123 139 159
121 136 155
124 140 162
124 139 158
126 139 161
121 137 157
123 137 157
123 138 158
122 137 156
126 142 161
123 138 158
124 139 157
126 141 160
127 146 165
116 140 148
110 138 140
102 140 128
85 138 109
69 138 86
66 138 84
63 138 78
61 138 77
58 137 72
72 140 92
81 138 105
93 139 120
101 137 128
117 140 153
120 138 153
126 141 160
128 143 163
127 144 163
126 146 162
127 144 163
125 143 161
126 144 163
122 139 157
124 142 159
120 137 156
125 144 163
125 144 165
123 142 161
122 140 154
122 138 155
125 146 161
124 143 162
124 142 159
124 144 159
121 141 155
123 143 158
126 145 164
123 143 156
126 145 165
127 146 166
124 146 161
125 145 161
127 148 164
123 143 157
126 146 163
131 149 170
125 146 160
130 150 169
128 147 168
127 146 167
127 147 166
125 146 160
130 151 171
125 146 163
127 147 165
126 148 166
130 151 172
129 149 167
127 147 168
129 148 170
130 150 169
127 148 166
122 144 161
126 145 167
125 146 165
123 144 163
124 145 166
114 130 151
113 129 149
115 132 153
108 124 142
119 135 157
119 136 158
119 136 157
117 134 156
120 137 159
124 141 163
122 140 161
121 138 159
124 141 164
123 142 162
127 144 164
125 144 166
121 140 159
120 138 158
120 138 157
125 143 160
122 139 158
117 136 150
114 132 145
117 134 149
118 136 150
112 129 143
108 126 134
104 122 129
105 121 129
105 121 129
105 121 130
96 112 114
81 96 92
69 83 72
76 91 86
63 78 63
58 75 48
59 74 52
54 68 49
62 74 68
69 80 77
82 93 93
81 95 90
92 108 106
101 118 119
101 117 125
104 120 125
112 129 141
112 128 141
117 135 146
115 133 146
120 137 153
119 136 152
118 136 151
125 143 161
125 142 163
122 140 158
130 148 168
126 144 166
129 147 167
127 146 167
128 147 168
129 148 169
133 151 174
116 139 147
74 115 64
71 120 47
67 113 44
70 119 46
73 122 48
68 114 45
71 118 46
72 121 47
73 122 48
71 117 46
73 119 47
69 112 45
73 120 47
69 115 45
73 122 47
71 118 46
71 117 46
67 109 43
67 111 44
69 115 45
69 114 45
61 103 40
68 114 44
67 111 44
96 124 112
130 146 167
128 145 170
131 149 173
128 145 170
127 145 169
133 151 176
130 147 171
130 148 171
129 146 171
128 145 171
130 147 171
126 144 167
128 146 172
127 144 168
130 147 174
129 146 171
121 138 166
127 144 168
126 142 167
124 139 166
124 140 169
119 133 162
121 136 165
116 129 160
123 136 165
117 131 163
117 130 159
111 123 154
112 127 154
101 111 135
67 69 87
38 32 45
38 33 46
39 33 46
38 32 45
38 32 45
39 33 46
37 32 44
38 32 45
38 32 45
39 33 46
39 33 46
38 33 46
37 32 45
38 33 46
39 33 46
38 33 46
37 32 45
36 31 43
39 33 46
38 33 46
37 32 44
37 32 44
58 59 72
89 99 120
112 124 147
114 123 148
111 121 144
116 129 156
112 126 150
103 120 137
78 110 112
79 116 115
80 118 117
76 113 111
77 115 115
84 124 122
78 116 116
80 118 116
79 117 116
77 116 114
78 116 115
81 121 119
84 124 122
82 122 120
83 123 123
80 119 118
82 124 121
80 119 117
85 126 124
86 128 126
88 129 128
84 125 122
81 120 118
108 130 144
129 146 168
125 141 161
126 141 164
124 139 160
126 142 162
123 138 156
127 142 163
122 136 156
125 141 161
125 141 162
129 145 165
128 145 165
122 144 160
108 137 139
99 138 128
72 139 91
61 136 77
47 137 58
47 135 58
46 137 57
46 138 57
46 138 57
47 138 57
47 139 57
46 137 56
51 137 64
63 138 79
85 139 109
98 138 124
119 144 152
121 140 155
126 143 161
123 138 155
124 141 159
121 137 154
124 141 161
129 146 167
124 143 161
132 150 172
124 142 161
128 147 164
126 145 165
126 143 163
126 143 162
124 143 160
133 151 174
125 145 162
126 146 164
128 147 164
124 142 158
128 146 167
126 145 163
126 145 166
127 148 164
127 147 167
129 148 169
127 145 165
127 146 166
127 146 165
126 146 164
129 147 167
129 148 167
128 150 168
130 147 169
133 151 173
125 146 165
127 146 166
128 146 168
130 149 170
122 140 159
131 150 173
128 147 168
132 150 173
130 148 170
128 147 168
133 152 175
130 148 169
128 148 167
129 149 172
127 147 170
127 147 166
117 134 157
124 141 163
120 137 160
122 139 162
123 140 163
124 141 164
120 139 161
123 140 162
125 143 166
125 144 167
126 145 169
127 145 168
121 139 161
126 145 167
127 146 167
126 144 164
122 140 159
115 133 148
124 143 162
124 143 162
124 143 161
122 140 159
116 135 147
116 134 149
114 132 144
104 121 131
107 125 132
104 120 131
98 115 120
101 118 118
92 109 111
88 102 104
82 96 93
76 91 88
71 85 81
65 77 75
63 75 70
63 75 71
75 87 84
76 88 86
74 88 82
83 96 93
91 106 108
94 111 113
105 122 129
100 117 122
109 126 135
109 125 136
112 130 143
111 128 138
115 133 145
118 136 151
121 140 155
119 138 154
122 139 158
127 146 165
127 146 167
125 145 163
126 146 168
129 147 170
126 144 166
124 143 161
129 146 167
127 141 163
125 133 153
99 114 97
87 105 71
89 104 73
85 106 70
88 114 70
88 111 69
76 111 56
70 111 48
72 119 47
67 113 44
69 115 45
70 116 46
71 116 45
71 118 47
67 110 43
65 109 42
71 116 46
68 114 44
70 117 45
69 117 46
69 116 45
68 113 44
64 108 42
71 109 59
114 139 143
127 145 167
129 146 168
127 146 169
128 145 170
126 142 166
132 150 175
130 147 173
127 144 167
127 145 172
130 148 172
128 146 170
127 143 168
123 140 164
128 147 173
129 145 171
127 144 169
126 143 170
123 139 164
126 142 169
129 143 171
128 143 169
126 140 168
120 136 163
126 141 167
118 133 159
115 130 158
119 131 159
120 130 158
118 127 156
94 103 126
48 47 60
37 31 44
37 31 43
38 31 44
38 32 45
38 32 45
39 32 46
39 33 47
39 33 46
38 32 45
38 32 46
38 32 45
38 32 45
37 32 45
37 31 43
37 31 44
38 32 45
36 31 43
38 32 45
38 32 45
37 31 44
37 32 44
36 31 43
40 35 47
68 69 86
106 115 138
108 119 141
111 120 145
118 131 156
116 127 149
111 124 144
94 118 129
81 117 117
73 109 109
76 114 111
74 109 109
78 115 115
76 114 113
75 112 111
76 114 113
82 122 121
75 110 109
81 120 119
79 118 116
83 124 122
82 121 120
83 123 122
84 125 125
84 125 123
79 120 118
80 119 118
78 116 114
83 123 121
92 124 129
120 139 158
125 141 162
123 139 159
123 140 160
126 142 166
127 143 165
127 145 165
123 140 161
125 142 164
129 146 168
125 142 164
125 142 162
122 140 158
101 141 131
70 136 89
53 137 66
47 134 57
46 135 56
46 136 56
46 138 57
46 136 56
46 136 56
47 138 57
46 137 56
46 138 57
46 136 56
46 136 56
46 136 56
48 137 59
60 136 76
84 134 105
117 144 151
125 143 161
126 142 164
127 144 163
124 142 161
127 144 165
128 145 166
128 146 166
125 143 163
129 147 168
127 144 166
129 148 168
125 143 159
130 148 167
131 148 170
126 144 163
128 146 165
126 145 164
129 148 167
128 146 166
126 145 164
126 144 162
129 147 169
125 144 162
130 149 169
125 143 163
127 146 166
123 142 161
130 149 171
130 148 170
127 147 165
130 149 171
128 147 167
125 144 164
127 146 166
130 150 172
127 147 165
129 149 170
133 152 173
126 146 164
127 146 165
130 148 169
130 149 171
127 146 166
130 151 172
126 146 167
127 145 166
128 148 170
129 148 170
128 147 167
129 148 170
126 143 165
127 144 167
124 143 165
123 140 161
125 143 166
124 143 166
129 148 171
128 147 168
121 139 161
126 143 163
128 147 169
124 142 163
124 143 163
126 145 168
131 150 173
126 145 163
125 144 166
120 139 158
128 147 167
127 145 165
121 139 157
118 137 150
118 137 154
123 142 159
118 137 150
109 128 137
112 129 139
110 127 139
109 127 135
109 126 134
99 116 120
105 121 129
95 113 111
93 108 114
91 106 105
87 103 103
92 106 110
94 109 109
99 116 116
94 111 111
99 116 117
104 120 127
107 124 133
111 129 137
105 122 131
112 131 144
113 130 141
114 133 146
117 136 150
121 140 154
122 141 158
120 139 154
125 144 162
123 141 161
120 138 159
123 140 158
125 144 164
130 149 171
124 143 162
129 148 168
132 147 171
131 139 165
138 130 164
144 120 167
139 109 156
139 91 136
134 77 125
142 68 135
142 79 132
133 71 124
135 81 125
123 89 112
101 99 87
89 107 72
78 114 57
64 104 41
65 107 42
63 106 41
69 113 44
66 109 43
66 112 43
64 105 41
66 110 43
65 108 42
65 110 43
65 108 42
64 109 42
66 110 43
85 117 92
127 146 166
124 142 165
131 148 174
131 149 173
131 147 171
129 147 169
128 146 167
129 148 173
126 142 166
132 149 173
130 146 171
130 147 171
127 144 167
128 145 169
127 144 169
128 145 171
129 146 171
126 142 166
129 143 170
126 142 169
130 146 171
125 140 168
125 140 166
124 139 165
125 140 166
124 139 166
124 139 164
125 140 166
121 132 161
106 115 139
83 89 108
37 32 45
37 31 44
37 31 44
37 31 43
37 31 43
36 30 42
36 30 42
38 32 45
37 31 44
37 32 44
37 32 44
36 31 43
38 32 45
38 32 45
36 30 43
37 31 43
37 31 43
36 31 43
37 32 44
37 31 44
36 31 43
37 32 44
35 30 42
36 31 43
46 44 59
95 105 123
109 117 140
115 127 152
117 129 152
112 126 147
124 138 162
103 121 137
78 109 110
72 108 107
73 109 108
69 103 102
75 112 111
80 117 116
73 109 108
73 109 108
75 112 112
70 105 105
76 114 113
73 109 107
78 116 115
73 110 109
75 114 112
85 126 124
79 117 116
79 117 116
80 117 115
82 121 119
81 120 119
104 125 140
124 141 162
123 139 159
127 143 164
117 133 152
126 143 166
121 137 160
124 139 161
129 147 170
126 142 163
128 145 167
128 146 168
121 142 157
95 140 122
68 135 87
50 136 62
44 131 54
45 134 55
45 133 55
45 135 56
46 137 57
46 136 56
46 137 56
46 136 56
46 137 56
45 134 55
45 135 56
46 135 56
46 135 55
46 136 56
46 135 55
59 138 73
75 132 96
112 140 144
120 140 155
128 146 168
129 146 168
131 147 168
129 146 166
132 150 172
125 142 162
126 144 165
129 146 167
130 148 167
127 146 163
129 145 164
128 145 167
126 143 163
128 146 166
131 149 171
128 146 166
126 145 162
128 146 168
129 148 172
131 149 169
129 147 167
129 147 168
130 150 169
128 149 169
130 149 169
130 147 170
128 146 166
134 152 173
131 151 173
130 149 170
131 150 172
129 147 167
130 149 168
129 149 171
128 149 170
130 149 169
130 150 171
131 150 172
131 149 171
132 151 171
128 147 168
131 151 172
130 148 171
129 149 172
127 147 168
127 148 168
128 148 172
129 150 168
131 150 175
124 143 164
123 142 164
131 150 173
129 147 169
124 142 162
127 146 168
128 147 170
131 149 173
127 145 167
122 141 161
127 146 166
129 148 168
124 143 165
126 145 166
126 146 168
128 146 167
127 145 166
129 147 168
123 142 162
123 141 161
117 136 150
118 135 154
123 141 159
118 137 152
120 138 154
114 133 145
119 137 155
120 138 152
113 131 141
108 125 138
108 126 136
104 122 131
117 136 149
110 127 135
116 134 146
105 121 130
119 137 150
115 132 144
107 126 132
111 128 138
111 130 140
121 139 155
114 133 143
113 132 147
125 143 163
125 144 163
118 135 152
125 143 163
122 140 156
126 145 164
126 144 163
127 146 165
125 142 160
129 147 166
126 144 164
129 147 166
129 148 168
132 149 171
132 137 165
138 127 163
147 112 164
151 97 159
157 72 159
161 61 157
161 54 154
163 44 154
162 46 155
164 43 157
159 45 152
159 47 152
158 55 150
146 69 137
129 78 119
128 80 118
94 107 78
78 111 58
67 110 43
66 108 43
67 113 44
65 108 43
64 104 41
66 109 43
61 102 40
61 103 40
63 107 41
64 107 42
65 110 46
105 129 128
126 144 164
130 148 172
126 143 166
131 149 172
131 148 171
127 146 167
129 148 171
128 146 168
127 144 168
132 149 172
125 142 166
122 140 164
131 147 170
128 145 167
128 145 170
125 141 168
129 145 170
127 143 165
127 143 168
124 141 168
126 142 168
124 140 164
126 143 167
127 141 168
123 139 163
123 137 165
122 135 164
126 142 169
121 133 159
113 124 149
66 68 86
36 30 42
37 31 43
35 29 42
37 31 44
37 31 43
37 31 43
36 30 43
37 31 44
37 31 44
37 32 44
36 31 43
38 32 45
38 33 45
37 31 44
36 31 43
38 32 44
36 31 43
37 31 44
35 30 42
36 31 42
36 31 43
35 30 42
36 31 42
36 32 43
47 46 59
87 93 111
109 117 140
120 131 152
118 128 152
115 126 150
118 130 154
114 128 149
93 112 123
75 108 109
75 109 109
73 108 107
70 106 103
68 102 101
73 110 110
72 106 107
74 110 109
74 110 110
75 112 112
76 112 110
74 112 110
72 109 107
81 117 116
73 109 109
80 118 117
74 111 109
74 112 109
80 119 117
94 119 127
122 140 160
124 140 159
128 146 169
124 140 163
121 136 157
123 138 159
126 144 166
124 142 162
125 141 162
128 144 166
122 138 158
121 141 155
104 141 137
61 133 75
45 131 54
45 132 54
43 126 52
45 134 55
44 130 53
46 135 56
45 133 54
46 135 56
46 137 56
45 135 56
45 132 54
46 135 55
44 132 54
45 134 55
45 134 55
45 135 55
46 134 56
46 134 55
58 136 72
77 138 99
111 143 145
128 146 165
129 147 169
131 148 169
129 147 170
131 149 172
128 148 168
130 149 170
130 148 170
129 147 169
131 149 170
130 148 169
129 147 168
129 146 169
128 145 167
130 148 168
133 150 173
130 147 166
126 146 165
128 146 166
127 147 166
129 147 168
130 149 170
128 148 169
128 146 166
127 144 162
131 151 172
129 147 169
129 146 168
131 149 171
128 147 167
131 148 170
132 150 170
129 149 170
126 145 165
130 149 171
132 150 173
130 149 170
131 150 174
129 148 169
134 153 177
131 151 170
129 149 170
127 148 168
127 145 166
131 152 173
129 148 170
127 146 168
130 151 172
132 151 176
132 150 175
130 149 172
132 151 175
131 149 173
132 151 174
129 148 170
130 149 171
131 150 173
136 154 177
127 146 170
125 143 165
126 144 165
127 146 167
128 146 167
126 145 164
129 148 167
126 144 163
126 144 165
125 145 164
125 144 163
126 145 164
125 145 163
126 145 164
124 143 158
122 140 157
124 144 161
122 142 157
123 142 160
121 140 157
123 142 159
119 138 153
124 142 160
121 140 156
119 138 153
118 137 151
119 137 152
118 137 153
120 139 155
126 145 164
119 137 156
116 134 147
120 139 155
123 142 160
122 140 158
124 141 161
125 145 162
126 145 167
124 143 163
125 143 162
124 143 161
124 144 162
127 146 164
130 148 169
127 145 164
131 149 171
125 143 162
127 144 165
132 136 167
145 111 162
149 86 155
158 72 158
163 50 157
164 43 155
163 42 156
165 43 156
166 43 156
165 43 157
162 42 154
165 43 156
161 42 155
160 42 152
164 45 156
163 46 154
146 55 138
140 71 132
106 84 95
70 107 50
61 101 42
63 105 41
63 105 41
62 104 40
66 110 43
61 100 39
64 107 41
63 106 41
62 103 43
81 112 90
117 138 150
129 146 170
127 145 169
125 142 163
130 148 171
128 147 168
130 149 173
131 149 174
123 141 164
132 149 173
126 143 165
130 146 169
126 144 167
127 144 166
127 143 170
130 148 174
127 145 168
129 147 170
129 146 170
128 144 169
128 144 169
127 143 166
127 144 171
132 149 174
127 139 168
126 141 168
129 145 170
125 139 166
128 142 169
122 137 162
100 109 133
63 67 82
35 29 41
36 29 41
36 30 42
37 31 43
36 30 42
36 31 43
36 30 42
37 31 43
36 31 43
36 30 42
37 31 43
35 29 42
36 30 43
37 32 45
35 30 42
35 30 42
37 32 44
36 31 43
35 30 42
35 29 41
36 31 42
35 30 41
36 31 43
36 31 42
35 30 42
82 88 105
108 116 138
115 127 148
109 120 140
117 130 154
116 127 150
114 128 148
111 127 148
93 116 126
71 102 103
70 103 101
63 95 93
72 108 108
68 102 101
67 100 100
69 104 102
68 103 102
75 112 111
74 109 108
77 115 114
74 111 110
74 111 109
74 110 109
82 123 121
75 112 110
77 113 111
86 115 119
112 131 148
121 137 156
122 140 161
118 134 153
119 137 159
126 143 164
126 144 165
124 141 163
122 139 160
123 141 160
128 145 164
118 136 153
103 137 133
66 132 85
45 132 54
45 132 54
45 132 54
45 132 54
45 132 54
44 131 54
45 135 55
45 132 54
45 135 55
45 132 54
46 136 56
45 134 55
45 133 55
45 134 55
45 132 54
46 134 55
46 135 55
44 128 53
45 134 55
45 133 54
54 132 68
87 138 112
114 140 146
128 146 167
127 144 166
129 146 167
127 144 166
133 150 172
128 146 168
127 143 164
130 150 169
129 146 168
128 146 167
132 149 171
126 144 163
128 145 167
131 149 171
132 150 171
133 152 173
133 152 175
134 153 176
131 148 170
133 150 172
130 147 169
129 147 168
127 145 166
126 144 165
127 146 165
133 151 173
131 149 172
129 148 170
127 145 166
132 150 172
131 148 170
129 147 168
131 150 173
125 144 165
132 150 170
133 152 173
133 153 177
129 146 168
129 147 167
131 150 172
131 151 172
133 151 173
127 146 166
130 150 173
132 152 173
125 145 167
130 149 171
130 150 172
132 150 172
132 151 174
127 146 168
130 149 172
132 151 175
128 147 168
132 151 174
128 147 169
129 148 172
129 147 169
129 148 168
131 150 171
129 148 169
129 147 170
131 151 173
132 151 173
129 147 169
128 147 166
126 144 165
127 146 167
125 144 163
128 147 166
125 144 162
126 145 163
130 149 170
122 142 161
125 144 164
122 141 159
127 145 165
125 145 160
128 147 165
126 144 161
122 140 160
123 141 156
120 139 154
123 143 160
122 140 159
127 146 164
126 144 163
121 139 155
125 144 163
126 146 166
123 142 158
125 143 165
128 146 166
123 141 160
121 140 154
134 153 174
122 141 158
130 148 169
126 144 163
130 149 170
128 146 168
127 147 167
130 148 170
131 147 170
135 133 162
145 105 160
157 77 158
158 50 153
159 42 153
162 42 155
164 43 156
162 42 154
164 43 155
162 42 155
163 42 154
166 43 157
160 42 153
164 43 155
162 42 154
162 42 153
160 42 152
161 42 153
154 47 146
139 61 131
113 83 102
78 93 64
61 101 40
63 105 41
61 102 40
61 103 40
61 102 39
56 94 37
57 96 37
64 100 55
113 133 144
121 139 158
124 142 164
126 145 165
126 142 166
127 146 167
131 149 173
126 145 167
128 146 170
127 143 166
127 144 167
127 145 168
125 142 165
128 146 169
128 145 168
129 146 170
125 142 165
131 149 173
127 144 167
127 145 169
125 142 166
130 145 171
130 147 173
126 140 167
126 142 166
128 145 168
127 143 167
123 139 163
124 139 166
127 141 168
127 142 169
104 116 138
51 51 65
35 29 41
36 30 42
36 30 42
35 29 41
36 31 43
36 30 42
36 29 41
35 30 42
36 30 42
37 30 43
36 30 43
36 30 42
36 30 42
35 30 41
35 30 41
36 30 42
37 31 43
35 30 42
35 30 42
35 30 42
36 31 42
35 30 42
34 29 40
35 30 41
33 29 39
78 85 101
100 111 131
114 127 148
120 131 155
116 129 149
118 131 153
114 130 149
115 126 150
110 125 145
91 114 125
71 103 103
64 96 94
69 103 103
67 102 101
66 99 99
72 107 106
71 106 105
66 100 100
73 108 107
70 104 101
68 103 102
70 106 104
69 104 102
71 106 105
77 114 113
80 110 113
105 123 139
112 128 149
116 134 153
116 133 153
117 134 153
123 141 162
119 137 155
123 139 160
124 142 164
126 144 164
126 143 165
127 145 166
103 137 135
78 135 100
50 129 62
44 130 53
45 131 54
44 128 53
45 133 55
46 134 55
46 134 55
43 127 53
45 134 55
44 131 54
45 132 54
46 134 55
45 133 55
45 133 54
45 135 55
44 131 54
46 135 55
45 133 54
44 130 53
45 132 54
44 130 53
44 130 53
58 132 71
87 133 113
121 146 158
130 148 169
126 143 164
132 150 174
130 149 169
132 150 173
133 151 173
127 144 166
131 149 171
132 149 170
126 146 167
128 147 168
134 151 173
129 147 167
127 147 165
133 151 173
129 148 171
130 151 170
132 150 173
131 149 172
131 149 172
130 148 170
132 150 174
132 150 175
131 151 172
128 145 166
129 147 170
130 149 171
130 148 170
134 153 177
129 147 168
130 148 168
130 149 171
131 149 171
129 147 169
132 151 175
133 152 174
131 149 172
130 149 171
131 149 171
129 149 169
132 150 171
132 149 173
131 150 171
128 146 169
130 148 170
132 152 175
132 151 175
132 151 175
129 147 170
128 147 170
129 148 170
131 150 173
129 147 169
131 149 172
134 153 177
130 149 171
127 145 169
127 146 169
133 151 175
130 149 171
131 149 172
131 149 171
127 146 165
130 149 171
128 147 167
130 148 171
129 148 169
129 148 169
129 148 169
129 148 169
129 147 168
130 149 171
132 150 171
125 145 164
126 145 165
128 148 170
128 147 167
130 149 170
127 145 166
127 147 166
128 147 167
129 148 168
126 145 163
127 144 166
129 147 167
131 149 170
127 147 166
127 146 167
124 143 163
129 148 169
127 145 165
125 144 165
128 146 166
128 147 168
131 149 170
131 150 172
127 145 166
128 146 165
127 146 166
127 145 165
128 147 169
125 142 163
136 124 161
150 102 162
158 70 155
155 46 150
163 42 154
160 42 153
159 42 153
164 42 155
160 42 153
162 42 154
162 42 155
160 42 152
163 42 155
160 41 152
159 41 150
163 42 153
158 41 149
159 41 149
159 41 150
159 41 150
155 45 147
141 47 132
112 76 100
88 92 74
62 96 44
59 98 38
58 97 38
58 98 38
57 96 37
73 108 72
93 118 115
122 139 158
126 144 166
119 136 155
121 139 159
123 139 159
123 142 162
125 142 163
123 141 161
123 138 160
123 142 164
127 144 166
127 144 166
130 148 170
126 144 166
126 144 168
127 146 169
126 143 168
132 149 173
128 144 167
129 146 169
130 146 172
127 144 167
132 148 172
130 146 170
127 143 167
129 147 172
128 145 168
126 143 168
127 143 170
125 142 166
126 142 168
109 122 143
49 49 62
34 28 40
35 29 41
36 30 42
35 30 42
35 29 41
37 31 43
36 30 43
34 28 40
37 31 43
34 29 40
36 30 42
34 29 41
35 30 42
35 29 41
35 30 42
36 30 42
34 29 40
35 29 41
34 29 40
35 30 41
35 30 41
33 29 39
34 30 41
32 28 39
35 30 41
70 76 91
111 122 142
114 128 148
115 131 151
111 123 144
111 125 146
104 117 136
100 112 130
104 116 133
93 108 122
81 103 112
73 98 103
59 89 89
64 96 96
59 90 90
67 101 100
66 99 97
64 97 94
69 104 103
63 95 94
70 105 104
67 100 100
69 104 103
66 99 98
86 109 117
112 127 145
114 130 147
119 136 157
114 130 146
114 130 147
118 135 154
117 134 152
122 140 162
122 139 160
126 143 165
119 136 156
123 140 161
118 138 155
96 133 127
62 129 78
42 124 51
45 132 54
44 131 54
45 131 54
43 126 52
43 125 52
43 128 52
44 131 54
45 131 54
42 124 51
44 129 53
45 132 54
44 131 53
45 134 55
44 130 53
43 127 52
44 131 54
44 130 53
43 129 53
43 127 52
43 126 52
43 128 53
45 128 56
67 130 85
105 141 137
121 142 160
131 149 170
131 149 171
132 150 173
130 148 169
132 149 172
130 149 169
132 149 172
129 147 170
130 147 169
128 146 168
131 149 172
130 148 171
132 150 171
133 150 173
131 147 169
130 149 171
133 151 175
132 150 173
126 146 168
129 147 170
128 146 167
130 149 171
130 149 170
133 151 174
133 151 174
129 148 172
127 144 166
133 151 174
131 149 171
132 151 172
136 154 177
128 145 167
130 149 171
131 149 171
128 147 169
130 148 170
127 146 166
129 147 170
129 149 168
129 148 170
130 150 173
130 150 172
131 150 170
131 150 172
132 151 175
127 145 168
133 152 175
134 152 176
132 151 175
129 146 167
131 149 171
131 149 173
134 153 178
132 151 174
130 149 172
127 147 168
132 150 173
130 149 171
130 149 170
130 148 173
131 150 173
129 148 170
130 148 170
130 149 170
130 149 172
133 152 173
131 150 171
128 146 168
129 148 169
127 145 167
128 147 169
130 149 172
130 149 171
128 147 165
130 149 170
127 145 165
129 147 167
126 143 163
130 149 172
130 148 168
128 147 167
128 146 167
126 144 165
124 142 160
129 148 168
129 148 168
132 150 172
125 144 163
128 145 166
130 150 170
130 148 168
131 149 169
129 148 169
128 147 168
125 143 165
127 145 166
129 148 170
124 143 164
131 148 169
128 147 167
139 133 166
144 99 153
151 66 150
162 44 153
158 41 148
159 41 151
162 42 154
161 41 151
158 40 148
161 42 153
159 41 151
164 42 154
161 42 153
162 42 152
158 41 148
159 41 150
158 41 150
161 41 149
159 41 150
163 42 154
158 41 148
160 41 151
152 41 142
138 62 128
104 81 93
70 92 54
54 92 35
54 91 36
54 90 38
60 92 55
100 123 122
111 129 144
113 132 151
120 139 157
123 141 161
123 140 162
123 141 161
113 130 148
121 140 159
119 137 156
124 143 164
127 144 165
127 146 167
129 146 168
128 145 167
128 145 168
131 149 171
126 143 166
120 139 163
124 140 162
129 146 171
129 146 171
130 147 171
129 148 171
131 149 172
126 143 169
129 147 171
129 145 170
132 149 174
130 147 171
126 141 167
130 146 173
127 142 166
105 117 137
50 51 63
35 29 41
35 29 41
34 28 39
36 30 43
33 27 38
34 28 40
36 30 41
36 30 42
34 28 40
36 30 42
35 30 42
35 29 41
35 29 40
34 29 40
34 29 41
35 30 42
34 29 41
34 29 40
34 29 41
34 29 40
34 29 40
34 29 40
35 30 41
34 30 41
35 32 42
59 62 75
99 112 130
116 132 153
106 119 139
107 121 140
105 119 138
102 116 133
104 119 135
93 106 124
97 110 125
94 106 123
84 98 110
71 91 96
60 85 86
58 84 85
56 87 84
60 90 89
63 94 94
58 89 87
62 93 91
61 90 90
66 94 94
68 90 95
86 105 114
102 116 131
107 123 138
104 119 134
109 127 143
101 117 132
105 122 137
112 129 147
115 131 147
114 130 148
124 142 162
122 140 160
123 139 159
121 138 159
110 138 146
77 126 99
41 121 50
43 127 52
44 129 53
44 129 53
44 128 52
42 122 50
44 129 53
45 132 54
44 130 53
44 131 53
43 126 51
44 130 53
43 127 52
42 125 51
43 128 53
42 124 51
43 128 53
43 127 52
44 131 54
43 128 52
44 130 53
43 126 52
43 125 51
43 126 52
56 128 70
86 132 114
122 147 159
131 149 174
127 146 168
131 149 172
130 148 171
129 146 168
130 149 171
134 152 176
130 149 172
127 146 167
133 151 174
133 151 175
131 149 173
131 149 172
128 146 167
132 151 174
132 150 173
133 150 173
129 148 171
128 146 167
130 148 171
133 152 175
131 149 172
128 145 166
130 148 169
131 150 174
135 153 177
132 150 171
130 148 171
132 150 172
131 150 173
130 147 170
130 147 170
132 151 172
132 151 175
129 148 169
132 151 174
132 150 172
130 148 170
130 147 169
130 148 170
132 152 173
130 150 174
131 148 172
129 149 171
132 150 174
132 151 174
130 149 172
129 147 170
133 151 176
131 149 171
130 149 171
129 148 172
132 150 173
131 151 175
127 146 167
133 152 174
131 149 172
128 146 166
131 150 173
132 150 174
130 148 169
133 151 175
129 148 171
129 148 169
127 147 169
132 150 173
130 149 171
129 147 168
132 151 173
133 152 176
130 149 171
124 142 163
128 146 166
129 147 169
132 150 174
128 146 168
130 148 172
131 150 172
132 150 172
129 148 171
132 151 173
126 144 165
132 151 173
130 148 169
131 150 172
131 150 169
128 147 170
130 148 171
127 145 166
126 145 167
128 146 169
130 150 170
129 148 169
130 149 169
132 151 174
125 144 165
130 148 169
129 148 169
127 146 166
132 140 166
141 98 153
155 70 152
160 44 149
154 40 146
157 41 147
159 41 151
158 41 150
161 41 151
157 41 149
161 41 151
162 42 151
161 41 150
160 41 150
160 42 151
156 40 148
157 40 147
161 42 152
159 41 149
156 40 146
153 39 145
156 40 146
161 42 152
151 39 144
153 45 142
126 58 119
100 85 87
54 85 37
54 87 42
80 104 91
93 113 116
104 121 135
108 127 142
106 123 136
115 132 150
117 134 151
120 137 154
124 142 163
119 134 152
123 142 163
123 140 160
123 142 161
123 141 162
128 146 168
127 144 165
126 145 166
121 139 160
129 147 170
121 139 160
126 143 165
129 147 169
130 147 169
125 142 165
131 148 172
123 141 161
129 145 170
130 148 172
126 144 170
125 143 166
130 148 173
127 143 168
132 150 174
128 145 168
129 146 172
107 120 142
56 57 71
34 28 40
32 27 38
35 29 41
35 29 41
33 28 39
34 29 40
33 27 38
35 29 41
35 29 41
34 29 41
34 28 40
32 27 38
33 28 39
34 29 40
36 30 42
33 28 38
35 29 41
36 30 42
34 29 40
35 30 41
32 28 38
34 29 40
33 28 39
34 29 39
34 29 39
77 88 102
109 125 145
104 120 138
116 132 152
113 127 147
107 121 137
98 111 127
99 113 128
88 100 113
89 103 116
80 93 104
80 91 99
64 79 84
67 81 88
59 70 77
53 69 72
49 68 69
49 69 70
59 81 82
63 82 84
63 81 83
68 84 87
78 92 100
95 110 122
95 110 121
95 110 123
98 114 130
106 123 138
106 122 139
113 129 147
112 130 148
110 127 144
115 132 150
112 129 147
117 136 154
120 136 154
121 138 157
95 129 125
57 130 71
42 124 51
41 119 49
43 126 51
42 122 49
43 126 52
44 129 53
42 124 51
43 126 51
43 126 52
43 128 52
42 122 50
42 125 51
44 131 53
42 125 51
43 125 51
41 122 50
43 125 51
43 126 52
43 128 53
43 125 51
44 129 53
43 125 51
42 123 51
44 129 53
44 129 53
73 126 96
111 142 146
131 149 172
131 149 171
131 149 172
131 151 173
131 148 169
133 150 174
131 149 172
132 151 174
133 150 173
132 150 172
132 151 175
129 149 170
133 152 174
129 146 169
127 143 164
132 150 173
130 148 170
125 143 163
132 150 175
132 151 174
131 149 172
132 149 172
131 149 173
130 149 172
130 149 173
130 148 170
133 151 175
131 150 172
131 150 174
131 149 172
131 149 170
130 148 171
130 148 170
128 147 168
133 150 175
132 150 173
131 148 170
131 150 173
132 150 173
132 150 173
130 148 171
131 151 174
128 146 168
131 148 171
132 151 174
128 146 169
133 151 176
129 146 168
130 149 173
129 148 172
131 149 172
132 151 175
133 150 174
131 149 171
130 149 171
129 148 170
128 147 168
128 148 172
131 149 172
132 150 173
131 148 172
131 150 172
134 152 175
130 149 172
128 147 169
133 151 173
125 144 166
134 151 174
129 148 170
132 150 171
131 151 173
129 148 170
130 149 172
127 146 170
129 147 167
129 147 170
129 148 171
130 148 171
131 149 171
130 148 173
132 151 175
126 145 165
127 147 168
130 149 170
131 150 171
131 150 172
129 146 169
128 147 169
130 150 170
128 148 170
131 150 172
128 147 169
126 146 165
129 147 170
126 146 167
124 143 161
123 142 161
127 146 167
129 143 167
139 124 160
149 73 148
151 49 143
153 40 147
156 40 147
155 40 146
158 41 150
157 41 149
157 41 150
156 41 148
161 42 152
159 41 149
159 41 150
155 40 145
157 40 146
158 41 149
156 40 146
159 41 149
157 40 147
155 40 146
153 39 143
159 41 148
155 40 146
157 40 147
155 40 145
149 43 140
118 68 109
74 81 71
64 86 72
98 114 121
93 108 118
96 111 121
97 113 121
112 128 145
101 119 132
108 125 138
116 133 151
112 130 148
113 130 148
117 134 153
116 134 152
120 137 159
125 143 163
119 137 157
124 142 164
124 142 162
127 146 169
125 142 166
127 145 167
128 144 165
125 140 163
125 141 164
125 140 164
127 145 166
128 146 169
131 149 173
129 148 172
125 143 165
128 144 169
128 147 170
127 143 167
133 151 176
127 143 166
129 145 171
110 125 145
55 58 72
34 28 40
31 25 36
34 28 40
35 29 41
33 28 39
33 27 38
33 28 39
33 27 38
34 28 40
33 28 39
34 29 40
33 28 39
35 29 41
33 28 39
34 28 39
31 27 37
33 28 39
32 27 37
33 28 39
31 27 37
32 27 38
31 26 36
34 30 40
31 27 37
33 30 40
89 100 116
117 133 152
110 124 144
110 125 143
113 130 150
107 122 142
97 111 126
91 106 118
87 103 115
100 114 130
91 107 121
81 94 106
78 90 100
73 86 94
65 77 83
58 68 73
68 78 85
65 74 82
64 76 80
55 69 71
63 76 81
83 98 106
79 93 101
87 104 113
88 102 112
97 112 125
100 117 131
99 115 127
106 123 140
108 125 144
109 127 144
106 124 137
111 130 147
121 139 159
116 134 153
120 139 158
115 137 153
85 125 111
45 124 55
42 122 50
43 125 51
42 122 50
42 124 51
42 123 50
43 125 51
43 127 52
42 123 50
44 131 53
43 124 51
43 125 51
43 126 51
43 127 52
43 127 52
42 125 51
43 126 52
42 125 51
40 119 49
42 123 50
42 123 50
41 122 50
44 130 53
44 127 52
42 124 51
43 127 52
63 125 81
105 139 137
128 148 167
131 150 171
128 146 169
127 144 165
131 149 171
132 151 174
131 149 170
126 144 166
130 149 171
130 147 168
130 148 170
133 150 174
134 151 174
130 148 172
128 146 167
133 150 173
128 145 168
133 151 175
129 147 169
128 147 169
132 150 173
133 152 176
132 150 173
134 151 174
132 150 172
129 146 167
133 152 176
133 151 174
130 149 172
133 151 174
132 149 171
130 148 171
131 150 172
130 150 174
131 150 173
133 151 175
131 148 171
134 154 176
130 149 172
130 148 171
134 153 176
132 150 174
134 153 177
134 153 177
134 153 176
130 149 173
130 149 171
131 149 174
126 145 166
131 150 174
127 144 167
131 149 173
132 152 175
132 151 173
132 150 174
129 147 170
130 149 172
131 150 172
131 149 171
130 148 172
129 148 172
132 151 176
130 149 173
131 150 173
133 152 175
132 151 173
131 150 173
129 148 170
132 151 174
132 151 174
129 148 169
130 149 170
131 149 173
128 147 166
127 146 166
133 152 174
131 151 171
131 150 173
133 153 177
125 144 164
129 147 169
129 147 170
131 149 172
131 149 171
130 149 172
126 145 165
133 151 174
130 149 172
133 151 174
128 147 168
127 146 167
131 149 172
131 150 172
125 144 166
126 144 164
132 150 172
127 145 167
132 151 174
131 138 166
145 93 152
151 58 148
160 41 150
152 40 145
158 41 148
155 39 144
154 39 144
157 40 147
160 41 150
152 39 141
159 41 150
159 41 149
156 40 147
161 41 149
153 39 143
156 40 146
155 39 142
151 37 138
159 41 148
159 40 147
154 39 143
158 40 147
154 39 144
150 39 141
151 39 141
148 38 139
132 54 126
103 68 105
78 87 93
84 99 102
87 102 108
97 112 120
96 111 120
97 113 125
101 117 130
110 128 141
114 131 148
118 135 153
108 126 138
113 130 149
118 137 153
119 136 156
118 137 155
123 141 161
124 142 162
123 140 161
121 139 159
129 147 169
124 142 164
122 140 160
127 145 166
128 145 167
123 141 162
131 148 171
128 145 168
123 141 164
129 147 170
125 141 166
124 143 164
130 148 171
127 144 167
128 146 168
125 142 166
127 144 167
117 134 154
78 86 100
30 25 36
33 27 38
32 26 37
33 28 39
31 26 36
32 27 38
33 28 40
33 27 38
32 27 38
34 28 39
33 28 39
34 28 40
32 27 38
32 27 38
33 28 39
33 28 39
32 27 38
31 27 37
32 28 38
31 27 37
31 27 36
32 27 37
32 27 37
32 28 39
48 50 60
95 109 125
114 130 151
115 131 151
118 135 158
116 132 152
113 129 149
112 128 147
100 116 131
102 119 135
96 111 127
102 116 133
89 104 118
94 109 123
88 103 116
98 112 126
79 93 103
75 89 98
68 83 89
71 85 93
70 86 92
82 96 107
88 102 113
84 101 110
96 112 126
91 109 122
104 121 136
100 117 130
106 125 140
110 130 146
111 128 146
111 128 144
110 129 148
110 128 144
120 137 157
118 136 156
125 143 163
106 133 139
76 122 99
42 116 50
40 118 48
40 117 48
42 122 50
43 125 51
42 122 50
42 121 50
43 125 51
42 123 50
41 122 50
40 118 48
40 116 48
42 123 50
42 124 51
42 123 50
44 128 52
43 127 52
41 122 50
41 119 48
42 123 50
40 118 48
39 114 47
39 116 47
42 122 50
40 118 48
42 124 51
52 119 65
89 134 115
123 146 160
132 150 172
128 146 166
133 151 175
132 149 171
134 152 176
132 152 175
130 148 172
129 147 170
131 148 170
132 151 175
130 148 171
130 149 171
132 151 173
133 151 173
132 151 173
131 150 173
131 150 174
132 150 172
134 152 174
128 145 168
132 150 173
129 148 170
131 149 170
128 146 167
134 152 176
128 146 170
128 147 169
132 151 173
133 151 174
133 151 175
131 149 172
129 148 170
131 150 173
134 152 175
131 151 175
128 145 167
132 151 175
130 149 173
128 147 167
129 147 170
129 147 170
131 149 171
130 147 170
133 151 174
132 150 175
128 146 171
130 149 174
131 149 173
127 145 168
132 151 175
128 147 172
132 151 174
128 146 171
133 151 175
130 148 172
133 152 177
131 150 174
132 151 175
136 155 180
130 148 172
132 151 175
133 151 175
127 147 168
131 149 172
128 147 170
130 149 171
131 149 173
129 148 172
129 149 171
130 149 171
129 148 170
133 151 176
132 151 174
133 152 175
132 151 175
130 149 170
133 151 175
133 152 176
132 150 175
132 151 174
133 152 177
132 150 174
132 151 174
130 148 170
129 148 169
133 152 176
135 153 176
132 151 172
130 148 171
131 150 171
129 147 168
127 146 168
127 146 164
129 148 169
128 146 168
127 145 165
125 142 163
137 124 160
140 85 146
151 39 143
158 41 148
154 40 145
154 40 145
154 39 144
159 40 147
152 39 143
155 40 146
157 40 146
157 40 147
157 40 147
156 39 144
157 40 144
158 40 146
155 39 142
158 41 149
156 40 146
158 40 144
152 39 143
151 39 143
147 38 138
154 40 144
155 40 143
152 39 142
155 40 144
142 45 136
122 56 118
84 88 96
84 98 103
89 103 110
89 103 110
95 112 120
94 111 118
108 124 138
113 131 146
113 130 146
111 126 142
115 133 153
119 137 155
113 131 147
124 140 162
117 134 152
124 142 163
123 142 163
122 141 160
122 139 158
123 139 159
125 143 165
127 146 168
129 147 171
126 143 166
125 142 165
128 146 169
128 146 168
125 144 168
127 145 168
132 150 172
129 147 170
129 146 168
130 146 169
131 149 173
127 143 166
130 147 171
124 142 163
91 103 121
33 29 38
33 27 38
33 27 39
34 28 39
33 27 38
33 27 38
33 27 38
33 27 38
33 27 38
33 27 38
33 27 38
33 28 39
35 29 40
31 26 37
33 28 39
33 28 39
32 27 38
33 27 38
32 27 38
33 28 39
30 26 36
32 27 37
30 26 36
34 29 39
65 71 83
108 126 146
116 132 153
113 129 150
109 125 144
115 133 154
116 133 153
109 126 144
112 129 148
111 127 146
106 123 141
105 122 139
107 123 139
105 122 137
96 111 127
104 122 137
96 111 126
95 112 125
91 107 120
99 117 132
106 124 139
108 125 141
100 117 132
100 117 131
113 130 147
103 121 136
109 127 142
99 116 130
117 135 154
109 127 144
116 134 152
115 133 152
114 132 149
119 138 158
124 142 164
121 140 159
122 141 161
112 137 147
76 127 99
39 113 46
39 114 47
41 121 49
40 118 48
42 122 50
41 119 49
42 121 49
41 121 49
38 113 46
43 126 51
40 117 48
42 123 50
42 123 50
41 120 49
41 119 49
42 122 50
41 120 49
39 116 47
39 114 46
41 121 49
42 124 51
40 116 47
43 127 52
41 121 49
41 118 48
42 123 50
39 113 46
81 126 105
125 147 163
131 149 172
129 148 169
130 147 169
129 147 171
129 147 168
129 147 169
130 148 171
134 153 176
129 146 168
132 151 173
133 151 175
135 152 175
129 148 172
133 151 173
129 146 169
127 143 165
128 143 166
125 140 162
120 135 155
126 142 166
131 147 170
130 149 171
131 149 171
131 148 170
133 151 175
130 148 170
131 149 172
132 150 172
129 148 172
132 150 173
130 149 171
134 151 173
133 151 173
132 149 172
129 149 172
130 149 171
130 149 169
131 150 174
130 149 172
131 150 174
130 149 171
130 148 171
130 148 170
129 148 171
129 147 170
130 148 172
130 148 172
133 152 174
130 148 172
129 148 170
129 148 171
130 149 173
126 145 167
132 151 174
130 148 172
133 152 174
131 150 175
130 147 170
136 155 179
133 149 174
130 148 171
131 149 172
132 149 172
129 147 171
132 151 174
128 147 169
130 149 172
132 151 174
131 150 172
133 152 176
132 150 174
130 149 172
129 148 170
131 151 174
127 145 167
131 149 170
129 148 169
129 148 169
130 148 172
132 151 174
130 149 173
132 151 174
129 148 168
128 146 168
130 147 170
131 150 174
132 152 174
126 145 167
130 148 170
128 148 168
122 140 160
128 146 166
127 145 164
128 147 169
128 147 167
128 147 167
132 141 167
133 105 149
150 65 147
156 40 146
155 40 147
146 38 139
151 39 141
152 39 143
157 40 146
147 38 139
150 38 140
152 39 143
154 39 143
150 39 141
156 40 145
152 39 142
153 39 143
150 37 138
155 39 144
152 39 141
153 39 142
150 39 141
151 39 140
153 39 142
149 38 140
151 38 140
154 39 142
148 38 137
149 39 138
133 62 129
101 89 110
96 111 121
96 112 122
102 119 129
104 119 132
106 122 137
109 126 141
116 132 149
115 132 150
115 132 149
115 133 150
125 141 161
124 141 162
122 140 161
125 144 164
125 144 166
120 137 157
126 144 165
125 142 162
123 140 160
128 147 170
129 148 170
125 141 163
121 137 158
124 141 165
124 143 166
126 144 168
127 146 170
127 145 168
125 143 165
128 145 169
127 145 167
125 143 163
124 142 164
129 148 172
131 150 173
130 149 172
108 124 144
57 63 75
30 25 35
31 25 36
32 27 37
32 27 37
31 26 36
30 25 35
32 27 38
32 27 37
31 25 36
32 27 37
31 26 37
31 26 37
31 27 37
31 26 36
30 26 36
31 26 36
30 26 36
32 27 38
30 26 36
32 27 38
31 26 36
30 25 35
38 38 48
88 98 113
116 132 153
126 144 168
120 135 158
120 138 160
119 137 158
121 139 160
116 134 155
115 131 152
117 134 155
113 130 150
111 129 147
108 126 144
116 134 153
114 133 151
114 132 151
111 129 148
112 129 147
104 123 139
113 130 148
105 123 139
107 125 141
103 122 137
116 133 152
115 133 151
113 131 150
117 135 153
118 136 156
112 130 149
118 137 159
121 140 161
120 138 158
119 138 157
121 139 160
120 138 160
126 144 166
124 142 162
109 134 142
79 127 103
38 112 46
41 118 48
41 120 49
40 117 48
41 120 49
41 122 49
41 121 49
40 117 47
42 124 51
41 120 49
40 119 48
43 125 51
41 120 49
41 119 48
42 122 50
39 115 47
41 120 49
41 122 50
40 118 48
40 118 48
40 117 48
40 116 47
40 118 48
40 116 48
40 115 47
39 112 46
38 111 46
80 126 103
117 143 156
132 150 173
133 151 174
132 150 173
129 147 170
131 149 172
132 150 172
130 149 171
134 152 176
131 148 171
129 148 170
129 146 168
127 143 167
126 142 165
118 131 153
108 118 138
115 127 149
102 109 130
106 114 134
104 113 132
100 107 127
111 123 145
114 126 147
121 135 155
125 141 164
130 149 171
130 148 172
130 148 171
130 148 171
131 149 174
132 151 175
131 148 172
128 146 168
135 153 176
132 151 176
134 152 175
130 148 170
130 148 170
129 148 172
130 149 171
129 147 170
132 149 173
130 147 170
130 148 171
126 146 168
128 145 168
129 146 170
134 152 176
132 150 174
131 149 173
133 152 174
132 150 175
130 149 173
132 150 174
133 152 176
133 151 176
133 151 175
133 152 175
130 149 172
132 150 174
130 148 172
133 151 173
132 151 175
129 149 171
131 150 174
130 147 169
134 153 177
131 149 172
131 150 172
133 151 175
127 146 167
132 150 173
128 148 171
135 152 177
131 148 171
133 151 176
130 149 172
132 151 173
133 150 173
134 153 176
132 149 172
128 146 169
128 147 168
131 149 173
127 145 166
132 151 174
132 151 173
130 147 171
131 150 173
127 145 167
128 146 168
132 150 172
131 151 172
129 146 169
131 150 173
129 148 171
127 145 167
130 139 165
143 103 156
143 43 137
151 39 141
143 37 134
146 38 138
152 39 141
153 39 144
149 38 138
153 39 142
147 37 135
148 38 140
151 39 141
155 40 144
154 39 142
153 39 141
150 38 136
158 41 147
155 39 141
155 39 142
152 39 142
151 38 139
150 38 139
152 38 140
149 38 138
143 37 133
145 37 135
150 38 140
147 38 136
135 62 132
122 106 140
113 126 143
109 127 139
111 128 145
113 130 145
113 128 143
114 130 147
116 133 152
114 131 148
116 133 150
121 137 157
119 137 155
124 142 161
119 137 155
128 144 164
125 142 164
120 139 160
122 140 162
121 138 158
124 142 163
124 143 165
127 144 166
125 142 162
129 147 169
121 138 158
126 145 167
125 142 164
128 146 170
122 139 160
120 139 159
130 148 171
123 141 164
131 149 174
128 144 168
123 140 162
122 139 160
127 145 169
125 141 163
90 102 118
39 39 49
31 26 36
33 27 37
31 26 37
30 25 35
30 25 36
30 25 36
31 26 37
31 26 37
30 25 36
32 26 36
33 27 38
30 25 35
31 26 36
31 26 37
29 25 35
31 26 36
28 24 34
31 26 36
28 24 33
28 25 34
28 24 34
66 73 86
107 123 142
124 142 164
122 139 161
121 139 162
119 136 157
115 132 152
120 139 160
122 140 162
122 140 162
116 134 154
117 134 155
119 138 160
121 139 159
122 139 161
116 135 156
116 135 157
123 141 163
120 138 157
117 134 155
120 139 159
118 136 156
110 130 147
116 135 153
111 129 146
123 142 163
118 136 155
116 134 153
120 139 160
121 140 161
118 138 156
124 144 164
121 140 160
124 144 165
122 140 160
126 145 167
124 142 163
124 143 164
109 138 145
70 122 90
38 111 45
40 115 47
41 119 48
39 112 46
39 114 47
41 120 49
40 118 48
42 122 49
41 123 50
40 117 47
37 109 45
41 119 49
38 112 45
41 120 49
39 115 47
38 113 46
40 118 48
40 119 48
40 115 47
40 118 48
38 111 45
40 116 48
39 112 46
37 107 44
35 103 42
37 109 45
41 119 49
79 124 103
119 142 158
133 152 175
130 148 170
130 149 172
131 149 172
130 149 172
131 149 172
133 151 174
129 147 171
131 149 172
126 143 165
116 129 150
108 119 138
99 106 125
89 91 110
86 85 104
82 79 98
81 80 98
74 68 86
82 79 98
80 77 95
88 88 106
93 97 117
96 101 121
97 105 125
113 124 143
122 137 159
125 141 163
129 147 169
131 149 171
132 150 173
130 149 172
132 151 174
131 150 174
132 152 176
131 150 173
133 151 175
130 149 172
131 149 172
132 149 172
130 149 172
132 151 175
128 147 171
131 150 173
132 152 175
127 146 169
131 150 174
127 146 169
128 147 170
130 148 172
132 151 175
128 147 171
129 148 172
133 151 174
131 150 173
133 152 176
133 152 176
133 152 176
130 149 171
132 150 174
129 148 172
132 151 173
133 151 175
131 150 174
134 154 177
133 152 175
130 148 172
128 147 169
133 151 175
136 154 178
133 153 176
132 150 173
126 145 167
133 150 173
132 149 172
133 152 177
134 152 177
133 152 174
131 149 173
131 150 173
131 150 171
132 150 173
129 148 170
129 148 171
131 147 171
133 152 176
129 148 172
134 153 177
128 145 166
133 152 175
130 148 171
128 147 168
130 150 173
132 151 173
130 149 171
127 145 166
128 146 165
129 130 159
139 78 142
144 37 134
143 37 134
146 38 139
149 38 140
147 37 137
144 37 135
149 38 137
153 39 144
152 38 139
148 37 136
148 37 137
150 37 137
149 38 138
151 38 138
152 39 142
148 38 137
149 37 137
154 40 143
151 39 141
146 37 134
146 37 135
150 38 140
145 37 135
150 39 141
141 36 132
145 37 132
150 38 139
144 59 137
130 102 141
112 124 141
119 135 153
112 129 145
116 133 151
119 135 154
122 139 159
120 138 155
119 137 156
122 141 161
127 144 167
124 143 165
124 141 162
128 147 170
127 145 165
124 142 162
122 140 161
127 143 164
129 148 171
127 145 168
128 145 168
127 144 166
129 147 169
123 142 161
127 145 167
125 143 164
127 144 167
130 146 169
124 140 163
129 147 169
131 149 173
131 149 173
126 141 163
127 144 168
127 144 166
128 145 167
122 138 160
125 144 166
109 124 144
64 70 83
34 32 42
30 25 35
30 25 35
27 23 32
29 24 34
31 26 36
30 25 36
31 26 36
31 26 36
30 25 35
29 25 35
30 26 36
30 25 35
30 25 35
30 25 36
31 26 36
29 24 34
30 26 35
28 24 34
29 25 34
55 61 72
98 111 129
118 134 155
118 135 155
121 139 161
124 140 162
115 132 153
128 146 169
117 133 155
122 141 162
124 142 164
126 145 168
126 145 166
122 140 162
123 141 163
123 142 165
124 143 165
121 139 160
123 142 163
124 143 165
124 143 164
123 141 163
120 138 159
127 146 168
123 142 164
126 143 164
122 142 163
126 145 166
124 142 165
118 137 156
120 138 158
128 146 167
122 140 161
123 142 161
121 140 161
127 147 169
122 140 161
126 145 167
123 143 164
116 139 155
76 122 99
39 113 46
39 115 47
38 112 46
38 109 45
39 114 47
39 117 48
39 116 47
41 119 48
40 117 48
39 114 46
38 113 46
40 117 48
39 113 46
39 115 47
40 117 48
39 115 47
41 120 49
39 115 47
39 113 46
36 105 43
35 104 43
38 112 46
39 115 47
37 109 45
38 111 45
37 109 45
40 112 49
79 121 102
119 142 156
132 150 174
131 149 173
132 151 173
128 148 169
132 151 174
130 146 169
132 150 173
127 145 166
121 135 157
111 124 145
103 110 130
84 85 101
80 75 94
66 55 73
66 52 71
64 50 69
65 51 70
64 50 70
64 51 70
65 51 70
66 53 72
69 58 78
69 59 78
81 78 96
86 84 103
99 107 127
112 122 143
127 144 166
127 143 166
133 151 175
129 147 170
127 146 168
132 150 172
130 149 171
134 152 176
130 147 172
133 151 174
128 147 169
130 148 171
131 148 172
129 148 172
128 148 170
131 149 171
129 146 169
133 151 174
128 148 171
130 149 173
128 148 169
129 147 169
125 144 166
131 150 173
127 146 167
130 149 171
132 151 176
131 149 172
131 150 173
132 150 173
133 150 174
133 152 176
130 148 171
129 147 168
132 151 174
133 151 175
132 150 171
128 147 170
132 151 174
131 150 174
133 152 173
133 151 175
132 152 176
131 149 173
133 152 175
130 149 172
133 153 177
131 151 173
132 151 174
131 149 172
130 149 172
134 153 177
131 149 174
132 150 173
132 151 175
135 154 179
131 150 172
133 152 174
130 149 172
128 147 171
132 149 174
130 149 171
133 150 173
131 150 173
132 150 174
132 151 173
130 149 170
131 150 172
128 146 167
130 131 162
138 83 143
136 35 129
146 37 135
147 37 136
144 37 135
140 36 131
148 38 138
149 38 139
148 38 138
146 37 137
145 36 131
151 38 138
142 35 129
146 37 134
146 37 136
146 36 134
149 38 137
143 36 132
153 39 142
150 38 139
149 38 137
148 38 136
139 35 127
138 35 129
145 37 136
142 37 133
141 36 130
138 35 128
138 52 132
132 101 146
121 136 158
121 139 157
115 132 148
122 139 158
122 140 160
123 140 160
124 142 162
123 140 160
127 145 168
123 142 163
128 146 170
128 146 169
124 141 162
131 149 171
120 135 155
125 144 164
129 145 167
128 146 169
128 145 168
126 145 167
128 147 170
125 144 165
128 146 169
125 142 165
124 142 164
128 146 167
123 141 162
125 142 165
126 144 166
129 146 170
126 143 167
122 139 161
124 142 164
120 137 159
127 144 167
125 142 164
124 141 163
119 135 156
103 115 133
66 73 84
30 27 37
28 23 33
29 24 34
29 24 35
30 24 34
28 23 33
30 25 35
29 25 35
30 25 35
28 24 33
28 24 33
30 26 35
31 26 36
28 24 34
27 23 33
28 24 33
30 26 35
28 24 33
47 51 62
77 89 103
117 133 155
120 136 158
122 138 161
120 137 158
118 137 159
121 139 161
124 142 165
127 145 167
124 142 163
121 139 160
124 142 164
124 142 164
124 142 164
123 140 162
123 142 163
122 142 164
122 141 162
128 147 170
125 144 166
128 147 169
127 145 168
126 145 168
123 141 164
124 141 164
126 144 168
126 144 167
127 146 168
127 146 168
129 148 171
125 144 165
129 146 168
123 141 162
128 146 169
123 142 163
127 145 166
132 151 174
128 146 167
130 149 171
121 143 159
91 128 119
39 108 47
39 114 46
40 117 47
37 107 44
38 112 45
39 114 47
40 117 47
38 111 45
39 114 46
38 112 46
39 114 46
38 110 45
38 110 45
36 106 43
39 115 47
39 115 47
36 108 44
38 111 45
39 114 47
38 110 45
38 110 45
38 112 46
38 112 46
39 113 46
37 108 45
37 107 44
41 107 50
80 122 104
126 146 165
128 147 168
128 147 170
135 153 175
134 152 175
132 150 173
130 148 171
124 140 162
119 133 154
101 107 126
87 89 108
74 67 85
65 54 73
65 50 69
64 50 69
64 50 69
65 50 69
65 51 70
66 51 70
65 51 70
65 50 70
64 50 70
65 51 70
65 51 70
65 52 71
67 58 77
76 70 89
88 88 107
99 106 124
114 127 149
128 144 167
131 148 172
129 147 169
131 149 172
130 148 171
131 150 173
133 150 173
129 146 168
128 145 167
130 149 173
130 149 173
131 149 172
130 148 172
130 149 172
125 143 167
128 146 169
129 148 171
132 150 175
131 150 175
126 145 169
128 147 170
129 147 171
133 152 175
132 151 176
128 146 170
128 146 169
130 148 171
132 149 173
132 151 175
132 150 174
126 145 168
132 149 174
132 150 173
133 151 175
131 150 172
130 149 171
131 150 174
133 151 176
132 151 175
134 153 176
133 152 175
132 151 174
131 149 173
130 149 172
134 154 177
133 151 175
133 150 174
132 150 173
136 154 178
131 150 174
132 150 173
133 152 176
130 148 171
127 145 166
130 149 172
132 151 174
132 149 174
130 149 171
131 149 172
131 150 172
131 150 172
129 147 168
131 150 174
132 150 174
125 144 165
130 148 169
129 148 169
134 122 159
139 69 139
143 37 135
143 36 132
139 36 129
143 36 133
149 38 139
142 36 132
145 37 135
149 38 138
144 36 133
147 37 137
146 37 135
143 36 132
146 37 135
148 37 136
144 36 132
145 36 133
143 36 130
143 36 133
146 37 134
151 39 140
146 37 133
144 37 134
144 36 132
139 35 129
139 36 131
143 36 131
141 36 131
140 46 131
124 103 141
120 135 155
123 140 162
124 141 163
122 138 160
124 141 162
125 143 164
129 148 170
123 140 160
127 145 167
121 138 159
123 141 161
126 144 167
125 143 164
124 142 163
130 148 172
123 140 162
129 147 169
126 142 165
128 146 169
123 140 162
123 140 161
126 144 167
123 141 163
126 143 166
126 144 167
126 143 167
121 136 157
118 135 156
124 142 165
124 141 165
129 145 168
123 139 163
127 144 168
125 142 165
125 141 165
123 139 161
119 135 157
123 138 161
112 127 146
90 100 116
59 63 75
33 31 40
27 23 32
27 22 31
29 24 34
27 22 31
27 23 32
28 23 33
29 24 34
30 25 35
30 25 34
29 25 34
28 24 33
27 23 32
28 24 33
26 22 31
28 24 33
45 48 58
89 102 117
114 129 150
119 135 158
118 136 156
119 137 158
118 135 155
125 142 165
123 141 163
125 142 164
124 142 164
128 147 170
119 136 158
122 139 161
119 138 158
125 143 165
121 141 161
126 145 167
119 137 159
123 142 165
122 141 162
123 141 162
121 140 162
123 141 162
128 146 169
125 143 166
122 141 162
130 149 172
128 147 169
126 146 168
124 143 165
128 147 169
123 143 164
124 143 163
125 143 164
126 145 166
127 146 168
126 144 165
123 141 163
125 144 165
126 144 166
123 144 161
89 127 117
46 114 57
36 106 43
38 110 45
38 113 46
38 112 45
38 111 45
38 109 45
39 115 47
37 109 45
38 111 45
38 114 46
39 113 46
38 112 45
38 112 46
36 106 43
37 108 44
34 101 41
38 112 45
38 111 45
35 103 42
36 107 43
38 110 45
37 108 44
36 105 43
36 105 43
36 105 43
44 110 54
91 129 121
124 143 162
128 148 171
131 150 173
131 151 172
130 147 170
130 149 171
125 140 162
118 131 154
101 109 128
78 74 92
62 51 68
63 49 67
63 49 68
65 50 69
64 50 69
64 49 68
64 50 69
62 49 67
64 50 69
66 51 70
64 50 69
65 50 69
64 50 69
63 49 68
64 50 69
66 51 70
64 50 69
71 63 81
77 72 90
100 105 125
114 127 147
131 147 170
130 148 172
134 152 176
132 151 174
133 151 175
132 150 174
130 147 169
131 149 171
131 149 174
131 149 172
130 147 170
127 145 167
131 149 173
127 146 169
128 145 169
125 144 166
129 147 171
125 145 166
130 149 172
129 148 170
128 146 169
130 150 173
130 149 172
131 148 172
127 146 170
127 147 169
130 149 172
132 151 175
132 150 174
132 149 173
133 151 174
132 151 174
136 154 178
134 152 177
133 152 175
132 151 174
131 151 173
134 152 176
133 152 176
132 149 173
132 151 174
132 151 174
132 150 173
133 151 175
134 153 177
132 150 174
133 151 175
130 148 171
130 149 172
132 150 173
132 151 174
131 148 171
131 147 172
131 150 171
131 150 172
134 152 177
131 150 173
133 150 174
127 146 168
129 148 170
130 149 173
132 150 173
134 153 178
132 151 174
128 147 168
131 149 173
131 124 157
141 69 140
145 37 133
148 38 138
139 36 130
139 35 127
145 36 133
146 37 136
141 36 133
147 37 136
142 36 130
137 35 128
145 37 134
146 36 132
140 35 129
143 36 130
140 35 129
148 37 136
138 35 128
140 35 128
142 36 131
139 35 127
142 36 130
137 34 127
146 37 135
137 35 128
145 36 131
135 34 124
133 34 123
135 63 133
124 106 144
126 133 160
128 147 168
123 141 160
128 147 168
125 141 164
127 143 164
130 149 171
127 144 165
124 143 164
129 146 169
123 141 161
126 142 164
122 139 161
128 146 168
126 141 165
130 147 171
128 145 168
130 149 172
129 148 172
129 146 169
127 145 169
126 143 166
125 142 165
120 138 158
126 144 166
127 146 168
123 139 162
126 143 166
120 136 158
124 142 162
120 136 157
123 138 162
125 143 165
119 133 154
117 134 154
125 141 163
118 132 153
116 133 154
116 132 152
116 131 152
92 103 120
67 73 85
28 23 31
25 21 30
27 23 32
27 22 31
27 23 32
26 22 31
27 23 32
27 23 32
26 22 31
27 23 32
26 22 31
26 22 31
31 29 36
33 32 37
47 51 56
82 94 104
104 118 133
106 122 137
105 120 134
110 125 142
114 130 149
105 119 135
121 137 157
117 134 156
118 135 158
120 138 159
121 139 162
122 140 162
120 139 160
129 147 170
124 142 165
124 142 165
123 141 163
123 141 164
124 143 165
125 143 165
125 143 165
121 138 160
130 148 172
127 146 167
125 143 166
128 145 168
127 146 167
120 137 158
130 149 170
127 146 168
125 144 165
129 148 171
127 146 168
129 148 171
124 142 165
126 145 168
126 145 168
126 145 166
126 144 166
126 146 168
126 145 167
101 130 134
62 110 82
33 98 40
37 106 43
38 110 45
37 108 44
39 114 47
37 108 44
37 109 44
38 112 45
36 106 43
39 115 46
38 109 45
36 104 42
38 111 45
39 114 46
38 113 46
35 101 41
37 110 44
36 105 43
35 101 41
36 107 44
35 103 42
34 100 40
34 99 41
33 95 40
37 109 44
62 116 80
103 130 134
132 151 174
132 151 173
130 149 172
132 151 173
131 150 174
130 148 171
115 127 148
92 97 115
77 72 90
63 51 69
62 48 66
64 50 68
64 50 69
63 49 68
65 50 69
63 49 68
65 51 69
63 49 68
64 50 69
64 50 69
63 49 68
65 50 69
63 49 68
63 49 68
65 51 69
65 50 69
65 50 69
64 50 69
62 48 67
81 79 98
96 101 121
114 127 148
127 144 167
131 149 173
130 149 172
130 147 170
132 149 171
132 151 174
133 151 174
133 150 172
131 148 171
132 151 175
130 147 169
126 144 167
131 149 173
125 145 166
126 144 166
129 148 172
127 146 170
133 151 175
132 150 174
126 146 169
130 149 171
127 146 169
133 152 176
133 152 175
129 148 170
131 149 173
127 147 168
131 149 172
135 154 178
132 151 175
131 150 174
132 151 174
135 154 179
131 150 174
133 152 175
130 149 171
135 153 177
129 148 170
135 153 177
134 153 177
130 148 171
136 154 177
133 152 176
130 147 170
133 151 176
135 154 177
132 150 174
133 151 176
130 150 172
135 154 177
135 153 177
129 147 170
131 149 172
131 148 171
131 151 174
132 150 174
129 146 169
135 154 178
129 147 170
132 150 174
129 148 170
136 154 178
132 151 175
129 147 169
130 148 171
131 130 161
140 83 144
136 37 127
149 38 138
141 36 133
141 36 132
137 35 128
140 36 130
142 36 132
143 36 130
138 35 127
143 36 130
147 37 134
147 37 134
140 35 128
137 35 126
141 36 132
137 35 128
140 35 127
138 35 126
142 35 130
136 34 124
137 34 126
144 37 134
137 34 125
134 34 125
135 34 122
137 35 129
126 32 118
129 57 127
118 109 140
127 141 164
128 147 169
125 144 165
127 146 168
129 148 172
125 140 162
125 143 165
129 146 170
127 145 167
129 146 170
129 145 167
125 143 164
128 144 167
122 138 160
130 146 169
129 147 171
128 146 169
130 148 171
125 141 164
128 147 169
126 143 167
124 140 163
130 148 173
127 145 169
125 141 164
126 143 167
127 144 166
123 141 164
121 137 158
120 137 159
115 131 152
112 127 147
121 138 159
115 130 151
117 133 153
119 133 155
113 127 147
113 128 147
111 124 144
106 119 137
104 117 135
88 99 115
75 83 96
59 64 75
27 25 32
25 20 29
24 20 29
27 23 32
26 22 30
28 23 32
24 20 28
29 26 32
37 39 41
43 46 48
50 55 55
66 74 73
76 86 89
89 103 110
94 108 117
93 107 111
93 105 113
102 117 128
104 119 131
104 118 130
116 132 149
105 120 134
115 131 148
116 132 152
121 137 158
122 139 161
122 140 163
127 146 169
124 141 165
123 141 161
128 146 169
129 147 170
124 143 165
123 141 163
123 143 163
129 147 171
128 146 168
125 144 166
125 144 165
125 143 165
124 144 166
126 146 169
127 145 167
126 144 165
125 144 166
129 147 168
125 144 167
124 144 164
125 142 163
126 146 168
127 145 168
127 145 167
124 142 162
131 150 172
127 145 167
115 137 151
75 119 98
38 104 45
37 108 44
37 107 44
36 106 44
34 101 41
38 112 45
36 106 43
36 103 42
38 110 45
37 108 44
36 106 43
37 110 45
37 108 44
35 106 43
34 100 41
37 109 44
36 105 43
36 105 43
35 102 41
36 106 43
38 112 46
35 103 42
33 96 39
33 97 40
43 110 54
73 118 97
107 133 140
131 150 172
130 147 169
131 149 171
130 148 171
127 146 169
112 125 146
103 113 133
78 75 93
63 49 67
63 49 67
61 48 66
63 49 66
63 49 68
64 50 68
63 49 67
64 50 68
63 49 68
63 49 67
63 49 67
62 49 68
63 49 67
65 50 69
63 49 68
64 50 69
64 50 69
64 50 68
63 50 69
63 48 67
64 49 68
65 51 70
81 79 97
93 97 118
117 129 151
129 146 169
133 151 175
129 146 169
132 151 175
131 149 172
128 146 171
131 150 174
131 149 172
128 146 170
127 145 169
128 145 167
127 145 169
124 143 165
127 145 168
127 146 168
131 150 173
127 145 167
122 142 164
130 149 173
131 150 173
133 151 175
131 150 172
128 147 169
127 146 169
130 149 171
128 147 170
128 147 170
134 153 177
131 150 173
128 148 170
128 147 169
134 151 176
130 149 171
135 154 177
127 147 168
128 146 170
132 150 173
129 149 172
132 151 174
130 147 170
133 152 176
131 150 175
130 148 172
130 149 172
131 150 173
132 152 175
134 153 177
131 150 172
128 146 170
129 147 170
131 150 174
135 153 178
131 148 171
132 151 174
129 147 169
131 149 173
132 149 173
131 149 172
131 148 172
134 153 176
133 151 175
130 149 172
131 150 171
131 146 171
129 133 162
133 86 141
139 44 132
131 33 119
146 36 133
135 34 125
137 35 128
138 35 126
134 34 123
142 36 132
145 36 132
141 35 130
139 35 127
136 34 123
139 35 127
147 36 132
143 36 131
144 36 132
136 33 123
137 34 125
139 35 127
137 34 126
143 35 128
135 34 122
138 35 127
138 35 127
133 34 123
136 35 126
132 34 123
125 56 121
133 116 154
127 144 165
129 146 170
129 145 168
125 143 165
125 144 164
127 145 169
129 147 170
124 141 162
130 146 168
130 146 169
130 149 172
128 146 170
131 148 172
129 147 170
130 148 171
128 147 170
124 140 162
127 145 168
130 147 170
128 145 168
124 141 162
124 141 163
124 140 163
125 143 165
125 142 163
119 135 157
128 145 168
120 136 159
121 137 159
118 136 158
122 139 161
123 140 162
121 137 157
111 126 145
117 133 153
109 122 141
110 124 144
110 123 141
106 120 138
93 103 118
96 106 123
99 111 129
85 94 109
75 82 94
55 60 70
48 52 60
39 41 49
31 33 38
24 20 28
36 37 44
32 33 36
43 46 48
57 64 63
63 70 68
67 75 74
76 87 84
82 94 94
94 106 110
90 103 103
89 101 101
86 98 97
90 103 103
89 101 101
97 111 117
97 111 118
100 114 123
101 115 126
112 128 145
112 127 145
123 141 162
121 139 160
124 140 162
121 138 160
126 143 163
123 141 163
128 146 168
123 140 161
124 141 163
126 144 165
127 144 167
119 137 157
125 144 165
128 146 168
126 146 169
129 148 171
129 147 171
125 145 165
125 143 165
130 148 171
123 142 162
123 143 164
129 147 170
125 144 166
125 145 166
129 147 169
130 148 170
125 143 163
125 144 166
128 147 169
124 143 163
105 135 136
59 110 77
36 104 42
35 104 42
34 100 41
34 100 41
36 105 43
35 103 42
35 102 41
36 106 43
38 111 45
37 108 43
35 102 41
35 104 43
35 105 43
34 99 40
35 103 42
35 104 42
37 107 44
33 97 40
36 104 42
33 96 39
33 98 40
34 100 40
32 94 39
47 104 60
102 132 134
120 141 158
131 150 172
129 148 170
136 155 179
132 149 172
126 144 167
105 116 135
86 88 106
64 53 71
63 48 66
63 48 66
62 48 66
63 49 67
62 48 66
62 48 66
63 49 67
63 48 66
64 50 68
64 50 68
62 48 66
63 50 68
64 49 68
62 49 67
63 49 67
63 50 68
62 48 67
63 49 68
61 48 66
62 49 67
64 50 68
63 49 68
64 54 71
78 76 94
98 104 124
118 133 155
131 148 172
130 148 172
130 147 170
130 149 174
131 150 173
132 149 173
132 149 174
130 149 173
131 149 173
126 145 167
131 149 173
128 146 170
126 144 166
130 149 173
128 147 169
132 151 173
127 147 167
129 148 171
128 147 168
126 144 167
130 148 172
132 151 174
132 150 173
130 149 171
128 147 169
133 152 176
131 150 174
132 150 172
133 149 173
131 150 173
134 152 177
132 152 174
128 147 171
133 151 174
130 147 170
133 151 175
132 150 174
130 148 170
130 147 171
132 151 174
132 151 173
134 153 177
133 152 176
134 152 175
132 150 173
134 152 176
131 150 173
134 152 175
132 150 173
132 150 174
129 147 171
131 149 171
129 148 172
131 148 172
133 151 173
135 154 177
130 147 167
132 151 176
132 149 173
131 149 173
130 147 170
130 149 171
131 149 171
132 136 166
139 100 152
128 45 123
136 34 125
137 35 127
138 35 129
140 36 131
136 34 124
139 35 127
139 35 128
142 36 130
139 35 128
133 34 123
139 34 125
133 33 122
136 34 125
137 34 126
138 35 126
140 35 128
143 34 125
139 34 125
143 36 132
133 33 119
136 34 124
134 34 122
138 34 126
136 35 127
130 33 121
128 36 119
130 85 137
128 130 160
124 141 164
131 148 172
128 144 165
126 143 165
131 149 173
128 146 169
129 147 172
129 146 169
126 142 164
124 141 161
131 149 173
126 143 166
130 146 170
129 145 168
127 143 166
130 147 170
129 147 170
127 145 169
128 147 171
124 142 164
127 145 168
123 141 161
121 136 158
128 146 169
123 139 162
123 140 162
121 138 161
120 136 158
116 132 154
118 135 157
119 135 157
122 138 160
114 131 152
106 121 140
108 123 142
108 121 140
102 114 131
98 110 127
100 112 129
97 108 124
98 108 126
86 94 108
91 100 115
72 80 91
76 85 96
63 68 78
53 59 68
56 60 67
48 53 59
45 49 51
55 61 61
71 80 79
74 84 81
78 89 86
82 93 90
86 98 95
84 95 91
85 96 92
85 97 92
85 97 93
83 95 91
85 96 92
85 97 94
84 96 92
85 96 92
89 101 102
91 104 107
99 113 122
103 117 130
113 130 147
115 131 151
120 138 159
124 142 164
124 142 164
126 145 168
124 142 165
126 145 168
127 145 168
126 145 167
124 142 162
124 143 164
128 147 169
131 149 172
131 149 174
124 143 163
129 147 169
127 145 167
128 147 169
128 148 170
122 142 162
128 147 168
127 145 165
122 141 162
127 145 166
126 145 167
128 147 170
124 142 163
129 148 170
126 145 166
125 144 165
119 142 158
74 109 98
38 97 46
34 101 41
35 101 41
35 103 42
35 101 41
34 101 40
35 103 42
35 104 42
34 101 41
36 106 43
36 105 43
35 103 42
34 101 41
34 100 41
31 93 38
33 96 39
34 100 41
34 100 41
32 95 39
34 100 41
35 102 41
35 101 41
39 96 49
84 119 110
109 136 144
127 147 168
128 146 168
132 149 172
128 148 171
128 146 168
110 122 142
87 90 108
67 61 77
60 47 64
63 49 67
62 48 66
61 48 65
64 50 68
61 48 66
63 49 67
62 48 66
62 48 66
62 48 66
63 49 67
64 49 68
62 48 66
63 49 68
61 48 66
62 48 67
62 48 67
63 49 67
63 49 67
62 48 67
64 50 68
63 49 68
62 48 67
60 47 65
67 57 75
88 89 107
110 121 140
126 143 166
131 149 174
131 149 172
133 151 175
131 149 172
132 150 174
129 147 172
130 148 172
131 150 174
127 146 170
130 148 171
125 145 167
129 149 172
128 146 168
126 145 168
122 140 163
130 148 171
129 147 170
130 149 172
128 148 170
129 148 170
127 147 168
131 150 173
128 147 169
131 149 172
129 146 170
127 146 169
132 151 175
131 149 171
130 148 171
135 152 178
129 147 172
131 148 170
129 148 170
133 150 173
134 152 177
130 148 170
132 151 175
130 149 172
132 148 172
132 151 173
132 150 174
133 151 174
129 147 168
136 154 178
132 151 175
134 149 175
133 153 176
135 153 177
133 152 175
131 150 173
134 152 177
135 153 178
133 151 175
134 152 176
133 151 174
132 148 172
131 148 172
132 150 172
135 154 178
133 151 175
131 149 174
130 147 172
130 145 168
136 116 156
132 60 130
133 34 124
126 33 119
127 32 118
133 33 123
129 33 120
133 33 120
135 34 123
137 34 125
131 32 120
137 34 125
131 33 123
138 33 122
139 33 121
136 33 123
137 33 121
142 33 120
146 33 120
148 33 122
145 33 121
147 32 119
135 30 112
132 32 116
139 33 122
132 33 119
133 33 121
129 51 125
125 93 137
127 137 163
126 144 167
129 146 168
130 147 170
127 145 169
131 149 172
127 144 166
127 145 166
129 147 170
131 147 170
134 152 177
125 140 162
130 147 171
125 142 164
129 145 170
126 144 166
128 145 169
126 141 165
127 144 166
128 144 167
126 143 167
128 145 168
123 139 162
127 144 166
121 136 159
120 136 158
128 146 169
120 137 159
125 141 164
125 142 165
115 129 150
113 128 150
112 127 148
119 134 155
107 121 140
113 127 148
106 119 138
105 119 138
110 122 142
104 113 133
100 112 129
91 101 116
99 109 126
78 86 99
90 99 113
74 80 91
63 68 77
68 77 85
57 64 70
63 69 75
68 74 75
73 82 80
76 86 83
81 90 86
84 95 91
85 97 93
84 94 90
84 96 91
84 96 92
83 95 91
85 97 92
83 95 91
85 96 91
84 96 92
83 96 91
85 97 92
85 96 92
85 97 94
92 104 106
92 105 109
103 117 130
111 127 142
119 137 156
123 141 163
125 143 165
121 139 160
121 138 160
124 142 164
123 141 162
126 145 167
126 143 165
125 143 165
125 143 166
127 146 168
129 147 171
131 149 173
127 144 166
124 143 165
127 145 168
123 142 162
125 144 164
126 144 166
122 141 161
125 144 164
126 146 166
122 141 160
124 142 163
126 144 167
129 148 170
125 144 164
126 144 165
116 134 152
102 127 134
67 112 87
44 107 53
33 98 39
34 100 41
33 97 39
35 102 41
35 103 42
33 98 40
33 96 39
33 97 39
32 96 39
35 104 42
34 100 41
33 99 40
32 96 39
33 99 40
34 100 40
33 96 39
30 88 36
32 97 39
32 94 38
35 97 43
65 109 85
96 125 127
121 141 159
130 149 171
126 145 167
130 149 170
128 147 170
122 137 158
102 112 131
75 72 89
60 47 64
61 47 64
60 46 63
61 47 64
62 48 65
60 47 64
62 48 67
62 48 66
63 49 67
62 48 66
62 48 66
60 47 65
63 49 67
62 48 67
64 50 68
63 49 67
63 49 68
63 48 67
62 48 67
62 48 66
63 49 68
63 48 66
61 48 67
63 49 67
60 47 65
62 48 65
67 60 78
95 102 122
115 127 149
126 141 163
131 148 172
129 147 170
130 146 168
132 149 174
131 149 172
126 145 167
129 146 170
127 144 167
133 151 174
121 140 164
126 145 167
124 143 163
126 145 167
126 145 167
127 147 169
131 150 171
125 145 165
128 147 170
131 150 174
129 149 171
126 144 166
130 149 174
129 148 172
129 148 170
130 148 172
128 147 169
133 152 176
129 147 168
131 148 174
133 153 177
131 148 172
128 147 171
132 150 174
133 151 174
133 152 175
134 153 176
131 148 171
134 152 176
129 147 171
131 149 173
130 150 172
132 149 173
131 147 170
131 149 171
135 152 176
131 150 174
134 152 176
130 147 172
133 152 175
134 154 176
130 148 171
132 150 174
130 145 169
131 148 171
132 147 171
131 150 173
133 151 174
128 145 167
132 150 173
132 151 175
125 143 167
132 144 170
128 118 152
127 82 136
129 33 122
120 31 117
133 34 123
129 33 120
129 33 122
131 32 119
131 32 120
134 33 123
135 34 125
142 34 125
135 33 120
140 32 117
148 33 124
146 30 113
151 30 114
158 31 116
155 31 115
155 30 111
158 31 115
153 29 110
147 29 109
146 30 111
140 30 110
140 33 120
138 30 113
132 63 127
130 116 151
129 140 167
128 142 165
126 143 166
130 148 170
127 141 165
131 149 172
129 145 168
128 146 169
128 143 167
129 147 170
134 152 175
128 145 169
127 144 167
126 143 166
125 142 164
128 146 170
128 146 169
126 140 164
129 148 171
124 140 163
116 131 153
125 140 162
121 136 160
121 137 159
123 139 162
123 140 162
122 139 161
120 137 159
122 137 160
120 134 156
126 143 166
120 136 158
123 139 160
121 136 158
113 128 149
113 128 148
115 130 150
110 125 144
111 125 144
99 111 129
95 106 122
94 106 121
90 102 115
82 91 105
88 98 113
75 83 96
76 85 96
73 81 91
80 89 97
72 80 82
75 84 83
82 92 88
82 92 89
82 93 89
84 96 91
82 94 89
84 96 91
85 96 91
83 95 90
83 95 91
84 95 91
84 96 92
83 95 90
83 94 89
84 95 91
83 95 91
82 93 89
82 94 89
83 94 90
84 95 92
95 108 112
96 109 117
111 127 144
117 133 153
122 139 159
124 142 164
125 144 167
121 139 161
115 132 152
126 144 167
125 143 165
122 141 162
127 145 167
127 145 169
127 145 167
129 147 170
125 144 166
123 142 164
126 146 168
123 141 162
127 146 169
126 145 167
122 140 161
129 148 170
127 147 168
124 143 164
126 145 165
121 139 160
120 140 159
122 142 162
122 140 161
117 136 153
115 136 153
93 122 123
60 102 77
32 95 38
35 102 41
33 96 39
32 96 38
33 99 40
34 102 41
33 95 38
33 98 40
32 96 39
31 91 37
32 96 39
33 97 39
30 88 36
32 95 39
31 93 38
35 102 41
30 88 36
33 98 40
37 95 45
61 108 79
93 123 122
113 137 148
120 140 158
124 142 163
124 143 164
127 146 167
124 142 164
114 128 148
89 92 110
67 60 76
60 46 64
60 46 63
60 46 63
61 47 64
61 47 65
60 47 64
62 48 66
62 48 65
62 48 65
61 47 65
61 47 65
62 48 66
62 48 66
61 47 65
60 46 64
61 48 65
60 47 63
64 50 68
62 48 66
63 48 67
61 47 65
62 47 66
60 47 64
61 47 65
60 47 64
61 47 65
63 48 67
84 85 103
107 118 137
124 141 163
131 149 173
131 148 173
130 148 172
130 148 173
132 150 174
129 146 170
131 148 171
132 149 172
131 150 173
116 136 162
126 144 164
126 145 168
125 143 165
124 143 165
125 144 165
124 142 165
131 151 175
128 148 170
129 148 171
126 144 167
133 150 174
129 147 170
133 151 175
128 147 169
130 149 172
132 151 174
129 147 170
130 149 172
129 147 169
131 150 174
130 149 173
134 153 177
132 150 174
131 149 171
130 147 170
133 150 175
131 149 173
130 148 172
133 151 174
130 149 173
135 151 177
132 150 174
132 150 173
131 149 172
131 148 172
131 149 171
131 149 172
131 149 172
132 149 172
133 149 173
131 149 173
131 148 172
129 146 170
127 143 166
131 149 173
131 149 172
131 146 171
133 148 174
129 145 168
133 152 176
132 149 173
129 144 169
128 136 164
125 104 144
128 52 124
119 31 113
127 32 118
126 31 114
136 34 125
124 30 112
128 32 118
136 34 125
139 32 118
148 32 117
145 30 112
154 29 110
157 29 109
162 29 110
159 28 106
163 28 107
163 29 109
162 28 107
163 29 109
163 29 109
161 29 110
161 30 113
156 29 108
145 30 111
145 36 111
137 80 126
136 117 150
127 137 161
131 147 171
129 146 169
128 144 168
126 141 166
126 143 166
126 143 166
126 144 168
131 149 172
127 143 166
129 145 167
130 148 172
127 143 166
130 147 171
128 144 167
129 146 170
125 141 163
125 142 164
130 147 170
123 139 161
126 143 165
123 140 163
126 143 167
123 140 161
126 140 164
126 144 167
119 135 157
123 140 162
123 141 164
124 141 164
122 138 160
118 135 155
117 134 156
119 132 154
117 130 151
114 129 150
108 120 139
115 130 152
116 129 151
111 126 144
108 122 142
104 117 135
111 125 143
99 112 129
101 114 131
101 114 130
92 101 115
86 96 108
93 104 113
82 93 94
79 91 87
84 95 91
81 91 87
84 95 91
82 92 88
82 94 90
83 95 90
83 94 89
81 92 88
83 95 91
82 94 89
83 94 90
83 95 90
83 95 91
83 95 91
83 94 90
84 95 90
84 95 91
84 95 90
82 93 89
86 97 95
96 109 115
100 115 124
115 132 148
124 141 162
123 139 161
126 143 166
123 140 161
124 142 164
130 148 172
126 144 165
123 141 164
123 141 162
124 143 164
125 144 165
128 146 169
123 142 164
126 144 167
123 141 162
125 144 165
127 145 166
123 142 163
119 137 157
124 143 162
123 141 162
118 138 156
125 144 164
123 143 163
117 137 155
120 138 157
124 142 162
117 136 154
113 131 148
110 132 145
89 116 118
50 100 63
38 93 47
31 91 37
29 87 35
32 95 38
32 94 38
31 94 38
33 96 39
32 95 39
31 94 38
32 94 38
32 96 39
31 93 37
31 93 37
30 90 36
29 86 35
30 90 36
38 100 47
61 103 78
98 125 129
116 136 151
121 140 160
118 137 155
119 140 157
125 143 165
125 144 166
123 140 161
99 109 127
77 77 94
59 47 63
59 45 62
60 46 63
59 46 63
61 47 64
60 46 63
59 46 63
60 47 64
59 46 63
59 47 63
61 47 65
62 47 65
61 47 65
63 48 66
63 48 66
62 47 65
62 48 66
62 47 65
60 47 64
60 47 63
60 47 65
60 47 64
61 47 65
62 47 65
58 45 63
60 47 64
62 48 66
59 46 64
67 59 76
101 109 128
117 130 152
127 143 167
131 148 171
127 143 166
129 148 171
130 149 173
131 148 172
131 149 174
129 148 172
131 149 172
112 133 162
122 143 165
128 147 169
129 147 170
126 144 167
131 150 174
126 146 168
126 145 167
129 149 172
127 147 167
129 149 173
130 148 171
126 145 167
131 151 173
133 151 176
132 151 175
129 148 170
134 153 177
133 151 175
131 149 172
133 151 176
132 149 172
134 152 177
135 152 176
129 146 170
132 151 175
135 151 175
131 149 173
131 147 171
134 152 176
134 152 175
134 151 176
132 150 174
130 147 172
132 150 173
133 152 174
133 151 176
136 154 179
130 148 171
132 150 173
128 147 170
130 145 169
135 151 177
128 146 169
132 149 174
132 148 172
129 147 170
132 150 173
133 150 172
131 148 173
132 149 174
129 145 168
128 145 170
130 145 172
127 114 149
116 79 125
126 36 117
127 31 113
128 32 118
128 33 119
130 32 119
133 31 115
131 28 105
153 31 116
153 29 109
156 28 106
161 28 107
164 28 105
163 28 106
166 28 107
166 28 106
170 28 107
167 28 106
166 28 106
167 28 106
167 28 107
163 27 104
166 28 107
158 27 104
154 31 105
141 75 122
144 106 141
139 123 152
135 133 160
129 141 166
130 147 172
127 145 169
128 143 166
130 148 172
124 139 162
127 141 165
128 144 167
129 146 170
128 145 169
125 143 166
126 142 165
126 141 164
130 145 168
127 143 166
126 142 165
132 149 173
126 140 164
123 138 161
126 142 167
127 141 164
126 143 167
126 142 165
127 144 168
126 141 165
128 146 169
125 141 164
124 141 165
120 136 158
127 143 166
123 140 162
120 136 158
120 135 157
112 126 147
115 131 151
116 133 154
115 129 150
115 132 154
110 124 143
114 129 149
104 118 137
107 121 142
98 110 128
100 112 128
108 121 138
95 107 117
90 102 109
86 97 94
85 95 90
83 94 89
83 93 89
84 95 90
81 91 86
84 95 90
82 93 89
81 93 89
81 93 89
85 97 92
82 93 89
83 94 90
84 96 91
83 94 90
82 93 88
83 95 90
81 93 88
84 96 91
82 93 89
84 95 90
82 93 88
85 96 95
91 103 106
103 116 129
112 127 144
119 137 157
125 143 165
125 141 162
124 142 163
131 149 172
126 143 165
121 140 162
125 143 164
125 143 165
126 145 167
124 143 164
128 146 169
122 141 161
120 140 159
122 143 162
123 141 163
121 141 161
126 144 166
124 141 162
118 138 157
122 142 161
121 140 160
118 137 156
125 143 163
115 132 150
110 129 146
118 136 153
109 128 145
108 129 142
103 123 133
93 119 122
59 101 76
49 93 63
35 90 43
29 86 34
32 96 39
30 90 36
30 91 37
28 85 34
28 85 34
30 90 36
30 89 36
29 86 35
28 84 34
31 93 37
30 89 36
38 95 48
61 97 80
95 122 124
117 137 153
110 130 145
120 139 157
121 139 159
121 140 159
117 135 155
120 137 156
116 133 152
94 103 118
70 68 83
58 45 61
60 46 63
60 46 63
59 46 62
58 45 61
61 47 64
60 46 63
61 47 64
61 47 64
60 47 64
60 47 63
61 47 64
59 46 63
60 46 65
60 46 64
62 48 65
61 47 65
61 47 65
61 47 64
58 45 63
60 47 63
60 46 64
59 46 63
57 44 62
60 46 64
59 45 63
55 43 60
55 42 59
61 50 66
96 102 122
112 124 145
126 142 167
129 145 169
132 151 174
130 148 172
129 147 171
131 147 172
132 150 175
134 152 176
133 151 176
96 119 155
114 132 155
127 147 169
126 146 168
124 143 162
124 144 164
128 146 170
130 148 171
129 148 170
126 146 167
128 147 170
132 151 174
128 148 171
129 149 172
132 150 174
129 148 171
131 149 171
130 150 173
131 150 173
132 151 175
130 149 172
131 148 171
133 151 174
131 149 172
129 149 172
131 149 171
132 150 174
132 152 176
130 149 172
127 143 165
134 152 176
132 150 175
127 147 168
129 145 169
129 146 169
132 148 173
130 145 169
131 147 170
130 148 172
134 151 176
130 148 174
132 148 173
132 150 174
130 148 172
130 145 170
132 147 172
131 147 171
129 145 167
127 141 165
130 146 169
133 150 174
131 147 172
129 146 170
128 143 167
131 135 164
127 100 143
122 61 121
120 29 109
122 31 113
130 33 120
131 30 111
133 29 107
148 29 109
157 29 107
160 28 106
167 28 106
166 28 106
164 28 105
167 28 107
168 28 107
168 28 107
165 28 105
166 28 107
164 28 106
165 28 105
167 28 107
166 28 106
164 28 105
167 28 106
166 32 107
160 61 118
153 84 127
147 88 127
140 117 148
131 132 158
133 149 174
128 144 168
126 139 164
130 145 169
126 140 164
125 141 165
127 143 166
124 141 165
128 140 165
131 147 172
123 135 159
128 144 170
130 145 168
129 144 167
127 143 166
128 145 168
131 148 172
128 146 170
125 142 163
125 142 166
131 147 171
131 149 173
127 144 167
126 143 166
124 139 162
126 144 167
119 135 155
127 142 166
123 139 163
116 133 155
128 143 167
121 138 159
120 137 159
119 134 155
122 137 160
121 139 159
115 130 152
119 135 158
120 136 156
115 131 151
111 125 145
121 137 159
108 123 140
104 118 131
87 97 102
83 93 92
80 90 86
80 89 85
82 91 87
82 93 89
79 89 86
81 91 88
84 94 90
82 92 88
80 92 88
83 94 90
81 92 88
82 93 88
83 94 89
82 93 88
82 93 89
84 95 90
83 95 90
81 92 88
83 95 90
82 93 89
82 93 89
81 93 88
81 91 86
81 92 91
94 106 111
105 119 131
114 130 148
122 140 161
123 140 161
128 147 171
126 145 166
128 147 169
125 144 166
127 146 167
126 145 167
127 146 169
123 143 164
128 148 169
120 139 157
124 143 165
121 139 159
123 140 162
120 139 157
127 146 168
116 135 154
118 137 154
119 138 157
118 136 154
121 140 158
111 130 147
110 129 145
114 134 151
114 133 149
118 137 155
105 124 136
102 122 134
91 111 119
92 111 118
80 108 105
52 90 66
37 80 46
27 82 33
33 96 39
27 81 32
27 82 33
32 94 37
28 84 33
27 82 33
29 86 35
29 80 36
32 81 40
47 90 58
74 103 95
83 112 108
101 121 134
109 128 142
112 130 146
109 129 144
116 134 151
115 133 151
118 136 155
116 135 154
112 128 146
92 100 115
62 54 70
59 45 62
58 45 62
57 45 61
57 44 60
61 47 64
59 46 62
60 46 63
59 46 63
60 46 63
58 45 62
58 45 62
57 45 61
60 46 64
59 46 63
58 45 62
59 46 63
57 44 61
59 45 63
61 47 65
60 47 64
57 44 61
58 45 62
58 45 62
60 46 64
59 46 63
56 44 62
59 46 63
59 45 62
57 46 62
79 81 97
108 119 139
127 140 163
133 151 175
131 147 172
131 149 173
132 149 173
131 146 169
129 146 170
131 149 173
127 145 167
83 110 149
112 135 162
124 144 164
124 143 165
122 142 163
129 148 170
130 148 171
124 143 164
128 146 169
129 147 170
128 147 169
133 152 175
128 147 169
127 145 168
129 148 171
128 147 168
131 148 171
131 149 171
131 149 172
132 150 173
132 150 175
131 148 172
131 151 175
130 148 171
132 149 173
132 150 175
132 151 175
130 148 170
134 152 176
133 151 174
132 151 176
131 147 171
132 151 174
131 147 172
131 148 172
134 152 176
131 148 172
127 144 167
130 146 169
130 146 169
131 150 171
134 149 174
130 146 171
132 150 174
132 149 173
129 147 170
128 143 168
133 150 175
132 148 173
128 142 166
129 143 167
130 146 170
128 141 165
129 146 169
128 141 166
127 132 160
118 84 129
111 53 113
126 35 116
122 28 103
140 28 106
152 29 110
158 28 106
164 27 104
166 28 105
164 27 103
167 28 105
167 28 106
165 28 106
163 27 105
166 28 106
166 28 106
166 28 106
166 28 106
164 27 105
168 28 106
166 28 105
162 27 103
165 28 106
162 27 103
163 27 103
162 47 109
156 63 114
146 82 124
138 113 143
134 125 153
128 142 166
128 143 168
124 140 163
130 146 170
128 143 168
125 141 163
128 142 166
127 143 167
130 146 169
125 142 164
131 147 172
131 147 170
128 143 167
126 142 165
123 138 162
129 147 171
125 141 164
130 146 170
129 147 170
123 139 161
128 145 170
129 147 171
130 148 172
128 145 169
120 137 161
127 145 169
128 146 170
124 140 162
124 140 164
122 138 160
121 137 159
123 139 161
123 139 161
123 140 161
121 139 161
128 145 169
124 140 163
119 134 156
121 138 159
116 131 153
118 134 155
108 123 137
96 108 118
86 95 96
80 89 85
79 89 85
78 89 86
79 88 85
80 89 85
81 91 86
76 86 83
81 92 88
81 92 87
83 93 89
83 94 89
82 93 88
80 91 86
82 92 87
81 92 87
84 95 91
81 92 87
79 91 86
81 92 87
83 94 90
82 93 88
80 92 88
78 89 85
80 91 86
80 90 86
86 97 97
97 112 119
108 123 136
122 139 160
126 143 164
127 144 166
130 149 172
131 149 172
124 143 164
130 148 172
126 146 167
125 143 163
128 147 170
121 140 159
122 139 159
124 143 162
124 143 162
122 140 158
120 139 159
117 135 154
121 141 161
117 137 156
119 137 155
109 129 143
115 132 149
114 133 151
107 126 140
116 134 150
107 125 139
98 117 129
95 114 123
102 121 133
95 112 124
89 107 114
87 106 110
73 95 93
52 80 64
51 84 62
35 77 43
29 74 35
29 78 35
28 76 34
27 74 34
37 81 45
43 79 53
51 88 63
55 87 70
78 99 97
88 107 114
96 113 123
108 128 140
111 128 145
110 127 142
114 134 151
107 127 142
118 137 154
112 133 147
109 128 143
100 115 130
88 93 109
59 50 65
55 42 58
56 43 59
57 44 60
56 43 59
55 43 59
58 45 62
60 46 64
59 46 63
58 45 62
58 45 62
57 45 61
60 46 64
59 45 62
60 46 63
61 47 65
57 44 61
60 46 64
58 44 62
59 45 63
59 45 63
58 44 61
55 42 60
58 45 63
58 44 61
57 44 61
57 44 61
55 42 60
58 45 62
58 45 62
65 57 75
90 98 116
119 133 155
129 146 170
133 149 173
130 147 171
127 145 168
130 146 171
129 147 171
125 144 167
132 149 173
91 116 152
105 127 154
127 146 167
129 147 171
128 146 170
130 150 172
127 147 168
130 149 173
128 146 168
128 148 171
130 149 172
128 147 169
130 148 172
132 150 175
127 145 168
125 145 167
130 148 171
131 149 173
132 151 174
132 150 173
133 150 175
128 145 169
133 151 175
134 153 177
129 146 169
134 153 176
129 147 170
133 151 175
132 151 174
129 146 171
128 146 169
131 149 173
130 147 171
133 150 174
132 150 174
131 148 173
129 146 169
132 149 174
131 149 173
133 150 174
128 144 168
128 145 167
132 150 175
131 148 172
131 146 171
126 143 166
127 140 165
128 141 166
125 135 160
134 150 176
129 141 165
129 142 167
127 142 166
131 147 171
124 137 161
125 138 162
126 117 151
120 85 130
131 63 122
131 28 104
140 28 107
159 28 105
163 27 104
167 28 104
162 27 104
167 28 106
167 28 105
163 27 104
168 28 105
164 27 104
168 28 105
167 28 105
162 27 103
167 28 105
163 27 103
164 27 105
166 28 106
166 28 106
159 27 103
160 27 101
161 27 103
162 27 102
157 41 104
155 55 111
148 89 130
134 113 143
131 128 153
123 137 158
124 134 159
125 139 162
126 138 163
127 141 165
132 146 170
124 141 164
126 139 164
131 146 172
127 142 164
133 149 173
132 148 172
126 137 163
131 147 172
130 146 170
128 143 168
125 142 165
131 147 171
127 143 167
127 144 168
128 143 167
127 144 168
132 150 174
130 147 171
128 145 169
126 144 166
130 149 173
130 146 170
129 146 169
124 139 161
123 141 163
121 138 160
124 140 163
119 135 157
126 142 165
129 145 169
124 141 164
122 139 159
124 140 163
113 128 146
102 115 129
87 97 102
80 88 86
79 88 84
80 89 86
81 90 85
79 88 85
80 89 85
77 87 83
79 89 84
83 93 89
80 90 87
81 91 87
81 92 87
80 90 85
80 91 87
82 93 88
80 90 86
81 92 87
79 90 85
80 91 87
79 90 86
80 90 85
79 91 86
80 91 85
82 92 87
80 90 86
79 89 84
80 91 86
88 100 104
111 125 140
117 132 149
120 138 158
128 147 169
128 146 168
127 144 166
128 147 169
126 146 168
122 140 161
121 140 160
124 142 162
124 144 164
126 145 166
123 142 162
123 143 164
122 140 161
126 144 165
121 141 160
122 141 161
113 132 147
116 134 150
117 134 152
109 127 142
109 127 142
114 132 147
106 124 138
103 121 135
105 122 134
93 113 121
92 109 118
86 103 111
86 103 110
84 102 107
76 92 95
64 81 81
64 84 78
56 76 68
44 70 53
56 78 68
37 62 43
44 70 54
45 71 56
51 70 63
71 89 90
75 93 94
87 104 112
93 113 119
106 125 137
92 109 117
99 117 127
93 113 120
112 129 144
113 130 146
120 137 155
112 130 146
119 136 156
97 112 125
82 87 101
58 49 65
56 43 59
60 46 62
55 42 58
57 44 61
56 43 59
60 46 63
58 45 62
59 46 62
59 45 62
58 45 61
58 45 61
59 45 61
57 44 61
60 46 63
55 42 58
58 45 61
58 45 61
57 43 61
60 46 63
56 44 60
58 45 61
58 44 61
55 43 60
53 40 57
57 44 61
55 42 59
55 43 60
57 44 61
54 42 58
68 59 75
102 110 130
114 125 148
128 145 168
127 143 168
126 144 167
128 144 168
127 142 166
130 147 172
127 144 168
132 147 172
66 100 145
99 120 150
126 144 167
127 147 170
130 150 173
127 147 169
131 150 173
129 148 172
128 146 168
126 144 165
131 149 171
127 146 168
131 149 173
127 146 166
129 147 170
130 148 172
129 148 172
132 151 174
131 150 173
128 146 168
129 147 170
133 151 177
128 146 169
130 146 171
133 151 176
131 149 172
133 151 175
132 147 172
129 147 169
128 144 168
129 147 172
133 151 174
132 150 174
128 146 168
131 149 172
131 146 169
133 149 174
132 148 172
129 145 169
131 146 170
129 145 168
130 146 171
128 144 167
130 148 173
132 148 172
130 144 169
130 144 169
130 142 168
128 144 167
123 135 158
131 145 170
127 140 165
124 135 159
124 136 160
122 134 158
122 132 157
120 127 152
125 104 136
135 69 119
141 30 98
150 26 99
161 27 101
167 28 105
158 26 100
165 27 104
167 28 106
165 27 104
165 27 105
159 27 101
165 27 104
166 28 105
165 27 104
162 27 103
162 27 103
165 27 105
158 26 101
158 26 101
163 27 104
164 27 103
157 26 101
155 26 100
160 26 99
163 27 102
162 35 104
146 75 119
150 84 126
137 111 142
126 131 155
123 135 159
120 134 157
127 140 164
126 141 165
127 143 167
127 143 167
127 141 165
128 143 166
124 138 161
129 144 167
129 145 170
129 147 171
125 140 164
125 142 166
129 145 169
129 146 169
127 144 168
127 142 165
132 149 173
125 141 165
131 149 173
131 148 171
126 143 166
129 146 169
127 144 167
130 147 170
132 148 172
127 142 166
129 147 171
127 142 165
129 147 171
124 139 163
126 143 166
124 141 165
131 147 169
126 142 164
130 146 170
126 144 166
118 134 153
100 112 123
86 95 98
78 87 84
80 89 85
75 84 80
79 88 85
78 88 84
76 86 83
79 89 85
79 88 84
79 88 85
79 90 86
78 88 85
80 90 86
80 91 87
80 91 86
80 90 85
81 92 88
77 87 84
82 93 89
80 91 87
82 93 88
80 91 86
80 91 87
77 88 84
82 92 87
79 90 85
79 89 84
78 88 84
80 90 87
92 104 110
108 123 139
121 140 160
123 140 162
127 145 166
130 147 171
120 139 160
128 148 170
125 144 165
126 147 168
126 144 166
125 144 165
127 145 167
123 142 162
121 139 159
126 145 165
120 140 159
113 133 148
116 136 154
117 137 154
109 129 143
120 139 157
113 131 148
109 128 145
110 128 143
110 128 143
99 119 129
101 119 132
98 117 126
97 116 126
85 102 108
84 101 106
87 104 111
71 88 88
77 93 96
71 88 88
67 79 82
65 75 79
70 83 85
57 70 69
63 76 77
55 69 68
61 76 77
66 82 82
70 85 88
80 97 102
90 108 114
94 110 118
90 108 115
103 119 131
102 119 131
104 125 136
110 126 142
110 129 145
111 130 145
116 135 153
102 116 132
80 83 97
58 46 61
53 41 56
55 42 58
56 43 59
56 43 59
52 40 55
57 44 60
60 47 63
56 43 58
57 44 60
58 45 61
60 46 63
58 45 61
57 44 60
55 43 59
59 45 63
60 46 63
57 44 61
58 45 62
59 45 62
60 46 63
58 44 62
57 44 62
57 44 60
55 42 58
54 41 59
53 40 57
54 41 59
55 42 58
53 41 58
59 51 67
93 98 117
116 129 152
132 148 173
130 148 172
126 143 166
128 146 169
127 142 166
128 145 169
130 145 169
127 145 168
80 107 146
96 119 152
128 146 171
130 148 171
129 148 171
129 148 171
133 152 175
128 148 169
131 149 173
128 146 170
126 145 167
128 145 169
130 149 172
128 146 170
133 153 176
133 151 173
128 146 170
128 147 170
132 149 173
130 149 174
133 150 175
130 148 171
131 149 174
132 150 175
131 149 173
133 151 176
130 148 173
130 147 170
131 150 175
134 151 176
133 150 174
132 148 171
131 149 173
130 146 171
129 146 171
127 143 166
129 147 171
134 148 173
130 145 170
129 143 168
128 143 167
129 144 169
127 141 166
126 141 166
132 149 173
124 138 161
129 143 168
126 138 163
126 139 163
123 136 160
126 140 166
122 134 157
124 138 162
123 132 156
125 135 161
118 127 151
130 129 156
127 106 135
141 84 125
149 54 106
160 27 101
159 27 101
163 27 103
163 27 102
163 27 103
164 27 104
163 27 103
164 27 104
160 26 101
167 28 106
166 28 105
164 27 104
166 28 105
162 27 103
159 27 102
164 27 104
163 27 103
161 27 102
161 27 101
159 27 102
166 27 104
158 26 100
160 27 100
155 26 99
156 37 102
150 71 117
138 95 131
132 113 144
118 130 153
127 141 167
121 135 158
125 137 161
128 143 167
124 135 161
128 143 166
130 146 171
130 145 169
129 144 169
129 146 169
128 144 168
123 139 161
130 146 170
129 144 169
132 148 173
126 141 164
130 148 171
134 150 173
130 147 170
129 147 170
130 146 170
125 142 166
126 141 163
129 146 170
126 141 165
130 145 170
133 151 176
130 147 169
133 151 176
128 146 171
130 147 171
128 146 168
127 144 168
129 146 170
129 147 171
128 145 167
125 143 164
115 130 149
95 106 114
79 87 85
78 86 83
80 89 85
76 84 81
77 86 82
76 85 82
74 83 79
77 87 83
79 89 85
76 86 82
78 89 85
80 91 87
78 89 86
79 90 86
79 89 86
80 90 86
81 92 88
79 90 85
79 90 85
79 90 86
78 89 84
79 90 85
75 86 81
81 92 87
80 90 86
80 90 86
75 86 82
77 88 83
80 91 89
86 96 101
109 124 138
121 139 159
125 144 166
126 145 167
129 147 170
122 141 162
122 142 162
126 144 166
122 142 163
128 147 169
119 138 157
118 136 155
121 141 160
125 144 165
125 143 163
123 141 162
125 143 165
121 141 162
120 139 156
122 141 160
117 137 153
113 133 149
116 134 151
107 124 138
111 129 146
105 124 138
108 127 140
103 121 132
101 118 130
96 114 123
93 109 120
87 103 111
88 104 111
80 95 100
79 95 100
71 86 90
64 78 80
56 72 69
70 83 87
71 87 89
60 76 76
74 90 94
65 82 83
88 104 112
87 103 109
87 105 110
96 113 122
94 112 123
104 121 134
101 119 131
105 124 136
111 131 146
106 124 139
111 129 145
115 133 150
98 111 125
78 81 96
56 48 63
56 43 59
52 40 56
55 43 58
52 40 56
55 43 58
56 44 59
56 43 59
56 43 59
56 43 59
58 45 61
57 44 60
55 43 60
57 44 60
55 43 59
57 44 61
54 42 58
56 43 59
56 43 60
58 45 62
57 44 61
55 42 59
56 43 60
58 45 61
55 42 59
59 45 62
55 42 59
55 42 59
54 42 58
54 41 57
63 55 72
88 93 111
114 127 148
128 144 168
132 146 171
130 147 171
129 144 169
127 144 168
128 145 170
127 142 166
129 144 170
65 93 134
106 128 159
123 144 168
131 150 173
128 146 169
125 143 166
127 145 168
129 149 170
132 151 174
132 151 174
131 149 171
135 152 175
132 149 172
127 145 167
131 150 173
126 144 165
129 147 171
132 150 173
131 150 175
133 152 175
134 150 175
132 151 175
131 149 173
134 153 178
130 148 171
131 150 173
130 147 170
131 147 171
131 149 173
133 151 176
132 148 171
129 145 169
131 149 172
132 149 173
135 152 177
130 145 170
129 145 171
130 146 171
129 143 168
130 147 171
123 138 162
134 150 174
132 146 172
126 139 163
127 140 164
131 145 170
121 132 155
126 140 165
126 140 164
123 136 160
125 135 160
124 135 159
120 132 156
116 123 149
124 131 156
121 124 148
132 117 145
139 87 124
151 67 115
156 32 101
161 27 100
161 27 101
159 27 101
167 28 104
163 27 103
161 27 102
158 26 100
160 26 100
162 27 102
166 28 104
165 27 104
162 27 102
164 27 104
162 27 102
157 26 101
164 27 102
163 27 103
159 26 101
157 26 100
159 27 102
152 25 97
150 25 96
159 26 100
148 25 94
156 26 97
147 52 104
152 86 128
132 104 136
130 125 153
127 140 165
126 140 165
124 136 160
130 144 169
130 146 169
128 144 169
127 142 166
132 147 172
129 146 170
129 143 168
128 146 171
129 145 168
131 149 173
130 143 168
129 146 169
128 142 168
133 150 174
131 149 173
129 147 172
132 148 173
131 148 172
128 144 168
129 145 168
129 146 169
132 150 174
130 146 168
129 145 169
130 147 170
129 146 170
128 146 170
130 148 173
130 148 171
128 145 169
131 149 173
133 151 175
134 153 177
116 131 151
99 111 123
92 103 110
76 84 80
75 82 79
73 81 78
79 88 84
75 83 79
78 87 82
79 89 85
76 87 84
75 84 81
77 86 83
78 89 84
78 88 83
77 87 84
78 88 84
76 87 83
77 87 84
76 86 82
80 91 86
78 88 83
80 90 86
76 86 82
78 88 84
76 87 82
83 93 88
78 87 83
78 88 83
78 89 84
80 90 85
79 89 84
85 96 98
101 115 125
110 127 142
127 146 168
129 148 170
126 144 167
126 143 166
126 145 166
126 144 166
124 143 164
123 141 162
123 140 161
120 139 159
125 142 163
124 143 164
128 146 167
119 137 155
123 142 162
120 139 159
121 141 159
119 138 156
118 138 156
114 133 151
116 136 152
113 132 149
121 141 159
110 130 145
108 126 141
110 129 144
112 129 145
97 116 128
103 121 132
96 114 123
92 109 118
86 107 112
75 91 96
74 91 94
89 106 115
85 103 107
86 102 110
81 99 103
81 96 103
85 102 109
91 107 116
87 104 113
94 111 122
96 113 124
102 118 130
105 122 136
103 120 133
90 109 116
102 121 133
100 118 132
113 133 148
113 132 149
108 128 142
103 118 134
82 89 103
64 57 72
55 43 58
55 42 58
55 42 57
56 43 59
57 44 59
54 42 58
58 45 61
56 43 60
55 42 58
56 43 58
58 44 61
54 42 56
60 46 63
52 40 56
57 44 61
57 44 60
55 42 58
55 42 59
58 45 62
51 39 55
52 40 55
55 41 58
55 42 58
52 40 56
54 42 58
54 41 57
54 41 58
53 40 56
53 41 57
68 66 83
94 103 119
116 127 151
127 144 168
129 143 167
125 138 163
125 142 166
127 141 166
126 141 164
123 137 161
130 144 168
70 99 139
106 129 159
126 145 168
127 146 169
128 148 169
126 146 168
124 142 164
133 149 174
131 148 173
126 145 169
128 146 168
127 144 168
131 149 173
131 149 172
131 149 172
131 150 173
130 149 172
129 147 171
129 146 170
132 150 174
131 149 172
134 151 176
134 153 178
129 146 170
132 150 174
132 150 175
132 149 173
133 151 175
129 146 170
132 148 172
128 144 168
127 144 167
128 142 168
131 147 172
126 140 164
129 144 168
132 150 175
129 145 170
130 145 171
130 146 171
130 146 171
128 142 167
128 142 166
128 140 165
130 143 168
127 141 166
123 137 161
126 137 162
123 132 157
123 136 159
125 137 162
120 126 152
119 125 151
119 124 149
119 124 147
121 123 147
127 95 127
138 73 113
154 48 106
156 30 99
159 26 101
160 26 100
162 27 102
162 27 102
159 26 99
164 27 104
156 26 99
162 27 103
156 26 98
160 26 100
159 26 100
163 27 102
158 26 100
160 27 101
160 26 101
159 26 100
163 27 104
158 26 100
153 25 98
156 26 99
155 26 100
152 25 97
152 25 96
151 25 97
152 25 96
148 25 94
144 51 103
136 94 128
131 119 146
125 136 160
125 134 159
126 141 164
125 137 162
128 143 168
125 136 161
126 140 165
130 145 169
130 145 169
131 146 171
130 146 170
126 143 167
131 147 173
131 148 172
128 143 166
133 150 175
127 144 167
131 147 170
130 146 171
127 140 164
132 148 174
128 145 169
130 146 169
130 148 172
131 147 172
130 147 171
128 145 169
128 145 169
131 148 172
131 147 171
130 147 171
131 148 173
127 144 169
129 147 170
126 143 166
132 150 174
119 134 155
105 116 131
91 101 107
78 85 81
73 79 76
74 82 79
74 81 78
75 83 80
75 85 81
73 83 80
74 82 79
73 82 79
74 83 80
75 86 82
76 86 82
75 86 82
78 88 83
75 85 82
74 85 81
79 89 84
79 88 83
76 86 81
80 91 86
79 90 85
78 89 84
80 90 85
79 89 84
77 88 82
76 86 80
78 88 83
77 87 82
78 88 83
77 87 85
90 103 110
116 133 151
126 144 166
127 147 169
128 146 169
126 143 165
130 149 172
126 145 167
128 146 169
125 142 164
129 148 170
125 143 164
116 136 156
126 143 166
121 140 160
122 143 162
119 137 157
120 140 160
116 135 154
122 142 161
120 138 158
120 139 158
121 140 160
122 139 160
115 134 152
112 131 149
109 128 143
112 130 148
108 126 141
103 123 135
113 131 148
101 120 132
99 118 130
100 119 129
102 117 130
101 120 132
96 113 124
106 124 137
96 113 126
86 103 111
100 117 130
101 119 130
107 124 138
99 117 128
85 104 110
95 115 125
103 122 134
107 125 141
110 128 145
118 136 154
112 130 147
105 123 137
112 130 145
118 137 155
121 140 159
110 127 144
84 90 106
60 55 68
53 41 56
53 41 56
54 42 57
55 43 58
55 42 58
55 43 58
55 43 59
55 42 57
56 43 59
57 43 59
54 42 58
56 43 58
56 43 60
57 44 60
53 40 55
57 44 61
55 42 58
56 43 59
57 43 60
56 42 59
54 42 59
54 41 57
55 42 58
53 40 57
53 41 57
53 40 56
51 39 56
55 42 59
55 42 58
63 59 75
100 110 130
116 129 151
125 141 164
123 140 163
123 138 161
128 144 168
129 145 169
127 139 163
129 144 170
124 137 163
71 99 142
116 137 166
126 145 168
124 141 163
127 146 169
130 149 172
130 148 172
128 146 168
132 152 176
132 148 171
132 151 174
128 148 171
131 148 171
128 147 171
135 151 175
129 148 171
132 151 174
129 148 171
132 150 174
132 149 173
132 150 176
133 152 176
130 148 171
127 144 168
133 152 176
131 147 173
131 148 172
131 147 171
135 153 177
133 150 176
130 145 170
128 145 168
130 144 170
132 146 170
131 147 171
133 148 173
130 147 171
130 147 171
128 144 169
131 148 173
131 144 169
126 138 164
127 139 164
128 141 166
127 135 163
126 142 166
125 136 160
122 136 159
127 139 164
124 138 161
118 123 148
120 127 153
116 127 148
119 126 150
118 117 142
128 113 140
133 86 120
138 57 103
151 29 97
157 26 99
159 26 96
158 26 99
160 26 100
157 26 99
165 27 103
163 27 101
161 27 101
161 27 101
157 26 100
160 27 101
156 26 98
153 25 97
155 26 99
162 27 102
157 26 100
157 26 100
159 26 101
157 26 101
157 26 100
153 25 98
154 25 97
158 26 100
153 25 97
159 26 101
147 24 94
149 25 94
146 39 99
144 79 120
128 110 139
128 137 162
128 142 167
129 144 168
127 139 164
128 142 167
127 141 166
126 140 164
125 139 164
127 143 167
128 142 166
128 145 168
124 139 162
127 142 166
129 142 168
131 149 173
133 149 173
128 145 169
127 143 167
128 142 167
128 144 169
132 150 173
129 146 169
127 144 167
129 144 169
131 149 172
129 146 169
131 149 173
129 146 172
125 142 166
128 145 170
129 147 170
131 150 174
130 148 172
132 150 174
126 143 167
129 145 168
120 135 156
96 107 118
79 87 87
76 84 80
73 81 78
74 80 77
73 81 78
77 86 82
75 84 81
71 80 76
78 87 83
75 84 80
75 84 80
78 88 84
73 83 79
76 86 82
76 86 82
77 88 83
79 89 84
79 89 85
78 89 84
76 86 82
75 85 80
79 89 85
78 88 84
80 90 86
77 88 83
75 84 79
78 88 83
77 87 82
73 83 79
74 84 79
74 83 81
93 104 110
116 133 151
126 143 165
127 147 168
125 144 165
128 147 170
132 151 173
128 147 169
124 142 163
125 143 165
126 145 166
125 144 166
129 147 169
131 148 171
127 146 168
128 146 167
124 143 164
124 143 163
123 141 163
123 141 162
124 143 163
126 145 166
115 134 152
121 140 159
121 140 160
117 135 153
113 132 150
119 139 157
117 134 152
114 132 150
108 128 144
107 126 141
116 134 154
110 128 144
109 128 143
109 127 143
103 124 136
107 127 140
104 122 136
106 124 138
110 128 143
105 125 139
103 122 137
111 129 145
109 128 143
110 129 143
106 123 138
106 123 139
115 132 150
115 134 152
119 138 156
108 127 140
113 132 149
122 140 160
116 134 153
120 138 157
90 100 114
71 71 86
49 38 52
50 39 53
52 40 55
50 39 53
53 41 56
56 43 58
54 41 56
50 39 53
53 41 56
52 40 55
52 40 55
57 44 59
56 43 59
53 41 56
55 42 58
55 43 59
54 42 58
55 41 57
52 39 55
56 43 60
55 42 59
53 41 57
51 39 54
49 38 53
49 37 54
51 40 56
50 39 54
51 39 54
52 42 56
71 73 90
94 100 119
118 132 154
126 142 166
129 145 169
123 140 163
129 144 169
125 138 162
127 143 167
122 132 156
124 135 159
76 104 143
108 129 154
128 147 171
129 147 170
133 151 175
127 146 168
129 149 173
131 148 172
130 149 172
130 149 174
131 149 173
133 152 176
130 148 172
130 150 174
133 151 174
129 145 169
134 152 176
134 152 176
133 152 176
135 155 180
132 151 175
133 151 175
133 148 173
127 145 168
128 147 170
129 145 169
132 151 175
128 145 166
129 145 170
130 146 170
129 146 171
128 142 167
129 144 169
128 144 167
129 147 169
133 151 175
127 144 167
129 145 168
128 142 168
128 141 166
126 140 165
129 144 168
131 146 172
126 140 165
126 141 165
126 139 165
118 130 153
123 133 158
124 132 158
125 134 159
124 135 159
122 132 156
116 121 145
116 123 147
120 115 141
130 99 131
134 79 115
146 32 94
158 26 99
163 27 102
156 26 97
159 26 100
158 26 99
156 26 97
163 27 102
160 26 99
157 26 99
160 26 100
164 27 103
160 26 100
159 26 100
161 27 101
151 25 95
155 26 98
158 26 100
155 26 100
157 26 99
149 25 96
153 25 97
153 25 97
155 26 98
152 25 98
153 25 98
144 24 93
154 26 97
150 25 95
145 28 93
142 68 112
138 95 130
131 115 145
128 138 164
126 140 165
126 140 163
129 143 169
127 142 165
128 142 166
128 140 165
129 143 167
126 140 166
128 143 168
127 141 167
130 144 170
129 146 170
130 144 170
132 151 176
129 144 169
128 144 169
129 144 170
130 148 174
129 146 170
126 141 165
130 148 171
131 149 174
132 149 174
131 147 171
133 149 174
134 150 175
133 151 175
132 149 173
129 147 171
127 144 168
129 147 170
132 150 174
132 150 175
127 144 168
116 130 148
94 106 117
82 89 89
75 81 78
75 84 80
74 83 80
72 80 77
74 84 80
73 82 78
70 79 76
72 81 78
73 81 78
75 84 79
73 83 79
76 85 80
74 84 80
74 83 80
73 82 79
71 82 78
74 84 80
76 85 81
78 88 84
79 89 84
75 85 81
74 84 79
76 86 82
72 82 77
76 86 81
76 85 80
79 88 83
78 88 83
73 82 77
76 86 82
92 104 109
105 120 134
123 141 160
131 148 171
124 142 163
130 148 170
130 148 171
131 149 172
129 147 170
130 148 171
125 145 166
128 147 169
128 146 168
128 145 166
126 145 166
127 146 167
127 146 170
123 143 164
124 143 164
125 143 164
126 144 166
118 136 156
124 142 163
124 143 165
126 145 166
124 142 161
120 138 157
124 143 164
122 142 160
118 136 153
120 139 157
107 125 140
116 136 154
113 131 149
114 133 149
115 133 150
115 134 150
110 128 145
108 124 141
115 135 151
111 131 147
119 137 155
109 127 143
112 130 146
111 129 144
113 133 149
115 135 151
114 132 150
119 137 155
111 130 145
118 137 155
113 132 149
119 138 156
117 135 154
113 132 149
115 134 153
109 125 142
79 83 99
53 46 60
52 40 55
50 39 53
55 42 58
54 41 56
52 40 54
54 42 57
55 42 58
50 39 52
52 40 55
53 41 55
50 38 53
52 41 56
56 43 58
55 42 58
55 43 59
52 40 55
53 40 57
50 38 55
53 41 57
55 42 58
53 41 56
53 40 57
50 38 53
48 37 53
49 38 53
50 39 54
49 37 53
52 43 58
78 79 95
101 110 130
121 134 157
125 138 162
126 140 164
127 141 165
128 144 168
124 137 162
127 142 166
125 137 161
119 133 155
90 113 146
115 136 164
131 151 175
125 144 168
127 146 171
128 147 169
130 147 171
130 149 170
130 150 173
132 149 173
129 147 171
130 148 172
130 149 173
130 148 172
131 149 173
131 150 173
125 143 165
131 147 170
130 148 172
132 149 174
129 147 171
133 152 176
130 149 173
131 148 171
129 146 170
129 146 170
131 149 173
133 148 173
131 146 171
132 148 173
132 150 175
134 150 175
131 147 171
127 143 167
130 146 169
125 138 163
131 146 171
129 144 168
132 148 173
131 146 171
128 144 169
128 142 167
128 141 166
129 141 167
128 140 166
126 137 163
123 134 158
121 128 153
124 136 160
127 135 161
118 126 150
126 134 159
119 125 150
119 128 151
123 109 136
136 91 125
137 58 104
155 37 101
156 26 98
161 26 100
157 26 99
162 27 100
153 25 95
163 27 101
157 26 99
155 26 98
154 25 97
158 26 99
155 26 98
158 26 100
158 26 99
157 26 97
156 26 98
161 27 100
153 25 96
148 25 95
153 25 97
153 25 98
157 26 98
149 25 95
153 26 98
149 25 96
148 24 95
150 25 95
143 24 92
150 25 94
146 24 93
140 39 95
131 88 122
131 122 151
122 130 153
124 137 162
124 134 159
127 142 165
126 140 164
128 141 166
126 140 164
129 144 170
130 146 171
129 143 168
132 149 174
128 143 169
126 141 165
125 142 169
123 139 166
121 137 167
121 138 169
119 136 168
108 124 160
116 132 164
119 136 166
120 137 166
127 145 169
128 145 170
128 144 170
127 145 168
134 151 174
131 148 172
130 148 172
133 151 175
128 146 170
134 151 175
128 145 170
129 148 170
131 149 173
117 133 152
86 96 103
75 82 81
70 75 72
73 81 78
73 81 78
73 81 78
75 84 79
70 78 76
72 82 78
73 80 77
72 81 78
74 83 80
75 84 80
79 89 85
74 84 80
75 84 80
75 85 81
73 83 79
73 83 79
73 82 78
76 86 81
72 81 77
77 87 82
72 81 77
76 86 80
71 81 76
76 86 81
72 82 78
77 86 81
74 83 79
75 85 80
75 84 79
90 101 106
106 121 135
124 142 164
130 149 172
128 147 169
124 142 164
130 149 171
129 148 171
127 146 168
129 147 171
130 148 171
129 147 169
130 148 171
122 141 161
127 146 167
129 147 169
125 141 163
126 145 168
129 148 170
127 146 167
123 141 164
122 139 160
121 140 160
123 144 165
126 145 167
116 135 154
121 142 160
120 140 160
121 140 158
118 138 156
119 138 158
113 132 148
121 140 158
123 142 163
118 138 156
116 135 152
119 138 158
121 141 161
120 139 157
115 134 152
115 134 151
115 134 153
119 137 156
123 142 163
113 131 150
112 129 147
108 127 142
119 139 158
118 137 156
115 133 151
121 140 160
120 139 160
124 143 164
118 138 156
122 139 160
119 137 156
110 126 146
91 101 117
61 59 71
51 39 54
50 39 53
52 40 55
52 40 54
52 40 54
53 41 55
54 41 57
52 40 54
52 40 56
52 41 56
52 40 55
50 39 53
53 41 56
51 39 54
49 37 53
52 40 56
53 40 55
50 39 54
54 41 58
51 39 55
50 39 54
51 39 54
54 41 57
49 38 52
50 39 54
50 38 53
48 37 52
62 58 72
87 95 113
112 122 144
122 137 161
122 138 162
132 147 173
123 138 162
124 137 162
127 140 164
123 135 158
123 135 158
126 137 162
97 119 151
115 133 158
131 149 173
130 147 171
125 144 167
127 147 169
130 148 170
132 150 175
124 143 164
131 148 172
132 151 174
127 145 169
129 145 170
129 147 170
127 145 169
130 148 172
129 144 168
129 148 172
129 147 171
130 147 171
132 151 175
131 150 174
128 145 169
129 146 171
132 149 173
131 148 173
130 146 171
128 144 167
132 147 172
129 147 171
131 148 173
129 145 170
128 145 169
133 150 175
128 142 165
125 140 165
126 143 168
130 146 172
127 143 167
128 143 168
129 142 167
130 145 169
128 144 169
128 140 164
130 143 168
128 141 165
126 138 163
124 137 161
122 132 157
123 134 158
127 140 165
124 137 161
123 133 158
125 129 155
119 106 133
137 86 123
145 60 108
153 30 97
153 25 96
156 26 97
157 26 97
155 26 97
158 26 97
154 25 97
157 26 98
152 25 95
157 26 99
154 26 98
154 26 97
152 25 96
153 26 97
156 26 98
149 25 95
154 25 96
148 25 95
153 25 97
157 26 99
145 24 92
141 23 90
147 24 94
152 25 96
143 24 91
155 26 98
148 25 95
145 24 93
144 24 92
145 24 91
137 47 97
134 71 109
134 109 140
122 134 158
127 139 165
127 142 166
127 141 165
125 138 162
126 141 165
130 147 171
127 143 167
129 145 170
129 142 168
120 134 164
114 132 167
113 130 162
108 124 162
98 115 159
97 115 159
99 115 157
103 122 163
92 109 156
98 117 159
94 113 155
108 123 161
107 124 163
115 132 166
114 132 164
123 141 166
126 145 171
131 149 173
133 150 173
132 149 172
130 146 170
132 149 173
131 149 172
130 147 172
124 140 163
115 131 150
95 106 115
73 80 78
70 76 73
70 78 75
70 78 75
69 76 73
72 78 75
72 80 76
71 79 75
73 80 77
69 77 75
71 81 78
72 81 76
74 83 80
73 82 78
72 81 78
75 85 79
72 82 78
78 87 83
74 84 80
75 85 81
74 83 79
77 87 82
74 83 78
75 85 81
76 86 81
72 82 78
72 81 77
74 84 79
76 85 80
72 81 76
73 82 78
86 97 101
104 118 132
120 138 157
129 146 169
131 149 172
126 144 166
129 146 169
130 149 173
131 150 174
126 146 168
126 146 168
125 144 166
132 150 174
125 142 163
122 141 162
124 143 164
129 147 169
122 141 160
128 145 166
129 148 169
127 145 167
128 147 168
130 148 171
121 140 160
124 142 164
118 138 158
123 142 163
122 142 161
123 142 163
128 147 169
122 141 161
127 146 168
124 143 163
123 142 163
119 138 156
123 141 162
118 138 158
118 136 156
115 134 152
122 140 161
119 139 158
115 134 153
118 134 154
121 139 158
122 140 159
110 129 147
118 136 156
122 139 159
119 138 157
111 129 146
122 140 161
115 133 150
117 135 154
118 136 156
124 143 164
120 137 158
118 134 156
95 106 123
75 80 95
50 42 55
51 39 53
49 38 51
49 38 52
51 40 54
50 39 54
51 39 54
52 40 55
53 41 56
50 39 53
50 39 53
52 40 54
51 39 54
52 40 54
50 38 53
51 39 55
55 42 58
52 40 55
51 39 54
49 38 53
48 37 52
52 39 55
49 37 52
47 35 50
47 36 51
50 39 53
48 37 52
75 79 94
97 105 123
114 127 150
125 140 164
125 141 165
125 140 163
127 142 167
127 141 165
125 136 158
127 139 165
126 141 165
127 138 163
111 131 159
126 145 169
125 144 165
131 150 173
128 147 172
130 148 172
127 144 168
128 147 170
130 147 170
131 149 174
130 146 170
129 148 171
131 150 173
126 144 167
132 148 173
130 148 171
126 143 167
128 145 168
130 148 173
131 145 171
130 148 172
130 147 171
130 147 171
130 148 172
129 146 170
132 149 174
129 147 172
126 142 166
134 153 177
131 145 170
129 146 170
131 148 171
132 148 173
129 147 172
128 144 168
131 145 171
132 148 173
128 145 169
131 147 173
127 141 166
130 143 168
126 142 167
129 142 167
132 148 172
126 140 165
129 145 171
129 144 169
125 135 160
128 140 165
125 135 160
127 139 164
119 122 148
117 126 150
123 130 156
124 108 136
142 82 122
149 43 101
157 26 97
156 25 96
153 25 95
153 25 95
149 24 93
155 26 97
159 26 100
158 26 98
152 25 95
154 25 96
157 26 99
156 26 98
146 24 91
156 26 99
153 25 97
147 24 93
148 25 95
154 26 98
146 24 93
147 24 94
149 25 95
150 25 94
154 25 96
151 25 95
143 24 91
141 23 91
147 24 93
141 23 88
138 23 88
143 24 89
138 23 88
130 71 107
129 111 139
125 133 158
123 138 161
128 142 168
126 138 163
128 141 166
126 141 165
131 147 172
129 144 169
121 138 166
115 131 164
108 126 164
99 115 157
90 108 157
77 97 155
79 99 155
78 98 154
68 86 147
69 89 151
71 89 150
69 90 151
72 91 152
71 91 149
85 103 153
96 113 159
102 118 157
106 123 160
118 135 165
127 143 168
127 143 167
130 147 171
134 153 178
131 150 174
133 150 174
132 149 172
131 150 173
117 132 152
98 108 120
74 81 80
71 78 75
72 80 77
70 77 74
70 78 75
69 77 75
68 75 72
68 77 75
74 82 79
75 85 81
73 82 79
71 80 77
73 81 78
71 80 76
74 83 79
71 80 76
74 84 79
70 79 75
75 85 80
74 83 79
72 82 77
72 82 78
72 82 78
70 80 76
73 83 78
72 82 78
71 81 76
72 82 78
72 81 77
74 83 79
69 78 74
88 100 108
101 115 127
123 141 161
125 143 165
129 147 171
131 149 172
129 146 169
128 147 170
129 147 171
126 143 165
123 141 161
128 147 170
129 146 169
127 147 169
129 148 171
127 145 167
124 143 163
125 143 166
124 143 164
126 144 167
125 144 165
127 147 168
128 147 170
128 146 168
130 147 170
124 143 163
128 148 170
128 147 169
127 145 167
126 145 168
116 135 153
127 144 164
126 145 167
121 139 159
124 142 163
124 143 165
121 140 161
125 144 166
118 137 156
124 143 165
123 142 162
121 139 160
122 141 161
127 145 167
120 139 160
120 137 159
116 135 155
121 139 160
125 143 164
121 139 160
121 140 160
128 146 169
122 140 160
122 140 162
115 134 152
115 133 152
118 135 156
109 123 142
94 103 121
65 65 79
52 43 57
46 36 49
48 37 50
50 39 53
51 39 54
52 40 54
47 36 50
52 40 54
51 39 54
51 39 54
52 40 54
48 37 52
50 39 53
51 39 54
48 37 51
50 39 54
52 40 55
50 39 54
48 36 51
50 38 54
45 35 49
46 35 50
48 36 52
46 36 49
45 34 48
57 53 67
89 96 113
108 119 140
122 138 162
125 142 165
122 137 161
128 143 167
124 139 163
122 135 158
127 139 165
127 139 163
123 134 158
119 133 156
119 137 165
128 146 170
129 148 171
129 148 172
126 144 168
127 146 169
127 144 169
123 142 165
129 148 169
128 147 171
130 147 171
129 148 172
131 149 173
131 149 173
130 148 171
131 148 172
128 146 170
133 150 174
124 140 163
132 151 176
131 148 172
131 149 173
130 146 170
131 148 173
130 147 172
127 142 167
129 147 171
131 148 173
129 143 168
129 148 171
132 148 171
132 147 172
129 145 169
132 148 172
129 145 170
135 151 176
129 145 169
127 142 166
130 143 169
127 141 166
129 145 170
129 146 171
130 146 172
131 146 170
124 136 161
128 142 166
125 137 163
124 135 161
129 145 170
125 139 162
127 137 162
129 141 166
123 133 158
125 129 154
133 120 147
132 92 124
151 37 97
153 25 96
154 25 96
154 25 96
158 26 97
156 26 96
154 25 96
157 26 98
156 26 96
157 26 96
158 26 99
155 25 97
156 25 96
156 26 98
153 25 95
152 25 96
155 26 97
144 24 91
145 24 90
144 24 91
149 25 95
143 24 92
148 24 94
143 24 92
141 23 89
137 23 88
150 25 93
143 23 90
141 23 91
139 23 88
135 22 85
139 32 89
133 74 111
128 99 128
128 131 157
129 145 169
129 141 166
128 144 169
129 144 168
127 142 167
123 139 165
114 129 162
101 116 156
109 125 163
89 104 153
66 83 147
65 85 148
64 84 149
44 69 146
40 66 145
36 64 144
22 56 143
39 65 144
21 56 141
33 61 143
40 66 144
51 75 147
67 88 148
77 96 153
86 102 153
94 111 155
109 126 161
118 134 164
126 145 171
132 151 176
125 143 165
129 144 169
131 147 172
128 145 167
123 139 159
100 113 126
76 81 84
68 73 71
68 75 72
69 76 73
71 76 73
70 77 74
68 77 74
68 76 73
68 75 72
68 76 73
65 73 71
68 77 74
69 77 74
69 79 75
71 80 77
73 82 78
73 83 78
70 80 75
71 81 76
70 79 76
73 83 78
73 83 78
74 83 79
72 82 78
74 83 78
75 84 79
75 84 79
72 81 77
71 80 76
68 77 72
77 86 83
92 106 112
107 122 136
122 140 161
134 153 178
132 150 174
128 146 168
129 147 170
123 142 163
130 149 172
128 145 168
131 149 172
128 146 169
131 150 172
131 149 172
128 146 169
126 144 166
126 144 166
127 145 167
130 148 171
129 147 169
126 144 166
129 148 171
126 145 168
124 142 163
124 144 164
124 142 164
127 146 167
127 145 167
126 144 165
126 144 167
123 141 162
123 140 162
130 148 171
129 147 169
127 146 167
130 148 172
120 138 159
123 141 163
125 142 164
125 143 165
121 140 160
122 142 162
123 140 161
120 139 160
123 142 162
123 142 163
124 141 161
120 139 159
121 139 160
122 140 161
122 141 161
118 136 156
124 142 164
119 136 157
119 135 155
121 137 158
127 144 166
119 135 157
107 121 140
78 84 99
70 70 84
48 37 50
51 39 54
47 37 50
50 38 53
48 37 51
49 38 52
51 39 53
50 39 53
48 37 51
47 37 51
50 39 53
45 35 49
48 37 52
49 38 53
48 37 52
44 34 47
47 36 51
45 35 49
50 38 53
49 38 53
40 31 44
46 36 50
45 35 49
52 46 60
76 81 97
100 110 132
123 136 159
124 140 164
124 140 162
126 137 162
124 140 163
118 133 154
116 127 150
122 135 159
123 135 160
121 133 156
123 137 162
126 144 167
129 147 171
128 145 169
120 137 161
128 146 170
125 143 166
125 144 167
127 142 167
131 149 172
128 146 170
129 146 171
130 149 173
132 150 174
130 146 171
129 148 172
128 147 170
131 147 171
127 143 167
130 147 170
126 144 167
130 149 173
131 148 172
131 148 172
136 152 176
130 147 172
129 146 171
130 147 171
130 148 172
131 150 174
129 146 171
131 146 172
132 149 173
130 146 171
128 144 169
129 145 170
131 148 172
130 147 172
131 148 172
131 144 169
130 145 169
128 140 164
125 140 165
126 138 164
129 143 168
127 141 166
127 141 166
125 139 164
124 137 161
129 142 166
127 141 167
131 144 169
127 138 163
126 139 163
129 133 159
130 114 143
141 85 122
146 44 100
152 25 95
154 25 97
151 25 95
146 24 89
151 25 94
151 25 94
152 25 95
152 25 97
152 25 96
148 25 94
154 25 95
147 24 92
146 24 93
149 25 94
147 24 93
143 24 90
144 24 91
146 24 92
144 24 91
141 23 91
144 24 92
139 23 90
143 24 91
129 21 85
144 24 92
144 24 91
144 24 91
139 23 88
145 24 91
131 22 84
134 22 87
129 59 101
130 108 137
125 130 155
127 141 165
128 140 166
131 149 173
125 141 167
120 133 164
105 121 159
109 124 163
75 95 149
62 83 147
54 75 144
47 71 144
33 60 143
12 52 141
12 52 141
12 52 141
12 52 140
12 51 140
12 52 141
12 52 141
12 52 141
12 52 140
17 53 139
34 62 141
40 65 141
55 78 147
73 91 148
93 110 157
101 121 161
109 124 160
122 138 167
128 147 171
128 144 168
133 150 174
130 147 172
118 133 152
99 112 125
83 90 94
62 66 64
62 68 65
66 73 71
65 73 71
64 71 69
70 77 75
67 74 72
70 79 75
66 74 71
65 73 69
67 74 71
70 80 75
69 78 74
71 80 76
70 79 75
73 83 78
74 83 79
72 81 78
70 80 76
69 78 74
72 82 77
71 80 76
71 81 77
71 80 75
70 80 75
75 85 80
73 82 77
73 82 77
71 80 77
71 81 78
87 99 105
109 124 140
130 147 169
131 150 173
127 144 166
134 154 178
127 147 169
127 144 166
128 147 169
130 148 171
129 148 171
126 144 166
123 141 163
132 149 172
128 146 170
130 149 173
135 153 176
127 146 167
128 147 171
130 147 170
134 152 176
128 147 170
128 148 170
129 148 171
127 145 168
130 149 172
125 145 167
128 146 168
125 143 165
128 146 168
121 139 160
127 146 170
129 147 170
126 144 167
124 142 164
125 144 165
126 143 165
123 141 163
128 145 167
125 143 165
123 141 162
121 138 159
124 142 163
121 139 160
128 147 170
122 140 162
123 142 163
126 144 166
126 142 165
120 137 157
117 133 153
126 143 164
118 136 156
121 139 159
113 129 149
125 143 165
119 135 156
121 137 160
113 128 148
100 111 129
69 74 85
53 48 62
44 34 47
47 37 50
46 36 49
44 34 47
47 36 50
46 36 49
46 35 48
48 37 51
47 36 50
45 35 49
49 38 52
45 34 49
47 36 50
46 35 49
45 35 48
46 36 50
47 36 51
48 37 50
42 33 46
47 36 51
45 34 48
54 47 61
71 73 89
95 103 122
117 131 153
118 130 152
120 136 159
125 141 164
124 140 163
122 137 160
123 137 159
123 138 162
128 142 166
126 139 163
127 142 167
120 133 157
126 144 166
125 142 166
126 145 168
126 144 169
128 145 168
125 142 167
121 139 164
129 148 172
123 141 165
130 148 172
131 149 172
131 150 174
131 147 172
130 147 170
131 148 173
131 148 174
132 150 172
129 146 170
127 145 170
130 146 171
133 151 175
125 140 164
129 147 172
130 149 175
130 145 170
129 145 170
127 142 166
129 144 169
128 145 170
129 144 169
135 152 177
128 145 168
128 144 169
130 145 169
131 147 171
131 148 173
130 143 167
133 148 173
130 145 171
130 146 170
129 145 170
133 149 174
131 146 172
128 142 167
130 145 169
130 146 171
128 144 168
122 133 157
129 142 168
124 136 162
125 140 163
131 145 170
129 141 167
128 131 156
131 103 133
135 83 119
145 42 96
147 24 90
154 25 94
147 24 93
143 24 90
147 24 92
147 24 93
149 24 92
150 25 93
150 25 93
150 25 93
150 25 95
149 25 94
142 24 91
150 25 95
152 25 93
145 24 91
149 25 95
148 24 94
143 24 92
151 25 95
139 23 89
137 23 88
142 23 91
142 23 90
138 23 88
145 24 90
131 21 82
136 22 87
134 22 85
138 23 88
132 22 84
126 70 107
140 100 134
123 112 138
129 145 169
132 148 173
126 140 165
126 142 170
107 125 161
87 105 155
75 92 150
58 77 145
51 70 143
25 57 140
11 51 138
11 51 139
12 52 141
11 51 138
12 52 142
12 52 140
12 52 141
12 51 139
12 52 141
12 52 140
12 52 140
12 52 140
12 52 140
12 51 139
11 51 138
31 60 140
54 76 146
79 97 150
98 117 161
111 129 162
118 135 163
129 146 171
134 151 176
133 150 174
120 137 157
102 115 128
85 95 102
64 68 67
62 66 64
66 72 69
65 72 70
63 69 67
62 69 67
61 69 68
70 78 74
66 75 72
68 75 72
67 75 72
70 79 75
70 79 76
68 78 74
66 74 70
68 77 73
74 83 78
70 79 76
73 83 78
68 77 74
73 81 76
70 78 74
65 75 71
70 79 75
69 78 73
72 81 76
69 78 73
69 77 73
69 78 74
74 84 85
92 105 114
116 133 152
123 142 164
129 147 171
126 143 165
129 147 171
131 148 171
131 150 172
127 144 166
127 146 168
129 148 171
127 144 167
127 145 168
131 149 174
131 150 174
130 147 170
130 149 172
128 145 168
131 149 171
129 148 171
131 148 171
132 151 174
128 147 171
127 144 167
130 147 170
130 148 171
128 146 169
130 149 172
128 146 169
128 146 167
125 143 165
123 141 163
128 146 170
123 142 163
125 143 166
118 135 156
123 141 163
127 146 169
124 142 164
129 147 169
120 138 161
122 139 160
121 140 160
124 142 163
120 138 159
125 144 167
122 139 161
120 137 158
121 139 159
125 143 164
122 139 160
122 138 160
120 138 159
119 137 156
116 134 153
115 132 151
117 133 153
119 134 156
119 135 157
109 123 143
89 99 116
69 72 87
54 52 64
42 32 44
44 34 46
44 34 46
46 36 49
45 34 47
47 37 50
44 34 47
48 37 51
47 36 50
47 36 49
42 32 46
46 36 49
46 36 49
47 36 50
43 33 46
47 36 50
46 35 50
46 35 49
42 32 45
47 37 51
64 60 76
84 90 106
108 122 142
119 133 156
121 134 158
123 140 163
126 144 167
124 140 163
126 141 166
124 139 163
124 140 164
126 141 166
120 133 156
126 140 165
121 132 164
